;FLAVOR:Marlin
;TIME:1173
;Filament used: 0.905848m
;Layer height: 0.2
;MINX:139.535
;MINY:138.035
;MINZ:0.3
;MAXX:160.465
;MAXY:161.965
;MAXZ:22.9
;Generated with Cura_SteamEngine 4.8.0
M140 S60
M105
M190 S60
M104 S205
M105
M109 S205
M82 ;absolute extrusion mode
M201 X500.00 Y500.00 Z100.00 E5000.00 ;Setup machine max acceleration
M203 X500.00 Y500.00 Z10.00 E50.00 ;Setup machine max feedrate
M204 P500.00 R1000.00 T500.00 ;Setup Print/Retract/Travel acceleration
M205 X8.00 Y8.00 Z0.40 E5.00 ;Setup Jerk
M220 S100 ;Reset Feedrate
M221 S100 ;Reset Flowrate

G28 ;Home

G92 E0 ;Reset Extruder
G1 Z2.0 F3000 ;Move Z Axis up
G1 X10.1 Y20 Z0.28 F5000.0 ;Move to start position
G1 X10.1 Y200.0 Z0.28 F1500.0 E15 ;Draw the first line
G1 X10.4 Y200.0 Z0.28 F5000.0 ;Move to side a little
G1 X10.4 Y20 Z0.28 F1500.0 E30 ;Draw the second line
G92 E0 ;Reset Extruder
G1 Z2.0 F3000 ;Move Z Axis up

G92 E0
G92 E0
G1 F1500 E-6.5
;LAYER_COUNT:114
;LAYER:0
M107
M204 S500
;MESH:CABLE-HOLDER-1.0.stl
G0 F3600 X150 Y155.458 Z0.3
M204 S100
;TYPE:WALL-INNER
G1 F1500 E0
G1 X150.946 Y155.344 E0.04801
G1 X151.84 Y155.005 E0.09619
G1 X152.626 Y154.464 E0.14427
G1 X153.259 Y153.746 E0.1925
G1 X153.701 Y152.903 E0.24047
G1 X153.93 Y151.977 E0.28853
G1 X153.93 Y151.023 E0.3366
G1 X153.701 Y150.097 E0.38467
G1 X153.259 Y149.254 E0.43263
G1 X152.626 Y148.536 E0.48086
G1 X151.84 Y147.995 E0.52894
G1 X150.946 Y147.656 E0.57712
G1 X150.898 Y147.651 E0.57955
G1 X150 Y147.542 E0.62514
G1 X149.054 Y147.656 E0.67315
G1 X148.16 Y147.995 E0.72133
G1 X147.374 Y148.536 E0.76941
G1 X146.741 Y149.254 E0.81764
G1 X146.299 Y150.097 E0.8656
G1 X146.07 Y151.023 E0.91367
G1 X146.07 Y151.977 E0.96174
G1 X146.299 Y152.903 E1.00981
G1 X146.741 Y153.746 E1.05777
G1 X147.374 Y154.464 E1.106
G1 X148.16 Y155.005 E1.15408
G1 X149.054 Y155.344 E1.20226
G1 X149.102 Y155.349 E1.20469
G1 X150 Y155.458 E1.25027
M204 S500
G0 F3600 X150 Y155.055
M204 S100
G1 F1500 X150.85 Y154.953 E1.29341
G1 X151.653 Y154.648 E1.33669
G1 X152.359 Y154.162 E1.37988
G1 X152.927 Y153.518 E1.42315
G1 X153.324 Y152.76 E1.46627
G1 X153.53 Y151.928 E1.50946
G1 X153.53 Y151.072 E1.55259
G1 X153.324 Y150.24 E1.59578
G1 X152.927 Y149.482 E1.6389
G1 X152.359 Y148.838 E1.68216
G1 X151.653 Y148.352 E1.72535
G1 X150.85 Y148.047 E1.76864
G1 X150 Y147.945 E1.81177
G1 X149.15 Y148.047 E1.85491
G1 X148.347 Y148.352 E1.8982
G1 X147.641 Y148.838 E1.94138
G1 X147.073 Y149.482 E1.98465
G1 X146.676 Y150.24 E2.02777
G1 X146.47 Y151.072 E2.07096
G1 X146.47 Y151.928 E2.11409
G1 X146.676 Y152.76 E2.15728
G1 X147.073 Y153.518 E2.2004
G1 X147.641 Y154.162 E2.24367
G1 X148.347 Y154.648 E2.28686
G1 X149.15 Y154.953 E2.33014
G1 X150 Y155.055 E2.37328
M204 S500
G0 F3600 X150 Y154.652
M204 S100
;TYPE:WALL-OUTER
G1 F1500 X150.754 Y154.562 E2.41154
G1 X151.466 Y154.291 E2.44993
G1 X152.092 Y153.86 E2.48823
G1 X152.595 Y153.29 E2.52653
G1 X152.947 Y152.617 E2.5648
G1 X153.13 Y151.879 E2.60311
G1 X153.13 Y151.121 E2.64131
G1 X152.947 Y150.383 E2.67962
G1 X152.595 Y149.71 E2.71789
G1 X152.092 Y149.14 E2.7562
G1 X151.466 Y148.709 E2.7945
G1 X150.754 Y148.438 E2.83288
G1 X150 Y148.348 E2.87115
G1 X149.246 Y148.438 E2.90941
G1 X148.534 Y148.709 E2.9478
G1 X147.908 Y149.14 E2.9861
G1 X147.405 Y149.71 E3.0244
G1 X147.053 Y150.383 E3.06267
G1 X146.87 Y151.121 E3.10098
G1 X146.87 Y151.879 E3.13918
G1 X147.053 Y152.617 E3.17749
G1 X147.405 Y153.29 E3.21576
G1 X147.908 Y153.86 E3.25407
G1 X148.534 Y154.291 E3.29237
G1 X149.246 Y154.562 E3.33075
G1 X150 Y154.652 E3.36902
M204 S500
G0 F3600 X150 Y155.092
G1 F1500 E-3.13098
G0 F3600 X151.929 Y155.175
G0 X151.059 Y153.522
G0 X151.929 Y161.965
G0 X151.929 Y160.09
G0 X158.8 Y160.3
M204 S100
;TYPE:WALL-INNER
G1 F1500 E3.36902
G1 X141.2 Y160.3 E4.25587
G1 X141.2 Y139.7 E5.29388
G1 X158.8 Y139.7 E6.18073
G1 X158.8 Y160.3 E7.21875
M204 S500
G0 F3600 X159.2 Y160.7
M204 S100
G1 F1500 X140.8 Y160.7 E8.1459
G1 X140.8 Y139.3 E9.22423
G1 X159.2 Y139.3 E10.15139
G1 X159.2 Y160.7 E11.22972
M204 S500
G0 F3600 X159.6 Y161.1
M204 S100
;TYPE:WALL-OUTER
G1 F1500 X140.4 Y161.1 E12.19719
G1 X140.4 Y138.9 E13.31583
G1 X159.6 Y138.9 E14.2833
G1 X159.6 Y161.1 E15.40194
M204 S500
G0 F3600 X159.33 Y160.83
G0 X158.69 Y159.91
G0 X158.41 Y159.91
M204 S100
;TYPE:SKIN
G1 F1500 X141.59 Y159.91 E16.24109
G1 X141.59 Y140.09 E17.22991
G1 X158.41 Y140.09 E18.06907
G1 X158.41 Y159.91 E19.05789
M204 S500
G1 F1500 E12.55789
G0 F3600 X158.69 Y159.91
G0 X158.59 Y154.547
G0 X160.465 Y154.547
G0 X151.877 Y152.798
G0 X153.417 Y153.855
G0 X152.7 Y154.547
G0 X152.887 Y154.758
M204 S100
G1 F1500 E19.05789
G1 X153.583 Y153.968 E19.11042
G1 X154.068 Y153.042 E19.16257
G1 X154.32 Y152.024 E19.21489
G1 X154.32 Y150.976 E19.26717
G1 X154.068 Y149.958 E19.3195
G1 X153.583 Y149.032 E19.37165
G1 X152.887 Y148.242 E19.42417
G1 X152.022 Y147.647 E19.47655
G1 X151.04 Y147.274 E19.52896
G1 X150 Y147.15 E19.58121
G1 X148.96 Y147.274 E19.63347
G1 X147.978 Y147.647 E19.68587
G1 X147.113 Y148.242 E19.73825
G1 X146.417 Y149.032 E19.79078
G1 X145.932 Y149.958 E19.84293
G1 X145.68 Y150.976 E19.89525
G1 X145.68 Y152.024 E19.94754
G1 X145.932 Y153.042 E19.99986
G1 X146.417 Y153.968 E20.05201
G1 X147.113 Y154.758 E20.10454
G1 X147.978 Y155.353 E20.15692
G1 X148.96 Y155.726 E20.20932
G1 X150 Y155.85 E20.26158
G1 X151.04 Y155.726 E20.31383
G1 X152.022 Y155.353 E20.36624
G1 X152.887 Y154.758 E20.41862
M204 S500
G1 F1500 E13.91862
G0 F3600 X152.7 Y154.547
G0 X149.007 Y155.53
G0 X149.451 Y153.716
G0 X149.007 Y161.965
G0 X149.007 Y160.09
G0 X142.252 Y160.19
G0 X142.252 Y159.789
M204 S100
G1 F1500 E20.41862
G1 X141.709 Y159.245 E20.45696
M204 S500
G0 F3600 X141.709 Y158.679
M204 S100
G1 F1500 X142.818 Y159.789 E20.53525
M204 S500
G0 F3600 X143.384 Y159.789
M204 S100
G1 F1500 X141.709 Y158.114 E20.65343
M204 S500
G0 F3600 X141.709 Y157.548
M204 S100
G1 F1500 X143.949 Y159.789 E20.81151
M204 S500
G0 F3600 X144.515 Y159.789
M204 S100
G1 F1500 X141.709 Y156.982 E21.00952
M204 S500
G0 F3600 X141.709 Y156.416
M204 S100
G1 F1500 X145.081 Y159.789 E21.24747
M204 S500
G0 F3600 X145.647 Y159.789
M204 S100
G1 F1500 X141.709 Y155.851 E21.52531
M204 S500
G0 F3600 X141.709 Y155.285
M204 S100
G1 F1500 X146.212 Y159.789 E21.84306
M204 S500
G0 F3600 X146.778 Y159.789
M204 S100
G1 F1500 X141.709 Y154.719 E22.20074
M204 S500
G0 F3600 X141.709 Y154.154
M204 S100
G1 F1500 X147.344 Y159.789 E22.59832
M204 S500
G0 F3600 X147.909 Y159.789
M204 S100
G1 F1500 X141.709 Y153.588 E23.0358
M204 S500
G0 F3600 X141.709 Y153.022
M204 S100
G1 F1500 X148.475 Y159.789 E23.51321
M204 S500
G0 F3600 X149.041 Y159.789
M204 S100
G1 F1500 X141.709 Y152.457 E24.03052
M204 S500
G0 F3600 X141.709 Y151.891
M204 S100
G1 F1500 X149.606 Y159.789 E24.58774
M204 S500
G0 F3600 X150.172 Y159.789
M204 S100
G1 F1500 X141.709 Y151.325 E25.18488
M204 S500
G0 F3600 X141.709 Y150.76
M204 S100
G1 F1500 X150.738 Y159.789 E25.82193
M204 S500
G0 F3600 X151.303 Y159.789
M204 S100
G1 F1500 X141.709 Y150.194 E26.49887
M204 S500
G0 F3600 X141.709 Y149.628
M204 S100
G1 F1500 X151.869 Y159.789 E27.21575
M204 S500
G0 F3600 X152.435 Y159.789
M204 S100
G1 F1500 X148.217 Y155.571 E27.51335
M204 S500
G0 F3600 X149.071 Y155.859
M204 S100
G1 F1500 X153 Y159.789 E27.7906
M204 S500
G0 F3600 X153.566 Y159.789
M204 S100
G1 F1500 X149.714 Y155.936 E28.06241
M204 S500
G0 F3600 X150.28 Y155.937
M204 S100
G1 F1500 X154.132 Y159.789 E28.33419
M204 S500
G0 F3600 X154.697 Y159.789
M204 S100
G1 F1500 X150.785 Y155.876 E28.61024
M204 S500
G0 F3600 X151.248 Y155.774
M204 S100
G1 F1500 X155.263 Y159.789 E28.89352
M204 S500
G0 F3600 X155.829 Y159.789
M204 S100
G1 F1500 X151.658 Y155.618 E29.18781
M204 S500
G0 F3600 X152.068 Y155.463
M204 S100
G1 F1500 X156.395 Y159.789 E29.49307
M204 S500
G0 F3600 X156.96 Y159.789
M204 S100
G1 F1500 X152.406 Y155.234 E29.81441
M204 S500
G0 F3600 X152.741 Y155.004
M204 S100
G1 F1500 X157.526 Y159.789 E30.15202
M204 S500
G0 F3600 X158.092 Y159.789
M204 S100
G1 F1500 X153.052 Y154.749 E30.50762
M204 S500
G0 F3600 X153.317 Y154.449
M204 S100
G1 F1500 X158.29 Y159.421 E30.85845
M204 S500
G0 F3600 X158.29 Y158.855
M204 S100
G1 F1500 X153.582 Y154.148 E31.19059
M204 S500
G0 F3600 X153.803 Y153.803
M204 S100
G1 F1500 X158.29 Y158.29 E31.50717
M204 S500
G0 F3600 X158.29 Y157.724
M204 S100
G1 F1500 X153.997 Y153.432 E31.81003
M204 S500
G0 F3600 X154.186 Y153.055
M204 S100
G1 F1500 X158.29 Y157.158 E32.09956
M204 S500
G0 F3600 X158.29 Y156.593
M204 S100
G1 F1500 X154.299 Y152.602 E32.38114
M204 S500
G0 F3600 X154.41 Y152.148
M204 S100
G1 F1500 X158.29 Y156.027 E32.65486
M204 S500
G0 F3600 X158.29 Y155.461
M204 S100
G1 F1500 X154.439 Y151.61 E32.92657
M204 S500
G0 F3600 X154.439 Y151.045
M204 S100
G1 F1500 X158.29 Y154.895 E33.19825
M204 S500
G0 F3600 X158.29 Y154.33
M204 S100
G1 F1500 X154.279 Y150.319 E33.48124
M204 S500
G0 F3600 X153.893 Y150.414
G0 X153.539 Y149.55
G0 X153.891 Y149.366
M204 S100
G1 F1500 X158.29 Y153.764 E33.79158
M204 S500
G0 F3600 X158.29 Y153.198
M204 S100
G1 F1500 X145.301 Y140.21 E34.70799
M204 S500
G0 F3600 X145.866 Y140.21
M204 S100
G1 F1500 X158.29 Y152.633 E35.58454
M204 S500
G0 F3600 X158.29 Y152.067
M204 S100
G1 F1500 X146.432 Y140.21 E36.42115
M204 S500
G0 F3600 X146.998 Y140.21
M204 S100
G1 F1500 X158.29 Y151.501 E37.21782
M204 S500
G0 F3600 X158.29 Y150.936
M204 S100
G1 F1500 X147.563 Y140.21 E37.97464
M204 S500
G0 F3600 X148.129 Y140.21
M204 S100
G1 F1500 X158.29 Y150.37 E38.69151
M204 S500
G0 F3600 X158.29 Y149.804
M204 S100
G1 F1500 X148.695 Y140.21 E39.36846
M204 S500
G0 F3600 X149.261 Y140.21
M204 S100
G1 F1500 X158.29 Y149.239 E40.0055
M204 S500
G0 F3600 X158.29 Y148.673
M204 S100
G1 F1500 X149.826 Y140.21 E40.60265
M204 S500
G0 F3600 X150.392 Y140.21
M204 S100
G1 F1500 X158.29 Y148.107 E41.15986
M204 S500
G0 F3600 X158.29 Y147.542
M204 S100
G1 F1500 X150.958 Y140.21 E41.67717
M204 S500
G0 F3600 X151.523 Y140.21
M204 S100
G1 F1500 X158.29 Y146.976 E42.15458
M204 S500
G0 F3600 X158.29 Y146.41
M204 S100
G1 F1500 X152.089 Y140.21 E42.59206
M204 S500
G0 F3600 X152.655 Y140.21
M204 S100
G1 F1500 X158.29 Y145.845 E42.98964
M204 S500
G0 F3600 X158.29 Y145.279
M204 S100
G1 F1500 X153.22 Y140.21 E43.34732
M204 S500
G0 F3600 X153.786 Y140.21
M204 S100
G1 F1500 X158.29 Y144.713 E43.66507
M204 S500
G0 F3600 X158.29 Y144.147
M204 S100
G1 F1500 X154.352 Y140.21 E43.94288
M204 S500
G0 F3600 X154.917 Y140.21
M204 S100
G1 F1500 X158.29 Y143.582 E44.18083
M204 S500
G0 F3600 X158.29 Y143.016
M204 S100
G1 F1500 X155.483 Y140.21 E44.37884
M204 S500
G0 F3600 X156.049 Y140.21
M204 S100
G1 F1500 X158.29 Y142.45 E44.53692
M204 S500
G0 F3600 X158.29 Y141.885
M204 S100
G1 F1500 X156.614 Y140.21 E44.65514
M204 S500
G0 F3600 X157.18 Y140.21
M204 S100
G1 F1500 X158.29 Y141.319 E44.73342
M204 S500
G0 F3600 X158.29 Y140.753
M204 S100
G1 F1500 X157.746 Y140.21 E44.77177
M204 S500
G1 F1500 E38.27177
G0 F3600 X157.746 Y139.81
G0 X151.891 Y139.91
G0 X151.891 Y138.035
G0 X150.549 Y149.284
G0 X150.993 Y147.47
G0 X151.891 Y147.896
G0 X152.059 Y147.534
M204 S100
G1 F1500 E44.77177
G1 X144.735 Y140.21 E45.28851
M204 S500
G0 F3600 X144.169 Y140.21
M204 S100
G1 F1500 X151.146 Y147.186 E45.78074
M204 S500
G0 F3600 X150.48 Y147.085
M204 S100
G1 F1500 X143.604 Y140.21 E46.26585
M204 S500
G0 F3600 X143.038 Y140.21
M204 S100
G1 F1500 X149.872 Y147.044 E46.74802
M204 S500
G0 F3600 X149.367 Y147.104
M204 S100
G1 F1500 X142.472 Y140.21 E47.23447
M204 S500
G0 F3600 X141.907 Y140.21
M204 S100
G1 F1500 X148.874 Y147.177 E47.72603
M204 S500
G0 F3600 X148.464 Y147.333
M204 S100
G1 F1500 X141.709 Y140.577 E48.20266
M204 S500
G0 F3600 X141.709 Y141.143
M204 S100
G1 F1500 X148.055 Y147.489 E48.65041
M204 S500
G0 F3600 X147.695 Y147.695
M204 S100
G1 F1500 X141.709 Y141.709 E49.07275
M204 S500
G0 F3600 X141.709 Y142.274
M204 S100
G1 F1500 X147.359 Y147.925 E49.47143
M204 S500
G0 F3600 X147.026 Y148.157
M204 S100
G1 F1500 X141.709 Y142.84 E49.84657
M204 S500
G0 F3600 X141.709 Y143.406
M204 S100
G1 F1500 X146.762 Y148.459 E50.20309
M204 S500
G0 F3600 X146.496 Y148.759
M204 S100
G1 F1500 X141.709 Y143.971 E50.54087
M204 S500
G0 F3600 X141.709 Y144.537
M204 S100
G1 F1500 X146.255 Y149.083 E50.86162
M204 S500
G0 F3600 X146.06 Y149.454
M204 S100
G1 F1500 X141.709 Y145.103 E51.1686
M204 S500
G0 F3600 X141.709 Y145.668
M204 S100
G1 F1500 X145.866 Y149.826 E51.46194
M204 S500
G0 F3600 X145.734 Y150.26
M204 S100
G1 F1500 X141.709 Y146.234 E51.74596
M204 S500
G0 F3600 X141.709 Y146.8
M204 S100
G1 F1500 X145.622 Y150.713 E52.02204
M204 S500
G0 F3600 X145.56 Y151.216
M204 S100
G1 F1500 X141.709 Y147.366 E52.29371
M204 S500
G0 F3600 X141.709 Y147.931
M204 S100
G1 F1500 X145.56 Y151.782 E52.56542
M204 S500
G0 F3600 X145.663 Y152.451
M204 S100
G1 F1500 X141.709 Y148.497 E52.8444
M204 S500
G0 F3600 X141.709 Y149.063
M204 S100
G1 F1500 X145.917 Y153.271 E53.1413
M204 S500
G0 F3600 X146.537 Y152.947
;MESH:NONMESH
G0 F300 X146.537 Y152.947 Z0.5
G0 F3600 X147.748 Y154.04
G0 X150 Y155.458
;TIME_ELAPSED:72.777726
;LAYER:1
M204 S250
;TYPE:WALL-INNER
;MESH:CABLE-HOLDER-1.0.stl
G1 F2970 X150.946 Y155.344 E53.1733
G1 X151.84 Y155.005 E53.20542
G1 X152.626 Y154.464 E53.23748
G1 X153.259 Y153.746 E53.26963
G1 X153.701 Y152.903 E53.30161
G1 X153.93 Y151.977 E53.33365
G1 X153.93 Y151.023 E53.3657
G1 X153.701 Y150.097 E53.39774
G1 X153.259 Y149.254 E53.42972
G1 X152.626 Y148.536 E53.46187
G1 X151.84 Y147.995 E53.49393
G1 X150.946 Y147.656 E53.52604
G1 X150.898 Y147.651 E53.52766
G1 X150 Y147.542 E53.55805
G1 X149.054 Y147.656 E53.59006
G1 X148.16 Y147.995 E53.62218
G1 X147.374 Y148.536 E53.65423
G1 X146.741 Y149.254 E53.68639
G1 X146.299 Y150.097 E53.71836
G1 X146.07 Y151.023 E53.75041
G1 X146.07 Y151.977 E53.78245
G1 X146.299 Y152.903 E53.8145
G1 X146.741 Y153.746 E53.84647
G1 X147.374 Y154.464 E53.87863
G1 X148.16 Y155.005 E53.91068
G1 X149.054 Y155.344 E53.9428
G1 X149.102 Y155.349 E53.94442
G1 X150 Y155.458 E53.97481
M204 S500
G0 F4800 X150 Y155.055
M204 S250
G1 F2970 X150.85 Y154.953 E54.00357
G1 X151.653 Y154.648 E54.03242
G1 X152.359 Y154.162 E54.06122
G1 X152.927 Y153.518 E54.09006
G1 X153.324 Y152.76 E54.11881
G1 X153.53 Y151.928 E54.1476
G1 X153.53 Y151.072 E54.17636
G1 X153.324 Y150.24 E54.20515
G1 X152.927 Y149.482 E54.23389
G1 X152.359 Y148.838 E54.26274
G1 X151.653 Y148.352 E54.29153
G1 X150.85 Y148.047 E54.32039
G1 X150 Y147.945 E54.34914
G1 X149.15 Y148.047 E54.3779
G1 X148.347 Y148.352 E54.40676
G1 X147.641 Y148.838 E54.43555
G1 X147.073 Y149.482 E54.4644
G1 X146.676 Y150.24 E54.49314
G1 X146.47 Y151.072 E54.52193
G1 X146.47 Y151.928 E54.55069
G1 X146.676 Y152.76 E54.57948
G1 X147.073 Y153.518 E54.60823
G1 X147.641 Y154.162 E54.63707
G1 X148.347 Y154.648 E54.66587
G1 X149.15 Y154.953 E54.69472
G1 X150 Y155.055 E54.72348
M204 S500
G0 F4800 X150 Y154.652
M204 S250
;TYPE:WALL-OUTER
G1 F1860 X150.754 Y154.562 E54.74899
G1 X151.466 Y154.291 E54.77458
G1 X152.092 Y153.86 E54.80011
G1 X152.595 Y153.29 E54.82565
G1 X152.947 Y152.617 E54.85116
G1 X153.13 Y151.879 E54.87671
G1 X153.13 Y151.121 E54.90217
G1 X152.947 Y150.383 E54.92771
G1 X152.595 Y149.71 E54.95322
G1 X152.092 Y149.14 E54.97876
G1 X151.466 Y148.709 E55.00429
G1 X150.754 Y148.438 E55.02988
G1 X150 Y148.348 E55.05539
G1 X149.246 Y148.438 E55.0809
G1 X148.534 Y148.709 E55.10649
G1 X147.908 Y149.14 E55.13203
G1 X147.405 Y149.71 E55.15756
G1 X147.053 Y150.383 E55.18308
G1 X146.87 Y151.121 E55.20862
G1 X146.87 Y151.879 E55.23408
G1 X147.053 Y152.617 E55.25962
G1 X147.405 Y153.29 E55.28514
G1 X147.908 Y153.86 E55.31067
G1 X148.534 Y154.291 E55.33621
G1 X149.246 Y154.562 E55.3618
G1 X150 Y154.652 E55.38731
M204 S500
G0 F4800 X150 Y155.092
G1 F1500 E48.88731
G0 F4800 X151.929 Y155.175
G0 X151.059 Y153.522
G0 X151.929 Y161.965
G0 X151.929 Y160.09
G0 X158.8 Y160.3
M204 S250
;TYPE:WALL-INNER
G1 F1500 E55.38731
G1 F2970 X141.2 Y160.3 E55.97854
G1 X141.2 Y139.7 E56.67055
G1 X158.8 Y139.7 E57.26178
G1 X158.8 Y160.3 E57.95379
M204 S500
G0 F4800 X159.2 Y160.7
M204 S250
G1 F2970 X140.8 Y160.7 E58.5719
G1 X140.8 Y139.3 E59.29078
G1 X159.2 Y139.3 E59.90889
G1 X159.2 Y160.7 E60.62777
M204 S500
G0 F4800 X159.6 Y161.1
