;FLAVOR:Marlin
;TIME:5226
;Filament used: 3.15655m
;Layer height: 0.2
;MINX:120.25
;MINY:143.25
;MINZ:0.3
;MAXX:179.75
;MAXY:170.615
;MAXZ:9.9
;Generated with Cura_SteamEngine 4.10.0
M140 S60
M105
M190 S60
M104 S210
M105
M109 S210
M82 ;absolute extrusion mode
M201 X500.00 Y500.00 Z100.00 E5000.00 ;Setup machine max acceleration
M203 X500.00 Y500.00 Z10.00 E50.00 ;Setup machine max feedrate
M204 P500.00 R1000.00 T500.00 ;Setup Print/Retract/Travel acceleration
M205 X8.00 Y8.00 Z0.40 E5.00 ;Setup Jerk
M220 S100 ;Reset Feedrate
M221 S100 ;Reset Flowrate

G28 ;Home

G92 E0 ;Reset Extruder
G1 Z2.0 F3000 ;Move Z Axis up
G1 X10.1 Y20 Z0.28 F5000.0 ;Move to start position
G1 X10.1 Y200.0 Z0.28 F1500.0 E15 ;Draw the first line
G1 X10.4 Y200.0 Z0.28 F5000.0 ;Move to side a little
G1 X10.4 Y20 Z0.28 F1500.0 E30 ;Draw the second line
G92 E0 ;Reset Extruder
G1 Z2.0 F3000 ;Move Z Axis up

G92 E0
G92 E0
G1 F2700 E-5
;LAYER_COUNT:50
;LAYER:0
M107
M204 S500
;MESH:CABLE-ENTRY-BASE-1.0.stl
G0 F6000 X135.36 Y148.622 Z0.3
;TYPE:WALL-INNER
G1 F2700 E0
G1 F1200 X135.697 Y148.536 E0.01735
G1 X135.991 Y148.41 E0.03331
G1 X136.344 Y148.18 E0.05433
G1 X136.581 Y147.96 E0.07046
G1 X136.785 Y147.702 E0.08687
G1 X136.94 Y147.427 E0.10262
G1 X137.084 Y147.039 E0.12327
G1 X137.142 Y146.707 E0.14008
G1 X137.149 Y146.389 E0.15595
G1 X137.089 Y145.978 E0.17667
G1 X136.98 Y145.658 E0.19354
G1 X136.835 Y145.377 E0.20932
G1 X136.644 Y145.112 E0.22561
G1 X136.424 Y144.887 E0.24131
G1 X136.079 Y144.638 E0.26254
G1 X135.79 Y144.499 E0.27854
G1 X135.453 Y144.396 E0.29612
G1 X135.054 Y144.348 E0.31617
G1 X134.64 Y144.378 E0.33688
G1 X134.303 Y144.464 E0.35423
G1 X134.009 Y144.59 E0.37019
G1 X133.653 Y144.821 E0.39136
G1 X133.399 Y145.062 E0.40883
G1 X133.177 Y145.359 E0.42733
G1 X132.984 Y145.747 E0.44895
G1 X132.887 Y146.093 E0.46687
G1 X132.851 Y146.413 E0.48294
G1 X132.876 Y146.855 E0.50503
G1 X132.979 Y147.245 E0.52515
G1 X133.163 Y147.622 E0.54608
G1 X133.356 Y147.889 E0.56252
G1 X133.576 Y148.114 E0.57822
G1 X133.923 Y148.362 E0.5995
G1 X134.215 Y148.503 E0.61567
G1 X134.547 Y148.604 E0.63299
G1 X134.946 Y148.652 E0.65304
G1 X135.36 Y148.622 E0.67374
G0 F6000 X135.296 Y148.226
;TYPE:WALL-OUTER
G1 F1200 X135.568 Y148.156 E0.68776
G1 X135.802 Y148.056 E0.70045
G1 X136.097 Y147.864 E0.71801
G1 X136.286 Y147.688 E0.7309
G1 X136.452 Y147.478 E0.74425
G1 X136.576 Y147.258 E0.75685
G1 X136.696 Y146.934 E0.77409
G1 X136.743 Y146.668 E0.78756
G1 X136.748 Y146.414 E0.80024
G1 X136.698 Y146.072 E0.81748
G1 X136.611 Y145.815 E0.83102
G1 X136.493 Y145.587 E0.84383
G1 X136.337 Y145.37 E0.85716
G1 X136.162 Y145.191 E0.86965
G1 X135.874 Y144.983 E0.88737
G1 X135.644 Y144.873 E0.90009
G1 X135.37 Y144.789 E0.91439
G1 X135.044 Y144.75 E0.93077
G1 X134.704 Y144.774 E0.94778
G1 X134.432 Y144.844 E0.96179
G1 X134.198 Y144.944 E0.97448
G1 X133.902 Y145.136 E0.99209
G1 X133.699 Y145.329 E1.00606
G1 X133.519 Y145.57 E1.02107
G1 X133.359 Y145.891 E1.03896
G1 X133.281 Y146.17 E1.05342
G1 X133.252 Y146.424 E1.06617
G1 X133.273 Y146.792 E1.08456
G1 X133.356 Y147.105 E1.10071
G1 X133.507 Y147.415 E1.11792
G1 X133.663 Y147.63 E1.13117
G1 X133.838 Y147.809 E1.14366
G1 X134.128 Y148.017 E1.16146
G1 X134.361 Y148.129 E1.17436
G1 X134.63 Y148.211 E1.18839
G1 X134.956 Y148.25 E1.20477
G1 X135.296 Y148.226 E1.22178
G0 F6000 X135.366 Y148.66
G1 F2700 E-3.77822
G0 F6000 X137.638 Y147.189
G0 X136.56 Y144.248
G0 X163.434 Y144.249
G0 X162.672 Y147.916
G0 X164.946 Y148.652
;TYPE:WALL-INNER
G1 F2700 E1.22178
G1 F1200 X165.36 Y148.622 E1.24249
G1 X165.697 Y148.536 E1.25984
G1 X165.991 Y148.41 E1.2758
G1 X166.344 Y148.18 E1.29682
G1 X166.581 Y147.96 E1.31295
G1 X166.785 Y147.702 E1.32936
G1 X166.94 Y147.427 E1.34511
G1 X167.084 Y147.039 E1.36575
G1 X167.142 Y146.707 E1.38257
G1 X167.149 Y146.389 E1.39844
G1 X167.089 Y145.978 E1.41916
G1 X166.98 Y145.658 E1.43603
G1 X166.835 Y145.377 E1.4518
G1 X166.644 Y145.112 E1.4681
G1 X166.424 Y144.887 E1.4838
G1 X166.079 Y144.638 E1.50502
G1 X165.79 Y144.499 E1.52102
G1 X165.453 Y144.396 E1.5386
G1 X165.054 Y144.348 E1.55865
G1 X164.64 Y144.378 E1.57936
G1 X164.303 Y144.464 E1.59671
G1 X164.009 Y144.59 E1.61267
G1 X163.653 Y144.821 E1.63384
G1 X163.399 Y145.062 E1.65131
G1 X163.177 Y145.359 E1.66981
G1 X162.984 Y145.747 E1.69143
G1 X162.887 Y146.093 E1.70936
G1 X162.851 Y146.413 E1.72543
G1 X162.876 Y146.855 E1.74751
G1 X162.979 Y147.245 E1.76764
G1 X163.163 Y147.622 E1.78857
G1 X163.356 Y147.889 E1.805
G1 X163.576 Y148.114 E1.8207
G1 X163.923 Y148.362 E1.84198
G1 X164.215 Y148.503 E1.85816
G1 X164.547 Y148.604 E1.87547
G1 X164.946 Y148.652 E1.89552
G0 F6000 X164.956 Y148.25
;TYPE:WALL-OUTER
G1 F1200 X165.296 Y148.226 E1.91253
G1 X165.568 Y148.156 E1.92654
G1 X165.802 Y148.056 E1.93923
G1 X166.097 Y147.864 E1.95679
G1 X166.286 Y147.688 E1.96968
G1 X166.452 Y147.478 E1.98303
G1 X166.576 Y147.258 E1.99563
G1 X166.696 Y146.934 E2.01287
G1 X166.743 Y146.668 E2.02635
G1 X166.748 Y146.414 E2.03902
G1 X166.698 Y146.072 E2.05626
G1 X166.611 Y145.815 E2.0698
G1 X166.493 Y145.587 E2.08261
G1 X166.337 Y145.37 E2.09594
G1 X166.162 Y145.191 E2.10843
G1 X165.874 Y144.983 E2.12616
G1 X165.644 Y144.873 E2.13888
G1 X165.37 Y144.789 E2.15317
G1 X165.044 Y144.75 E2.16955
G1 X164.704 Y144.774 E2.18656
G1 X164.432 Y144.844 E2.20057
G1 X164.198 Y144.944 E2.21327
G1 X163.902 Y145.136 E2.23087
G1 X163.699 Y145.329 E2.24484
G1 X163.519 Y145.57 E2.25985
G1 X163.359 Y145.891 E2.27774
G1 X163.281 Y146.17 E2.2922
G1 X163.252 Y146.424 E2.30495
G1 X163.273 Y146.792 E2.32334
G1 X163.356 Y147.105 E2.3395
G1 X163.507 Y147.415 E2.3567
G1 X163.663 Y147.63 E2.36995
G1 X163.838 Y147.809 E2.38244
G1 X164.128 Y148.017 E2.40025
G1 X164.361 Y148.129 E2.41314
G1 X164.63 Y148.211 E2.42717
G1 X164.956 Y148.25 E2.44355
G0 F6000 X164.946 Y148.689
G1 F2700 E-2.55645
G0 F6000 X167.459 Y147.669
G0 X166.56 Y144.248
G0 X178.768 Y144.232
G0 X178.768 Y155.768
G0 X169.418 Y155.772
G0 X165.805 Y153.28
G0 X162.383 Y155.772
G0 X161.898 Y155.771
G0 X158.2 Y153.554
G0 X155.405 Y155.723
G0 X153.625 Y153.852
G0 X151.142 Y154.452
G0 X150.743 Y154.684
G0 X149.026 Y155.95
;TYPE:WALL-INNER
G1 F2700 E2.44355
G1 F1200 X148.267 Y155.95 E2.48142
G1 X148.199 Y155.751 E2.49191
G1 X147.989 Y155.344 E2.51476
G1 X147.79 Y155.052 E2.53239
G1 X147.488 Y154.711 E2.55512
G1 X147.108 Y154.39 E2.57993
G1 X146.748 Y154.172 E2.60093
G1 X146.423 Y154.022 E2.61879
G1 X145.97 Y153.883 E2.64243
G1 X145.94 Y153.873 E2.64401
G1 X145.483 Y153.806 E2.66705
G1 X145.019 Y153.806 E2.6902
G1 X144.578 Y153.871 E2.71244
G1 X144.21 Y153.97 E2.73145
G1 X143.798 Y154.148 E2.75384
G1 X143.491 Y154.325 E2.77152
G1 X143.16 Y154.575 E2.79221
G1 X142.876 Y154.851 E2.81197
G1 X142.598 Y155.203 E2.83435
G1 X142.404 Y155.532 E2.85341
G1 X142.238 Y155.919 E2.87441
G1 X142.224 Y155.95 E2.87611
G1 X141.041 Y155.95 E2.93513
G1 X140.986 Y155.683 E2.94873
G1 X140.831 Y155.188 E2.97461
G1 X140.751 Y154.977 E2.98587
G1 X140.608 Y154.66 E3.00322
G1 X140.373 Y154.237 E3.02736
G1 X140.07 Y153.791 E3.05426
G1 X139.761 Y153.423 E3.07823
G1 X139.547 Y153.201 E3.09362
G1 X139.323 Y152.997 E3.10873
G1 X138.931 Y152.684 E3.13376
G1 X138.493 Y152.406 E3.15964
G1 X138.022 Y152.164 E3.18606
G1 X137.544 Y151.976 E3.21168
G1 X137.006 Y151.826 E3.23955
G1 X136.553 Y151.75 E3.26247
G1 X136.541 Y151.747 E3.26308
G1 X136.232 Y151.714 E3.27859
G1 X135.713 Y151.701 E3.30449
G1 X135.18 Y151.74 E3.33115
G1 X134.937 Y151.778 E3.34342
G1 X134.649 Y151.837 E3.35809
G1 X134.435 Y151.892 E3.36911
G1 X134.143 Y151.981 E3.38434
G1 X133.685 Y152.162 E3.40891
G1 X133.209 Y152.402 E3.43551
G1 X132.942 Y152.57 E3.45124
G1 X132.538 Y152.86 E3.47605
G1 X132.153 Y153.201 E3.50171
G1 X131.934 Y153.429 E3.51748
G1 X131.64 Y153.779 E3.54029
G1 X131.456 Y154.033 E3.55594
G1 X131.2 Y154.458 E3.58069
G1 X131.079 Y154.689 E3.5937
G1 X130.943 Y154.991 E3.61022
G1 X130.79 Y155.423 E3.63309
G1 X130.653 Y155.95 E3.66025
G1 X121.05 Y155.95 E4.13935
G1 X121.05 Y144.05 E4.73304
G1 X133.46 Y144.05 E5.35218
G1 X133.82 Y144.05 E5.37014
G1 X134.174 Y144.05 E5.3878
G1 X134.308 Y144.05 E5.39449
G1 X134.174 Y144.084 E5.39493
G1 X133.82 Y144.236 E5.40106
G1 X133.518 Y144.431 E5.41439
G1 X133.404 Y144.505 E5.42117
G1 X133.099 Y144.795 E5.44217
G1 X132.835 Y145.148 E5.46416
G1 X132.609 Y145.603 E5.48951
G1 X132.493 Y146.016 E5.51091
G1 X132.45 Y146.402 E5.53028
G1 X132.479 Y146.918 E5.55607
G1 X132.602 Y147.385 E5.58016
G1 X132.819 Y147.828 E5.60477
G1 X133.049 Y148.147 E5.62439
G1 X133.315 Y148.419 E5.64337
G1 X133.718 Y148.707 E5.66808
G1 X134.069 Y148.877 E5.68754
G1 X134.464 Y148.997 E5.70814
G1 X134.936 Y149.054 E5.73186
G1 X135.424 Y149.018 E5.75627
G1 X135.826 Y148.916 E5.77696
G1 X136.18 Y148.764 E5.79618
G1 X136.591 Y148.496 E5.82066
G1 X136.876 Y148.232 E5.84004
G1 X137.118 Y147.926 E5.85951
G1 X137.304 Y147.596 E5.8784
G1 X137.472 Y147.144 E5.90246
G1 X137.541 Y146.746 E5.92261
G1 X137.55 Y146.364 E5.94168
G1 X137.479 Y145.884 E5.96589
G1 X137.349 Y145.501 E5.98606
G1 X137.177 Y145.167 E6.00481
G1 X136.951 Y144.854 E6.02407
G1 X136.686 Y144.583 E6.04298
G1 X136.479 Y144.434 E6.0557
G1 X136.284 Y144.293 E6.06771
G1 X135.936 Y144.125 E6.08699
G1 X135.69 Y144.05 E6.09982
G1 X135.936 Y144.05 E6.10086
G1 X136.284 Y144.05 E6.10749
G1 X136.525 Y144.05 E6.11728
G1 X163.46 Y144.05 E7.46108
G1 X163.82 Y144.05 E7.47904
G1 X164.174 Y144.05 E7.4967
G1 X164.308 Y144.05 E7.50338
G1 X164.174 Y144.084 E7.50382
G1 X163.82 Y144.236 E7.50995
G1 X163.518 Y144.431 E7.52328
G1 X163.404 Y144.505 E7.53006
G1 X163.099 Y144.795 E7.55106
G1 X162.835 Y145.148 E7.57305
G1 X162.609 Y145.603 E7.5984
G1 X162.493 Y146.016 E7.6198
G1 X162.45 Y146.402 E7.63918
G1 X162.479 Y146.918 E7.66496
G1 X162.602 Y147.385 E7.68906
G1 X162.819 Y147.828 E7.71367
G1 X163.049 Y148.147 E7.73329
G1 X163.315 Y148.419 E7.75227
G1 X163.718 Y148.707 E7.77698
G1 X164.069 Y148.877 E7.79644
G1 X164.464 Y148.997 E7.81703
G1 X164.936 Y149.054 E7.84075
G1 X165.424 Y149.018 E7.86516
G1 X165.826 Y148.916 E7.88586
G1 X166.18 Y148.764 E7.90508
G1 X166.591 Y148.496 E7.92955
G1 X166.876 Y148.232 E7.94894
G1 X167.118 Y147.926 E7.9684
G1 X167.304 Y147.596 E7.9873
G1 X167.472 Y147.144 E8.01136
G1 X167.541 Y146.746 E8.03151
G1 X167.55 Y146.364 E8.05057
G1 X167.479 Y145.884 E8.07478
G1 X167.349 Y145.501 E8.09496
G1 X167.177 Y145.167 E8.1137
G1 X166.951 Y144.854 E8.13296
G1 X166.686 Y144.583 E8.15187
G1 X166.479 Y144.434 E8.1646
G1 X166.284 Y144.293 E8.1766
G1 X165.936 Y144.125 E8.19588
G1 X165.69 Y144.05 E8.20871
G1 X165.936 Y144.05 E8.20975
G1 X166.284 Y144.05 E8.21639
G1 X166.525 Y144.05 E8.22618
G1 X178.95 Y144.05 E8.84606
G1 X178.95 Y155.95 E9.43976
G1 X169.292 Y155.95 E9.9216
G1 X169.29 Y155.94 E9.9221
G1 X169.165 Y155.604 E9.93999
G1 X169 Y155.265 E9.9588
G1 X168.724 Y154.843 E9.98396
G1 X168.39 Y154.466 E10.00908
G1 X168.12 Y154.228 E10.02704
G1 X167.851 Y154.035 E10.04356
G1 X167.511 Y153.834 E10.06326
G1 X167.199 Y153.696 E10.08028
G1 X166.871 Y153.585 E10.09756
G1 X166.5 Y153.499 E10.11656
G1 X166.176 Y153.462 E10.13283
G1 X166.157 Y153.459 E10.13379
G1 X165.809 Y153.451 E10.15116
G1 X165.43 Y153.478 E10.17011
G1 X164.944 Y153.578 E10.19487
G1 X164.606 Y153.692 E10.21266
G1 X164.282 Y153.839 E10.23041
G1 X163.957 Y154.027 E10.24914
G1 X163.68 Y154.227 E10.26619
G1 X163.421 Y154.457 E10.28347
G1 X163.163 Y154.736 E10.30243
G1 X162.956 Y155.012 E10.31964
G1 X162.781 Y155.302 E10.33654
G1 X162.625 Y155.627 E10.35453
G1 X162.52 Y155.921 E10.3701
G1 X162.509 Y155.95 E10.37165
G1 X161.771 Y155.949 E10.40847
G1 X161.688 Y155.706 E10.42128
G1 X161.53 Y155.383 E10.43922
G1 X161.273 Y154.994 E10.46248
G1 X160.959 Y154.639 E10.48612
G1 X160.572 Y154.315 E10.5113
G1 X160.273 Y154.123 E10.52903
G1 X159.871 Y153.935 E10.55117
G1 X159.511 Y153.812 E10.57015
G1 X159.095 Y153.729 E10.59131
G1 X158.725 Y153.699 E10.60983
G1 X158.222 Y153.724 E10.63496
G1 X157.794 Y153.812 E10.65676
G1 X157.43 Y153.931 E10.67587
G1 X157.011 Y154.135 E10.69912
G1 X156.582 Y154.425 E10.72495
G1 X156.207 Y154.777 E10.75061
G1 X155.911 Y155.154 E10.77452
G1 X155.67 Y155.578 E10.79885
G1 X155.564 Y155.853 E10.81356
G1 X155.546 Y155.899 E10.81602
G1 X155.526 Y155.95 E10.81876
G1 X155.273 Y155.95 E10.83138
G1 X155.213 Y155.771 E10.83941
G1 X155.192 Y155.726 E10.84177
G1 X155.049 Y155.422 E10.85853
G1 X154.779 Y154.999 E10.88357
G1 X154.457 Y154.637 E10.90774
G1 X154.072 Y154.315 E10.93278
G1 X153.778 Y154.127 E10.95019
G1 X153.472 Y153.976 E10.96721
G1 X153.016 Y153.812 E10.99139
G1 X152.594 Y153.729 E11.01284
G1 X152.223 Y153.699 E11.03141
G1 X151.73 Y153.724 E11.05604
G1 X151.379 Y153.788 E11.07384
G1 X150.933 Y153.929 E11.09718
G1 X150.51 Y154.135 E11.12065
G1 X150.084 Y154.424 E11.14633
G1 X149.707 Y154.777 E11.1721
G1 X149.411 Y155.154 E11.19601
G1 X149.17 Y155.578 E11.22035
G1 X149.026 Y155.95 E11.24025
G0 F6000 X149.326 Y156.35
G1 F1200 X147.973 Y156.35 E11.30775
G1 X147.965 Y156.304 E11.31008
G1 X147.83 Y155.908 E11.33095
G1 X147.645 Y155.549 E11.3511
G1 X147.474 Y155.298 E11.36625
G1 X147.208 Y154.998 E11.38625
G1 X146.874 Y154.716 E11.40806
G1 X146.56 Y154.526 E11.42637
G1 X146.279 Y154.396 E11.44182
G1 X145.852 Y154.264 E11.46412
G1 X145.454 Y154.206 E11.48418
G1 X145.048 Y154.206 E11.50444
G1 X144.66 Y154.263 E11.524
G1 X144.342 Y154.349 E11.54044
G1 X143.978 Y154.506 E11.56022
G1 X143.712 Y154.659 E11.57553
G1 X143.421 Y154.879 E11.59373
G1 X143.174 Y155.119 E11.61091
G1 X142.929 Y155.43 E11.63066
G1 X142.761 Y155.714 E11.64712
G1 X142.604 Y156.077 E11.66685
G1 X142.531 Y156.35 E11.68095
G1 X140.705 Y156.35 E11.77205
G1 X140.695 Y156.253 E11.77692
G1 X140.598 Y155.783 E11.80086
G1 X140.453 Y155.319 E11.82511
G1 X140.381 Y155.131 E11.83516
G1 X140.25 Y154.839 E11.85112
G1 X140.032 Y154.447 E11.8735
G1 X139.751 Y154.033 E11.89846
G1 X139.463 Y153.691 E11.92077
G1 X139.268 Y153.488 E11.93481
G1 X139.063 Y153.301 E11.94866
G1 X138.698 Y153.01 E11.97195
G1 X138.294 Y152.753 E11.99583
G1 X137.857 Y152.529 E12.02033
G1 X137.417 Y152.356 E12.04392
G1 X136.918 Y152.217 E12.06976
G1 X136.486 Y152.143 E12.09163
G1 X136.206 Y152.113 E12.10568
G1 X135.723 Y152.101 E12.12978
G1 X135.226 Y152.138 E12.15465
G1 X135.008 Y152.172 E12.16566
G1 X134.739 Y152.227 E12.17935
G1 X134.543 Y152.277 E12.18945
G1 X134.275 Y152.359 E12.20343
G1 X133.849 Y152.527 E12.22627
G1 X133.406 Y152.751 E12.25104
G1 X133.165 Y152.902 E12.26523
G1 X132.788 Y153.173 E12.28839
G1 X132.43 Y153.49 E12.31225
G1 X132.232 Y153.696 E12.3265
G1 X131.956 Y154.025 E12.34793
G1 X131.79 Y154.254 E12.36204
G1 X131.549 Y154.654 E12.38534
G1 X131.439 Y154.864 E12.39716
G1 X131.315 Y155.14 E12.41226
G1 X131.173 Y155.54 E12.43344
G1 X131.042 Y156.046 E12.45951
G1 X130.998 Y156.35 E12.47484
G1 X120.65 Y156.35 E12.9911
G1 X120.65 Y143.65 E13.62471
G1 X179.35 Y143.65 E16.55326
G1 X179.35 Y156.35 E17.18687
G1 X168.98 Y156.35 E17.70423
G1 X168.907 Y156.058 E17.71925
G1 X168.797 Y155.761 E17.73505
G1 X168.652 Y155.463 E17.75158
G1 X168.405 Y155.087 E17.77402
G1 X168.107 Y154.75 E17.79647
G1 X167.87 Y154.541 E17.81223
G1 X167.632 Y154.37 E17.82685
G1 X167.328 Y154.19 E17.84448
G1 X167.054 Y154.069 E17.85942
G1 X166.762 Y153.97 E17.87481
G1 X166.431 Y153.894 E17.89175
G1 X166.129 Y153.858 E17.90692
G1 X165.819 Y153.851 E17.92239
G1 X165.485 Y153.875 E17.9391
G1 X165.049 Y153.965 E17.96131
G1 X164.753 Y154.065 E17.9769
G1 X164.465 Y154.195 E17.99266
G1 X164.175 Y154.363 E18.00938
G1 X163.93 Y154.54 E18.02446
G1 X163.701 Y154.743 E18.03973
G1 X163.471 Y154.992 E18.05664
G1 X163.288 Y155.236 E18.07186
G1 X163.133 Y155.492 E18.08679
G1 X162.994 Y155.782 E18.10283
G1 X162.895 Y156.056 E18.11737
G1 X162.819 Y156.35 E18.13252
G1 X161.472 Y156.349 E18.19972
G1 X161.457 Y156.264 E18.20402
G1 X161.394 Y156.079 E18.21377
G1 X161.318 Y155.86 E18.22534
G1 X161.182 Y155.582 E18.24078
G1 X160.955 Y155.238 E18.26134
G1 X160.679 Y154.926 E18.28212
G1 X160.335 Y154.638 E18.30451
G1 X160.079 Y154.474 E18.31968
G1 X159.721 Y154.306 E18.3394
G1 X159.407 Y154.199 E18.35595
G1 X159.04 Y154.126 E18.37462
G1 X158.719 Y154.1 E18.39069
G1 X158.272 Y154.122 E18.41302
