;FLAVOR:Marlin
;TIME:1796
;Filament used: 0.831639m
;Layer height: 0.2
;MINX:138.035
;MINY:139.535
;MINZ:0.3
;MAXX:161.965
;MAXY:160.465
;MAXZ:22.9
;Generated with Cura_SteamEngine 4.10.0
M140 S60
M105
M190 S60
M104 S210
M105
M109 S210
M82 ;absolute extrusion mode
M201 X500.00 Y500.00 Z100.00 E5000.00 ;Setup machine max acceleration
M203 X500.00 Y500.00 Z10.00 E50.00 ;Setup machine max feedrate
M204 P500.00 R1000.00 T500.00 ;Setup Print/Retract/Travel acceleration
M205 X8.00 Y8.00 Z0.40 E5.00 ;Setup Jerk
M220 S100 ;Reset Feedrate
M221 S100 ;Reset Flowrate

G28 ;Home

G92 E0 ;Reset Extruder
G1 Z2.0 F3000 ;Move Z Axis up
G1 X10.1 Y20 Z0.28 F5000.0 ;Move to start position
G1 X10.1 Y200.0 Z0.28 F1500.0 E15 ;Draw the first line
G1 X10.4 Y200.0 Z0.28 F5000.0 ;Move to side a little
G1 X10.4 Y20 Z0.28 F1500.0 E30 ;Draw the second line
G92 E0 ;Reset Extruder
G1 Z2.0 F3000 ;Move Z Axis up

G92 E0
G92 E0
G1 F2700 E-5
;LAYER_COUNT:115
;LAYER:0
M107
M204 S500
;MESH:CABLE-HOLDER-1.0.stl
G0 F6000 X151.107 Y153.93 Z0.3
;TYPE:WALL-INNER
G1 F2700 E0
G1 F1200 X151.893 Y153.93 E0.03921
G1 X152.061 Y153.909 E0.04766
G1 X152.82 Y153.722 E0.08666
G1 X152.977 Y153.663 E0.09503
G1 X153.67 Y153.299 E0.13408
G1 X153.81 Y153.204 E0.14252
G1 X154.4 Y152.683 E0.18179
G1 X154.512 Y152.556 E0.19024
G1 X154.962 Y151.904 E0.22976
G1 X155.038 Y151.753 E0.2382
G1 X155.312 Y151.031 E0.27672
G1 X155.354 Y150.867 E0.28517
G1 X155.449 Y150.084 E0.32452
G1 X155.449 Y149.916 E0.3329
G1 X155.354 Y149.133 E0.37225
G1 X155.312 Y148.969 E0.3807
G1 X155.038 Y148.247 E0.41922
G1 X154.962 Y148.096 E0.42766
G1 X154.512 Y147.444 E0.46718
G1 X154.4 Y147.317 E0.47563
G1 X153.81 Y146.796 E0.5149
G1 X153.67 Y146.701 E0.52334
G1 X152.977 Y146.337 E0.56239
G1 X152.82 Y146.278 E0.57076
G1 X152.061 Y146.091 E0.60976
G1 X151.893 Y146.07 E0.61821
G1 X151.107 Y146.07 E0.65742
G1 X150.939 Y146.091 E0.66587
G1 X150.18 Y146.278 E0.70487
G1 X150.023 Y146.337 E0.71323
G1 X149.33 Y146.701 E0.75229
G1 X149.19 Y146.796 E0.76073
G1 X148.6 Y147.317 E0.8
G1 X148.488 Y147.444 E0.80844
G1 X148.038 Y148.096 E0.84797
G1 X147.962 Y148.247 E0.8564
G1 X147.688 Y148.969 E0.89493
G1 X147.646 Y149.133 E0.90338
G1 X147.551 Y149.916 E0.94273
G1 X147.551 Y150.084 E0.95111
G1 X147.646 Y150.867 E0.99046
G1 X147.688 Y151.031 E0.9989
G1 X147.962 Y151.753 E1.03743
G1 X148.038 Y151.904 E1.04587
G1 X148.488 Y152.556 E1.08539
G1 X148.6 Y152.683 E1.09384
G1 X149.19 Y153.204 E1.13311
G1 X149.33 Y153.299 E1.14155
G1 X150.023 Y153.663 E1.1806
G1 X150.18 Y153.722 E1.18897
G1 X150.939 Y153.909 E1.22797
G1 X151.107 Y153.93 E1.23641
G0 F6000 X151.132 Y153.53
G1 F1200 X151.868 Y153.53 E1.27313
G1 X151.988 Y153.515 E1.27917
G1 X152.701 Y153.339 E1.31581
G1 X152.813 Y153.297 E1.32177
G1 X153.464 Y152.955 E1.35846
G1 X153.564 Y152.887 E1.36449
G1 X154.116 Y152.4 E1.40122
G1 X154.196 Y152.309 E1.40726
G1 X154.617 Y151.7 E1.4442
G1 X154.671 Y151.592 E1.45022
G1 X154.93 Y150.91 E1.48662
G1 X154.96 Y150.793 E1.49265
G1 X155.049 Y150.06 E1.52949
G1 X155.049 Y149.94 E1.53547
G1 X154.96 Y149.207 E1.57231
G1 X154.93 Y149.09 E1.57834
G1 X154.671 Y148.408 E1.61473
G1 X154.617 Y148.3 E1.62076
G1 X154.196 Y147.691 E1.65769
G1 X154.116 Y147.6 E1.66374
G1 X153.564 Y147.113 E1.70046
G1 X153.464 Y147.045 E1.7065
G1 X152.813 Y146.703 E1.74318
G1 X152.701 Y146.661 E1.74915
G1 X151.988 Y146.485 E1.78579
G1 X151.868 Y146.47 E1.79182
G1 X151.132 Y146.47 E1.82854
G1 X151.012 Y146.485 E1.83458
G1 X150.299 Y146.661 E1.87122
G1 X150.187 Y146.703 E1.87718
G1 X149.536 Y147.045 E1.91387
G1 X149.436 Y147.113 E1.9199
G1 X148.884 Y147.6 E1.95663
G1 X148.804 Y147.691 E1.96267
G1 X148.383 Y148.3 E1.99961
G1 X148.329 Y148.408 E2.00564
G1 X148.07 Y149.09 E2.04203
G1 X148.04 Y149.207 E2.04806
G1 X147.951 Y149.94 E2.0849
G1 X147.951 Y150.06 E2.09088
G1 X148.04 Y150.793 E2.12772
G1 X148.07 Y150.91 E2.13375
G1 X148.329 Y151.592 E2.17014
G1 X148.383 Y151.7 E2.17617
G1 X148.804 Y152.309 E2.2131
G1 X148.884 Y152.4 E2.21915
G1 X149.436 Y152.887 E2.25587
G1 X149.536 Y152.955 E2.26191
G1 X150.187 Y153.297 E2.29859
G1 X150.299 Y153.339 E2.30456
G1 X151.012 Y153.515 E2.3412
G1 X151.132 Y153.53 E2.34723
G0 F6000 X151.157 Y153.13
;TYPE:WALL-OUTER
G1 F1200 X151.843 Y153.13 E2.38146
G1 X151.915 Y153.121 E2.38508
G1 X152.583 Y152.956 E2.41941
G1 X152.65 Y152.931 E2.42298
G1 X153.258 Y152.612 E2.45723
G1 X153.318 Y152.571 E2.46086
G1 X153.833 Y152.116 E2.49514
G1 X153.881 Y152.062 E2.49874
G1 X154.272 Y151.495 E2.53311
G1 X154.305 Y151.43 E2.53674
G1 X154.548 Y150.789 E2.57094
G1 X154.566 Y150.719 E2.57455
G1 X154.649 Y150.036 E2.60888
G1 X154.649 Y149.964 E2.61247
G1 X154.566 Y149.281 E2.64679
G1 X154.548 Y149.211 E2.6504
G1 X154.305 Y148.57 E2.6846
G1 X154.272 Y148.505 E2.68824
G1 X153.881 Y147.938 E2.7226
G1 X153.833 Y147.884 E2.7262
G1 X153.318 Y147.429 E2.76049
G1 X153.258 Y147.388 E2.76411
G1 X152.65 Y147.069 E2.79837
G1 X152.583 Y147.044 E2.80194
G1 X151.915 Y146.879 E2.83626
G1 X151.843 Y146.87 E2.83988
G1 X151.157 Y146.87 E2.87411
G1 X151.085 Y146.879 E2.87773
G1 X150.417 Y147.044 E2.91206
G1 X150.35 Y147.069 E2.91562
G1 X149.742 Y147.388 E2.94988
G1 X149.682 Y147.429 E2.9535
G1 X149.167 Y147.884 E2.98779
G1 X149.119 Y147.938 E2.99139
G1 X148.728 Y148.505 E3.02576
G1 X148.695 Y148.57 E3.02939
G1 X148.452 Y149.211 E3.06359
G1 X148.434 Y149.281 E3.0672
G1 X148.351 Y149.964 E3.10152
G1 X148.351 Y150.036 E3.10512
G1 X148.434 Y150.719 E3.13944
G1 X148.452 Y150.789 E3.14305
G1 X148.695 Y151.43 E3.17725
G1 X148.728 Y151.495 E3.18089
G1 X149.119 Y152.062 E3.21525
G1 X149.167 Y152.116 E3.21885
G1 X149.682 Y152.571 E3.25314
G1 X149.742 Y152.612 E3.25676
G1 X150.35 Y152.931 E3.29102
G1 X150.417 Y152.956 E3.29458
G1 X151.085 Y153.121 E3.32891
G1 X151.157 Y153.13 E3.33253
G0 F6000 X151.13 Y153.569
G1 F2700 E-1.66747
G0 F6000 X152.877 Y153.904
G0 X152.313 Y152.132
G0 X152.877 Y160.465
G0 X152.877 Y158.59
G0 X160.3 Y158.8
;TYPE:WALL-INNER
G1 F2700 E3.33253
G1 F1200 X139.7 Y158.8 E4.36027
G1 X139.7 Y141.2 E5.23834
G1 X160.3 Y141.2 E6.26608
G1 X160.3 Y158.8 E7.14414
G0 F6000 X160.7 Y159.2
G1 F1200 X139.3 Y159.2 E8.21179
G1 X139.3 Y140.8 E9.12977
G1 X160.7 Y140.8 E10.19742
G1 X160.7 Y159.2 E11.1154
G0 F6000 X161.1 Y159.6
;TYPE:WALL-OUTER
G1 F1200 X138.9 Y159.6 E12.22297
G1 X138.9 Y140.4 E13.18086
G1 X161.1 Y140.4 E14.28842
G1 X161.1 Y159.6 E15.24631
G0 F6000 X160.83 Y159.33
G0 X160.19 Y158.41
G0 X159.91 Y158.41
;TYPE:SKIN
G1 F1200 X140.09 Y158.41 E16.23514
G1 X140.09 Y141.59 E17.07429
G1 X159.91 Y141.59 E18.06311
G1 X159.91 Y158.41 E18.90227
G1 F2700 E13.90227
G0 F6000 X160.19 Y158.41
G0 X160.09 Y152.761
G0 X161.965 Y152.761
G0 X153.52 Y151.064
G0 X155.212 Y151.83
G0 X154.479 Y152.761
G0 X154.677 Y152.959
G1 F2700 E18.90227
G1 F1200 X154.82 Y152.796 E18.91309
G1 X155.298 Y152.103 E18.95509
G1 X155.395 Y151.911 E18.96582
G1 X155.684 Y151.149 E19.00648
G1 X155.738 Y150.939 E19.01729
G1 X155.839 Y150.107 E19.05911
G1 X155.839 Y149.893 E19.06978
G1 X155.738 Y149.061 E19.1116
G1 X155.684 Y148.851 E19.12242
G1 X155.395 Y148.089 E19.16307
G1 X155.298 Y147.897 E19.17381
G1 X154.82 Y147.204 E19.21581
G1 X154.677 Y147.041 E19.22663
G1 X154.05 Y146.488 E19.26833
G1 X153.871 Y146.366 E19.27914
G1 X153.137 Y145.98 E19.32052
G1 X152.935 Y145.905 E19.33127
G1 X152.132 Y145.707 E19.37253
G1 X151.917 Y145.68 E19.38334
G1 X151.083 Y145.68 E19.42495
G1 X150.868 Y145.707 E19.43576
G1 X150.065 Y145.905 E19.47702
G1 X149.863 Y145.98 E19.48777
G1 X149.129 Y146.366 E19.52914
G1 X148.95 Y146.488 E19.53995
G1 X148.323 Y147.041 E19.58166
G1 X148.18 Y147.204 E19.59248
G1 X147.702 Y147.897 E19.63448
G1 X147.605 Y148.089 E19.64521
G1 X147.316 Y148.851 E19.68587
G1 X147.262 Y149.061 E19.69669
G1 X147.161 Y149.893 E19.7385
G1 X147.161 Y150.107 E19.74918
G1 X147.262 Y150.939 E19.79099
G1 X147.316 Y151.149 E19.80181
G1 X147.605 Y151.911 E19.84247
G1 X147.702 Y152.103 E19.8532
G1 X148.18 Y152.796 E19.8952
G1 X148.323 Y152.959 E19.90602
G1 X148.95 Y153.512 E19.94773
G1 X149.129 Y153.634 E19.95853
G1 X149.863 Y154.02 E19.99991
G1 X150.065 Y154.095 E20.01066
G1 X150.868 Y154.293 E20.05192
G1 X151.083 Y154.32 E20.06273
G1 X151.917 Y154.32 E20.10434
G1 X152.132 Y154.293 E20.11515
G1 X152.935 Y154.095 E20.15641
G1 X153.137 Y154.02 E20.16716
G1 X153.871 Y153.634 E20.20854
G1 X154.05 Y153.512 E20.21934
G1 X154.677 Y152.959 E20.26105
G1 F2700 E15.26105
G0 F6000 X154.479 Y152.761
G0 X155.542 Y149.097
G0 X153.718 Y149.456
G0 X161.965 Y149.097
G0 X160.09 Y149.097
G0 X160.19 Y142.212
G0 X159.748 Y142.212
G1 F2700 E20.26105
G1 F1200 X159.286 Y141.75 E20.29365
G0 F6000 X158.72 Y141.75
G1 F1200 X159.748 Y142.778 E20.36618
G0 F6000 X159.748 Y143.343
G1 F1200 X158.155 Y141.75 E20.47858
G0 F6000 X157.589 Y141.75
G1 F1200 X159.748 Y143.909 E20.6309
G0 F6000 X159.748 Y144.475
G1 F1200 X157.023 Y141.75 E20.82317
G0 F6000 X156.457 Y141.75
G1 F1200 X159.748 Y145.041 E21.05537
G0 F6000 X159.748 Y145.606
G1 F1200 X155.892 Y141.75 E21.32743
G0 F6000 X155.326 Y141.75
G1 F1200 X159.748 Y146.172 E21.63942
G0 F6000 X159.748 Y146.738
G1 F1200 X154.76 Y141.75 E21.99135
G0 F6000 X154.195 Y141.75
G1 F1200 X159.748 Y147.303 E22.38315
G0 F6000 X159.748 Y147.869
G1 F1200 X153.629 Y141.75 E22.81488
G0 F6000 X153.063 Y141.75
G1 F1200 X159.748 Y148.435 E23.28654
G0 F6000 X159.748 Y149
G1 F1200 X152.498 Y141.75 E23.79807
G0 F6000 X151.932 Y141.75
G1 F1200 X159.748 Y149.566 E24.34953
G0 F6000 X159.748 Y150.132
G1 F1200 X151.366 Y141.75 E24.94092
G0 F6000 X150.801 Y141.75
G1 F1200 X159.748 Y150.697 E25.57218
G0 F6000 X159.748 Y151.263
G1 F1200 X150.235 Y141.75 E26.24338
G0 F6000 X149.669 Y141.75
G1 F1200 X159.748 Y151.829 E26.9545
G0 F6000 X159.748 Y152.394
G1 F1200 X155.639 Y148.285 E27.24442
G0 F6000 X155.904 Y149.116
G1 F1200 X159.748 Y152.96 E27.51563
G0 F6000 X159.748 Y153.526
G1 F1200 X155.982 Y149.76 E27.78134
G0 F6000 X155.973 Y150.316
G1 F1200 X159.748 Y154.092 E28.04772
G0 F6000 X159.748 Y154.657
G1 F1200 X155.912 Y150.821 E28.31837
G0 F6000 X155.804 Y151.279
G1 F1200 X159.748 Y155.223 E28.59664
G0 F6000 X159.748 Y155.789
G1 F1200 X155.649 Y151.689 E28.88589
G0 F6000 X155.482 Y152.088
G1 F1200 X159.748 Y156.354 E29.18688
G0 F6000 X159.748 Y156.92
G1 F1200 X155.262 Y152.433 E29.50342
G0 F6000 X155.031 Y152.769
G1 F1200 X159.748 Y157.486 E29.83623
G0 F6000 X159.748 Y158.051
G1 F1200 X154.78 Y153.082 E30.18679
G0 F6000 X154.478 Y153.347
G1 F1200 X159.38 Y158.249 E30.53265
G0 F6000 X158.814 Y158.249
G1 F1200 X154.178 Y153.612 E30.85978
G0 F6000 X153.834 Y153.834
G1 F1200 X158.249 Y158.249 E31.17128
G0 F6000 X157.683 Y158.249
G1 F1200 X153.463 Y154.029 E31.46903
G0 F6000 X153.08 Y154.211
G1 F1200 X157.117 Y158.249 E31.75389
G0 F6000 X156.552 Y158.249
G1 F1200 X152.636 Y154.333 E32.03019
G0 F6000 X152.182 Y154.444
G1 F1200 X155.986 Y158.249 E32.29862
G0 F6000 X155.42 Y158.249
G1 F1200 X151.651 Y154.479 E32.56457
G0 F6000 X151.085 Y154.479
G1 F1200 X154.854 Y158.249 E32.83053
G0 F6000 X154.289 Y158.249
G1 F1200 X150.375 Y154.335 E33.10669
G0 F6000 X149.466 Y153.991
G1 F1200 X153.723 Y158.249 E33.40708
G0 F6000 X153.157 Y158.249
G1 F1200 X140.25 Y145.341 E34.31777
G0 F6000 X140.25 Y144.775
G1 F1200 X147.468 Y151.994 E34.82707
G0 F6000 X147.139 Y151.098
G1 F1200 X140.25 Y144.21 E35.3131
G0 F6000 X140.25 Y143.644
G1 F1200 X147.04 Y150.434 E35.79217
G0 F6000 X147.006 Y149.835
G1 F1200 X140.25 Y143.078 E36.26887
G0 F6000 X140.25 Y142.513
G1 F1200 X147.068 Y149.331 E36.74992
G0 F6000 X147.152 Y148.849
G1 F1200 X140.25 Y141.947 E37.23689
G0 F6000 X140.618 Y141.75
G1 F1200 X147.303 Y148.434 E37.70852
G0 F6000 X147.458 Y148.024
G1 F1200 X141.184 Y141.75 E38.15119
G0 F6000 X141.75 Y141.75
G1 F1200 X147.666 Y147.666 E38.56859
G0 F6000 X147.897 Y147.332
G1 F1200 X142.315 Y141.75 E38.96243
G0 F6000 X142.881 Y141.75
G1 F1200 X148.138 Y147.007 E39.33334
G0 F6000 X148.428 Y146.731
G1 F1200 X143.447 Y141.75 E39.68478
G0 F6000 X144.012 Y141.75
G1 F1200 X148.73 Y146.467 E40.01762
G0 F6000 X149.052 Y146.224
G1 F1200 X144.578 Y141.75 E40.33329
G0 F6000 X145.144 Y141.75
G1 F1200 X149.422 Y146.028 E40.63513
G0 F6000 X149.794 Y145.834
G1 F1200 X145.709 Y141.75 E40.92331
G0 F6000 X146.275 Y141.75
G1 F1200 X150.226 Y145.7 E41.20204
G0 F6000 X150.679 Y145.588
G1 F1200 X146.841 Y141.75 E41.47283
G0 F6000 X147.407 Y141.75
G1 F1200 X151.176 Y145.519 E41.73875
G0 F6000 X151.742 Y145.519
G1 F1200 X147.972 Y141.75 E42.00471
G0 F6000 X148.538 Y141.75
G1 F1200 X152.396 Y145.608 E42.27691
G0 F6000 X153.179 Y145.825
G1 F1200 X149.104 Y141.75 E42.56443
G0 F6000 X149.104 Y141.31
G0 X139.882 Y141.382
G0 X139.81 Y145.907
G0 X140.25 Y145.907
G1 F1200 X152.592 Y158.249 E43.43522
G0 F6000 X152.026 Y158.249
G1 F1200 X140.25 Y146.472 E44.26612
G0 F6000 X140.25 Y147.038
G1 F1200 X151.46 Y158.249 E45.05708
G0 F6000 X150.895 Y158.249
G1 F1200 X140.25 Y147.604 E45.80814
G0 F6000 X140.25 Y148.169
G1 F1200 X150.329 Y158.249 E46.5193
G0 F6000 X149.763 Y158.249
G1 F1200 X140.25 Y148.735 E47.19053
G0 F6000 X140.25 Y149.301
G1 F1200 X149.198 Y158.249 E47.82186
G0 F6000 X148.632 Y158.249
G1 F1200 X140.25 Y149.867 E48.41326
G0 F6000 X140.25 Y150.432
G1 F1200 X148.066 Y158.249 E48.96475
G0 F6000 X147.501 Y158.249
G1 F1200 X140.25 Y150.998 E49.47635
G0 F6000 X140.25 Y151.564
G1 F1200 X146.935 Y158.249 E49.94801
G0 F6000 X146.369 Y158.249
G1 F1200 X140.25 Y152.129 E50.37978
G0 F6000 X140.25 Y152.695
G1 F1200 X145.804 Y158.249 E50.77164
G0 F6000 X145.238 Y158.249
G1 F1200 X140.25 Y153.261 E51.12357
G0 F6000 X140.25 Y153.826
G1 F1200 X144.672 Y158.249 E51.4356
G0 F6000 X144.106 Y158.249
G1 F1200 X140.25 Y154.392 E51.7077
G0 F6000 X140.25 Y154.958
G1 F1200 X143.541 Y158.249 E51.9399
G0 F6000 X142.975 Y158.249
G1 F1200 X140.25 Y155.523 E52.1322
G0 F6000 X140.25 Y156.089
G1 F1200 X142.409 Y158.249 E52.28456
G0 F6000 X141.844 Y158.249
G1 F1200 X140.25 Y156.655 E52.39703
G0 F6000 X140.25 Y157.22
G1 F1200 X141.278 Y158.249 E52.46959
G0 F6000 X140.712 Y158.249
G1 F1200 X140.25 Y157.786 E52.50223
G0 F6000 X139.51 Y157.786
G1 F2700 E47.50223
;MESH:NONMESH
G0 F300 X139.51 Y157.786 Z0.5
G0 F6000 X139.91 Y153.93
G0 X138.035 Y153.93
G0 X150.202 Y151.879
G0 X149.232 Y153.462
G0 X151.107 Y153.93
;TIME_ELAPSED:68.812895
;LAYER:1
M106 S127.5
;TYPE:WALL-INNER
;MESH:CABLE-HOLDER-1.0.stl
G1 F2700 E52.50223
G1 F1275 X151.893 Y153.93 E52.52837
G1 X152.061 Y153.909 E52.534
G1 X152.82 Y153.722 E52.56
G1 X152.977 Y153.663 E52.56558
G1 X153.67 Y153.299 E52.59161
G1 X153.81 Y153.204 E52.59724
G1 X154.4 Y152.683 E52.62342
G1 X154.512 Y152.556 E52.62905
G1 X154.962 Y151.904 E52.6554
G1 X155.038 Y151.753 E52.66102
G1 X155.312 Y151.031 E52.68671
G1 X155.354 Y150.867 E52.69234
G1 X155.449 Y150.084 E52.71857
G1 X155.449 Y149.916 E52.72416
G1 X155.354 Y149.133 E52.75039
G1 X155.312 Y148.969 E52.75602
G1 X155.038 Y148.247 E52.78171
G1 X154.962 Y148.096 E52.78733
G1 X154.512 Y147.444 E52.81368
G1 X154.4 Y147.317 E52.81931
G1 X153.81 Y146.796 E52.84549
G1 X153.67 Y146.701 E52.85112
G1 X152.977 Y146.337 E52.87716
G1 X152.82 Y146.278 E52.88273
G1 X152.061 Y146.091 E52.90873
G1 X151.893 Y146.07 E52.91436
G1 X151.107 Y146.07 E52.94051
G1 X150.939 Y146.091 E52.94614
G1 X150.18 Y146.278 E52.97214
G1 X150.023 Y146.337 E52.97772
G1 X149.33 Y146.701 E53.00375
G1 X149.19 Y146.796 E53.00938
G1 X148.6 Y147.317 E53.03556
G1 X148.488 Y147.444 E53.04119
G1 X148.038 Y148.096 E53.06754
G1 X147.962 Y148.247 E53.07316
G1 X147.688 Y148.969 E53.09885
G1 X147.646 Y149.133 E53.10448
G1 X147.551 Y149.916 E53.13071
G1 X147.551 Y150.084 E53.1363
G1 X147.646 Y150.867 E53.16253
G1 X147.688 Y151.031 E53.16816
G1 X147.962 Y151.753 E53.19385
G1 X148.038 Y151.904 E53.19947
G1 X148.488 Y152.556 E53.22582
G1 X148.6 Y152.683 E53.23145
G1 X149.19 Y153.204 E53.25763
G1 X149.33 Y153.299 E53.26326
G1 X150.023 Y153.663 E53.28929
G1 X150.18 Y153.722 E53.29487
G1 X150.939 Y153.909 E53.32087
G1 X151.107 Y153.93 E53.3265
G0 F7500 X151.132 Y153.53
G1 F1275 X151.868 Y153.53 E53.35098
G1 X151.988 Y153.515 E53.355
G1 X152.701 Y153.339 E53.37943
G1 X152.813 Y153.297 E53.38341
G1 X153.464 Y152.955 E53.40787
G1 X153.564 Y152.887 E53.41189
G1 X154.116 Y152.4 E53.43637
