;FLAVOR:Marlin
;TIME:10644
;Filament used: 6.80908m
;Layer height: 0.2
;MINX:119.4
;MINY:110.535
;MINZ:0.3
;MAXX:180.6
;MAXY:189.463
;MAXZ:32.5
;Generated with Cura_SteamEngine 4.10.0
M140 S60
M105
M190 S60
M104 S210
M105
M109 S210
M82 ;absolute extrusion mode
M201 X500.00 Y500.00 Z100.00 E5000.00 ;Setup machine max acceleration
M203 X500.00 Y500.00 Z10.00 E50.00 ;Setup machine max feedrate
M204 P500.00 R1000.00 T500.00 ;Setup Print/Retract/Travel acceleration
M205 X8.00 Y8.00 Z0.40 E5.00 ;Setup Jerk
M220 S100 ;Reset Feedrate
M221 S100 ;Reset Flowrate

G28 ;Home

G92 E0 ;Reset Extruder
G1 Z2.0 F3000 ;Move Z Axis up
G1 X10.1 Y20 Z0.28 F5000.0 ;Move to start position
G1 X10.1 Y200.0 Z0.28 F1500.0 E15 ;Draw the first line
G1 X10.4 Y200.0 Z0.28 F5000.0 ;Move to side a little
G1 X10.4 Y20 Z0.28 F1500.0 E30 ;Draw the second line
G92 E0 ;Reset Extruder
G1 Z2.0 F3000 ;Move Z Axis up

G92 E0
G92 E0
G1 F2700 E-5
;LAYER_COUNT:162
;LAYER:0
M107
M204 S500
;MESH:CARRIAGE-1.0.stl
G0 F6000 X174.577 Y172.925 Z0.3
;TYPE:WALL-INNER
G1 F2700 E0
G1 F1200 X174.597 Y172.929 E0.00102
G1 X174.992 Y172.952 E0.02076
G1 X175.391 Y172.932 E0.04069
G1 X175.779 Y172.874 E0.06026
G1 X176.156 Y172.778 E0.07967
G1 X176.514 Y172.649 E0.09865
G1 X176.883 Y172.475 E0.11901
G1 X177.225 Y172.265 E0.13903
G1 X177.532 Y172.034 E0.1582
G1 X177.825 Y171.763 E0.17811
G1 X178.088 Y171.465 E0.19794
G1 X178.314 Y171.15 E0.21728
G1 X178.513 Y170.807 E0.23707
G1 X178.675 Y170.451 E0.25658
G1 X178.803 Y170.073 E0.27649
G1 X178.882 Y169.718 E0.29463
G1 X178.887 Y169.7 E0.29557
G1 X178.938 Y169.307 E0.31534
G1 X178.949 Y168.898 E0.33575
G1 X178.921 Y168.52 E0.35466
G1 X178.853 Y168.122 E0.3748
G1 X178.748 Y167.752 E0.39399
G1 X178.606 Y167.384 E0.41367
G1 X178.425 Y167.029 E0.43355
G1 X178.213 Y166.7 E0.45308
G1 X177.972 Y166.397 E0.47239
G1 X177.688 Y166.109 E0.49257
G1 X177.389 Y165.854 E0.51218
G1 X177.072 Y165.636 E0.53137
G1 X176.724 Y165.445 E0.55118
G1 X176.362 Y165.291 E0.5708
G1 X175.976 Y165.171 E0.59097
G1 X175.589 Y165.094 E0.61066
G1 X175.211 Y165.055 E0.62961
G1 X174.808 Y165.053 E0.64972
G1 X174.425 Y165.092 E0.66893
G1 X174.031 Y165.17 E0.68897
G1 X173.659 Y165.284 E0.70838
G1 X173.293 Y165.435 E0.72813
G1 X172.946 Y165.623 E0.74782
G1 X172.62 Y165.847 E0.76755
G1 X172.312 Y166.104 E0.78756
G1 X172.042 Y166.382 E0.8069
G1 X171.795 Y166.69 E0.8266
G1 X171.584 Y167.016 E0.84597
G1 X171.401 Y167.368 E0.86576
G1 X171.257 Y167.734 E0.88538
G1 X171.15 Y168.116 E0.90518
G1 X171.08 Y168.505 E0.9249
G1 X171.051 Y168.898 E0.94456
G1 X171.061 Y169.292 E0.96422
G1 X171.109 Y169.688 E0.98412
G1 X171.198 Y170.069 E1.00364
G1 X171.32 Y170.437 E1.02298
G1 X171.481 Y170.796 E1.04261
G1 X171.677 Y171.137 E1.06223
G1 X171.91 Y171.461 E1.08214
G1 X172.175 Y171.763 E1.10219
G1 X172.467 Y172.033 E1.12203
G1 X172.764 Y172.257 E1.14059
G1 X173.114 Y172.472 E1.16108
G1 X173.132 Y172.48 E1.16207
G1 X173.469 Y172.643 E1.18074
G1 X173.831 Y172.774 E1.19995
G1 X174.209 Y172.869 E1.21939
G1 X174.227 Y172.871 E1.2203
G1 X174.577 Y172.925 E1.23796
G0 F6000 X174.639 Y172.531
G1 F1200 X174.993 Y172.551 E1.25565
G1 X175.351 Y172.533 E1.27354
G1 X175.7 Y172.481 E1.29114
G1 X176.039 Y172.395 E1.30859
G1 X176.36 Y172.279 E1.32562
G1 X176.693 Y172.122 E1.34399
G1 X177 Y171.934 E1.36195
G1 X177.275 Y171.727 E1.37912
G1 X177.538 Y171.483 E1.39702
G1 X177.775 Y171.215 E1.41486
G1 X177.978 Y170.933 E1.4322
G1 X178.157 Y170.623 E1.45006
G1 X178.303 Y170.304 E1.46756
G1 X178.417 Y169.965 E1.48541
G1 X178.493 Y169.63 E1.50254
G1 X178.539 Y169.276 E1.52035
G1 X178.549 Y168.907 E1.53877
G1 X178.524 Y168.569 E1.55568
G1 X178.462 Y168.211 E1.5738
G1 X178.368 Y167.879 E1.59102
G1 X178.24 Y167.547 E1.60877
G1 X178.078 Y167.229 E1.62658
G1 X177.887 Y166.933 E1.64415
G1 X177.672 Y166.662 E1.66141
G1 X177.416 Y166.402 E1.67961
G1 X177.145 Y166.172 E1.69735
G1 X176.862 Y165.977 E1.71449
G1 X176.549 Y165.805 E1.73231
G1 X176.224 Y165.667 E1.74993
G1 X175.877 Y165.559 E1.76806
G1 X175.529 Y165.49 E1.78576
G1 X175.189 Y165.455 E1.80281
G1 X174.827 Y165.453 E1.82087
G1 X174.484 Y165.488 E1.83807
G1 X174.129 Y165.558 E1.85612
G1 X173.794 Y165.661 E1.87361
G1 X173.465 Y165.797 E1.89137
G1 X173.155 Y165.965 E1.90896
G1 X172.862 Y166.166 E1.92669
G1 X172.584 Y166.398 E1.94475
G1 X172.342 Y166.647 E1.96208
G1 X172.12 Y166.924 E1.97979
G1 X171.93 Y167.217 E1.99721
G1 X171.766 Y167.534 E2.01501
G1 X171.637 Y167.862 E2.0326
G1 X171.54 Y168.206 E2.05043
G1 X171.477 Y168.555 E2.06812
G1 X171.451 Y168.908 E2.08578
G1 X171.46 Y169.263 E2.1035
G1 X171.503 Y169.618 E2.12134
G1 X171.583 Y169.96 E2.13886
G1 X171.693 Y170.292 E2.15631
G1 X171.838 Y170.614 E2.17393
G1 X172.014 Y170.92 E2.19154
G1 X172.223 Y171.212 E2.20946
G1 X172.462 Y171.483 E2.22748
G1 X172.724 Y171.726 E2.24531
G1 X172.99 Y171.926 E2.26191
G1 X173.306 Y172.121 E2.28044
G1 X173.624 Y172.274 E2.29805
G1 X173.948 Y172.391 E2.31523
G1 X174.289 Y172.477 E2.33278
G1 X174.639 Y172.531 E2.35044
G0 F6000 X174.68 Y172.133
;TYPE:WALL-OUTER
G1 F1200 X174.994 Y172.15 E2.36613
G1 X175.311 Y172.134 E2.38197
G1 X175.621 Y172.088 E2.3976
G1 X175.922 Y172.012 E2.41309
G1 X176.206 Y171.909 E2.42816
G1 X176.503 Y171.769 E2.44454
G1 X176.775 Y171.603 E2.46044
G1 X177.018 Y171.42 E2.47562
G1 X177.251 Y171.203 E2.4915
G1 X177.462 Y170.965 E2.50737
G1 X177.642 Y170.715 E2.52274
G1 X177.801 Y170.44 E2.53859
G1 X177.93 Y170.157 E2.55411
G1 X178.031 Y169.856 E2.56995
G1 X178.099 Y169.559 E2.58515
G1 X178.14 Y169.245 E2.60095
G1 X178.149 Y168.916 E2.61737
G1 X178.127 Y168.618 E2.63227
G1 X178.072 Y168.3 E2.64837
G1 X177.988 Y168.006 E2.66363
G1 X177.874 Y167.71 E2.67945
G1 X177.731 Y167.429 E2.69518
G1 X177.561 Y167.166 E2.71081
G1 X177.372 Y166.927 E2.72601
G1 X177.144 Y166.695 E2.74224
G1 X176.902 Y166.49 E2.75806
G1 X176.652 Y166.318 E2.7732
G1 X176.374 Y166.165 E2.78903
G1 X176.086 Y166.043 E2.80463
G1 X175.778 Y165.947 E2.82073
G1 X175.47 Y165.886 E2.83639
G1 X175.167 Y165.855 E2.85159
G1 X174.846 Y165.853 E2.86761
G1 X174.543 Y165.884 E2.8828
G1 X174.227 Y165.946 E2.89887
G1 X173.93 Y166.038 E2.91438
G1 X173.637 Y166.159 E2.93019
G1 X173.364 Y166.307 E2.94569
G1 X173.104 Y166.485 E2.96141
G1 X172.856 Y166.692 E2.97752
G1 X172.642 Y166.912 E2.99284
G1 X172.445 Y167.159 E3.0086
G1 X172.276 Y167.418 E3.02403
G1 X172.131 Y167.7 E3.03985
G1 X172.016 Y167.99 E3.05541
G1 X171.93 Y168.296 E3.07127
G1 X171.874 Y168.605 E3.08694
G1 X171.851 Y168.918 E3.10259
G1 X171.859 Y169.234 E3.11836
G1 X171.897 Y169.548 E3.13414
G1 X171.968 Y169.851 E3.14967
G1 X172.066 Y170.146 E3.16518
G1 X172.195 Y170.432 E3.18083
G1 X172.351 Y170.704 E3.19648
G1 X172.536 Y170.963 E3.21235
G1 X172.748 Y171.203 E3.22833
G1 X172.981 Y171.418 E3.24415
G1 X173.216 Y171.595 E3.25883
G1 X173.499 Y171.77 E3.27543
G1 X173.779 Y171.905 E3.29093
G1 X174.065 Y172.008 E3.3061
G1 X174.369 Y172.085 E3.32175
G1 X174.68 Y172.133 E3.33744
G0 F6000 X174.635 Y172.57
G1 F2700 E-1.66256
G0 F6000 X173.081 Y171.793
G0 X172.348 Y171.112
G0 X171.842 Y170.233
G0 X171.62 Y169.251
G0 X171.697 Y168.243
G0 X171.907 Y167.708
G0 X172.846 Y165.461
G0 X173.815 Y167.046
G0 X151.657 Y119.535
G0 X151.657 Y121.37
G0 X154.426 Y120.981
;TYPE:WALL-INNER
G1 F2700 E3.33744
G1 F1200 X154.8 Y120.237 E3.37899
G1 X154.8 Y113.84 E3.69814
G1 X154.581 Y113.174 E3.73311
G1 X153.837 Y112.8 E3.77466
G1 X146.24 Y112.8 E4.15367
G1 X145.574 Y113.019 E4.18865
G1 X145.2 Y113.763 E4.2302
G1 X145.2 Y120.16 E4.54934
G1 X145.419 Y120.826 E4.58432
G1 X146.163 Y121.2 E4.62586
G1 X153.76 Y121.2 E5.00488
G1 X154.426 Y120.981 E5.03986
G0 F6000 X154.143 Y120.653
G1 F1200 X154.4 Y120.142 E5.06839
G1 X154.4 Y113.904 E5.37961
G1 X154.253 Y113.457 E5.40308
G1 X153.742 Y113.2 E5.43162
G1 X146.304 Y113.2 E5.8027
G1 X145.857 Y113.347 E5.82618
G1 X145.6 Y113.858 E5.85472
G1 X145.6 Y120.096 E6.16593
G1 X145.747 Y120.543 E6.18941
G1 X146.258 Y120.8 E6.21794
G1 X153.696 Y120.8 E6.58903
G1 X154.143 Y120.653 E6.6125
G0 F6000 X153.86 Y120.325
;TYPE:WALL-OUTER
G1 F1200 X154 Y120.047 E6.62803
G1 X154 Y113.968 E6.93132
G1 X153.925 Y113.74 E6.94329
G1 X153.647 Y113.6 E6.95882
G1 X146.368 Y113.6 E7.32197
G1 X146.14 Y113.675 E7.33394
G1 X146 Y113.953 E7.34947
G1 X146 Y120.032 E7.65276
G1 X146.075 Y120.26 E7.66473
G1 X146.353 Y120.4 E7.68026
G1 X153.632 Y120.4 E8.04341
G1 X153.86 Y120.325 E8.05538
G0 F6000 X154.147 Y120.658
G1 F2700 E3.05538
G0 F6000 X149.692 Y121.39
G0 X149.749 Y122.659
G0 X148.926 Y122.785
G0 X148.025 Y123.245
G0 X147.297 Y123.956
G0 X146.819 Y124.83
G0 X146.614 Y125.842
G0 X146.628 Y132.335
G0 X146.874 Y133.31
G0 X147.396 Y134.172
G0 X148.012 Y134.716
G0 X149.692 Y135.938
;TYPE:WALL-INNER
G1 F2700 E8.05538
G1 F1200 X150.104 Y135.949 E8.07595
G1 X150.48 Y135.921 E8.09476
G1 X150.878 Y135.853 E8.1149
G1 X151.248 Y135.748 E8.13409
G1 X151.616 Y135.606 E8.15377
G1 X151.971 Y135.425 E8.17365
G1 X152.3 Y135.213 E8.19318
G1 X152.603 Y134.974 E8.21243
G1 X152.898 Y134.684 E8.23307
G1 X153.146 Y134.388 E8.25233
G1 X153.368 Y134.067 E8.2718
G1 X153.557 Y133.722 E8.29143
G1 X153.709 Y133.362 E8.31093
G1 X153.829 Y132.976 E8.33109
G1 X153.906 Y132.588 E8.35083
G1 X153.943 Y132.221 E8.36923
G1 X153.95 Y132.019 E8.37931
G1 X153.95 Y126.106 E8.67431
G1 X153.947 Y125.805 E8.68933
G1 X153.907 Y125.42 E8.70864
G1 X153.831 Y125.034 E8.72827
G1 X153.716 Y124.658 E8.74789
G1 X153.565 Y124.293 E8.76759
G1 X153.377 Y123.946 E8.78728
G1 X153.151 Y123.618 E8.80716
G1 X152.907 Y123.325 E8.82618
G1 X152.62 Y123.041 E8.84632
G1 X152.308 Y122.794 E8.86618
G1 X151.978 Y122.578 E8.88585
G1 X151.633 Y122.405 E8.90511
G1 X151.617 Y122.396 E8.90602
G1 X151.257 Y122.254 E8.92533
G1 X150.899 Y122.155 E8.94386
G1 X150.88 Y122.149 E8.94486
G1 X150.488 Y122.079 E8.96472
G1 X150.097 Y122.051 E8.98428
G1 X149.704 Y122.061 E9.00389
G1 X149.315 Y122.109 E9.02345
G1 X149.105 Y122.152 E9.03414
G1 X148.747 Y122.252 E9.05269
G1 X148.375 Y122.399 E9.07264
G1 X148.032 Y122.573 E9.09183
G1 X147.697 Y122.79 E9.11174
G1 X147.383 Y123.039 E9.13174
G1 X147.121 Y123.298 E9.15012
G1 X146.851 Y123.614 E9.17085
G1 X146.632 Y123.933 E9.19016
G1 X146.443 Y124.278 E9.20978
G1 X146.292 Y124.636 E9.22917
G1 X146.171 Y125.024 E9.24944
G1 X146.094 Y125.412 E9.26918
G1 X146.053 Y125.811 E9.28919
G1 X146.05 Y126.105 E9.30386
G1 X146.05 Y132.03 E9.59946
G1 X146.07 Y132.391 E9.6175
G1 X146.127 Y132.784 E9.63731
G1 X146.224 Y133.163 E9.65683
G1 X146.356 Y133.527 E9.67614
G1 X146.528 Y133.887 E9.69605
G1 X146.735 Y134.225 E9.71582
G1 X146.966 Y134.532 E9.73499
G1 X147.238 Y134.827 E9.75501
G1 X147.536 Y135.088 E9.77477
G1 X147.854 Y135.316 E9.79429
G1 X148.193 Y135.513 E9.81385
G1 X148.549 Y135.676 E9.83339
G1 X148.927 Y135.802 E9.85327
G1 X149.294 Y135.886 E9.87205
G1 X149.692 Y135.938 E9.89208
G0 F6000 X149.723 Y135.539
G1 F1200 X150.095 Y135.549 E9.91064
G1 X150.431 Y135.524 E9.92745
G1 X150.789 Y135.462 E9.94558
G1 X151.121 Y135.368 E9.96279
G1 X151.453 Y135.24 E9.98054
G1 X151.771 Y135.078 E9.99835
G1 X152.067 Y134.887 E10.01592
G1 X152.338 Y134.673 E10.03315
G1 X152.604 Y134.412 E10.05174
G1 X152.828 Y134.145 E10.06913
G1 X153.027 Y133.857 E10.0866
G1 X153.196 Y133.548 E10.10417
G1 X153.333 Y133.224 E10.12172
G1 X153.441 Y132.877 E10.13985
G1 X153.51 Y132.529 E10.15755
G1 X153.544 Y132.194 E10.17435
G1 X153.55 Y132.012 E10.18343
G1 X153.55 Y126.108 E10.47798
G1 X153.547 Y125.828 E10.49195
G1 X153.511 Y125.479 E10.50946
G1 X153.443 Y125.132 E10.5271
G1 X153.339 Y124.794 E10.54474
G1 X153.203 Y124.465 E10.5625
G1 X153.035 Y124.155 E10.58009
G1 X152.832 Y123.86 E10.59796
G1 X152.612 Y123.596 E10.6151
G1 X152.354 Y123.341 E10.6332
G1 X152.074 Y123.119 E10.65103
G1 X151.778 Y122.925 E10.66869
G1 X151.453 Y122.761 E10.68685
G1 X151.13 Y122.634 E10.70416
G1 X150.791 Y122.539 E10.72173
G1 X150.438 Y122.476 E10.73962
G1 X150.088 Y122.451 E10.75712
G1 X149.734 Y122.46 E10.77479
G1 X149.38 Y122.504 E10.79259
G1 X149.199 Y122.541 E10.8018
G1 X148.875 Y122.632 E10.81859
G1 X148.539 Y122.764 E10.8366
G1 X148.232 Y122.92 E10.85378
G1 X147.931 Y123.115 E10.87168
G1 X147.649 Y123.339 E10.88964
G1 X147.414 Y123.571 E10.90612
G1 X147.169 Y123.858 E10.92495
G1 X146.973 Y124.143 E10.9422
G1 X146.804 Y124.452 E10.95977
G1 X146.668 Y124.774 E10.97721
G1 X146.559 Y125.123 E10.99545
G1 X146.49 Y125.471 E11.01315
G1 X146.453 Y125.834 E11.03136
G1 X146.45 Y126.107 E11.04498
G1 X146.45 Y132.019 E11.33993
G1 X146.468 Y132.351 E11.35652
G1 X146.52 Y132.705 E11.37437
G1 X146.607 Y133.045 E11.39188
G1 X146.725 Y133.372 E11.40922
G1 X146.88 Y133.696 E11.42714
G1 X147.066 Y134 E11.44492
G1 X147.273 Y134.275 E11.46209
G1 X147.518 Y134.54 E11.4801
G1 X147.785 Y134.775 E11.49784
G1 X148.071 Y134.98 E11.5154
G1 X148.377 Y135.157 E11.53303
G1 X148.696 Y135.303 E11.55054
G1 X149.035 Y135.416 E11.56836
G1 X149.365 Y135.492 E11.58526
G1 X149.723 Y135.539 E11.60327
G0 F6000 X149.755 Y135.14
;TYPE:WALL-OUTER
G1 F1200 X150.086 Y135.149 E11.61979
G1 X150.382 Y135.127 E11.6346
G1 X150.7 Y135.072 E11.6507
G1 X150.994 Y134.988 E11.66596
G1 X151.29 Y134.874 E11.68178
G1 X151.571 Y134.731 E11.69751
G1 X151.834 Y134.561 E11.71314
G1 X152.073 Y134.372 E11.72834
G1 X152.31 Y134.14 E11.74488
G1 X152.51 Y133.902 E11.76039
G1 X152.686 Y133.647 E11.77585
G1 X152.835 Y133.374 E11.79137
G1 X152.957 Y133.086 E11.80697
G1 X153.053 Y132.778 E11.82307
G1 X153.114 Y132.47 E11.83873
G1 X153.145 Y132.167 E11.85393
G1 X153.15 Y132.006 E11.86196
G1 X153.15 Y126.11 E12.15612
G1 X153.147 Y125.851 E12.16904
G1 X153.115 Y125.538 E12.18474
G1 X153.055 Y125.23 E12.20039
G1 X152.962 Y124.93 E12.21606
G1 X152.841 Y124.637 E12.23188
G1 X152.693 Y124.364 E12.24737
G1 X152.513 Y124.102 E12.26323
G1 X152.317 Y123.867 E12.27849
G1 X152.088 Y123.641 E12.29455
G1 X151.84 Y123.444 E12.31035
G1 X151.577 Y123.272 E12.32602
G1 X151.289 Y123.126 E12.34213
G1 X151.003 Y123.014 E12.35746
G1 X150.701 Y122.929 E12.37311
G1 X150.388 Y122.873 E12.38897
G1 X150.079 Y122.851 E12.40443
G1 X149.764 Y122.859 E12.42015
G1 X149.445 Y122.899 E12.43619
G1 X149.293 Y122.93 E12.44393
G1 X149.002 Y123.012 E12.45901
G1 X148.703 Y123.129 E12.47503
G1 X148.432 Y123.267 E12.4902
G1 X148.165 Y123.44 E12.50607
G1 X147.915 Y123.639 E12.52202
G1 X147.707 Y123.844 E12.53659
G1 X147.487 Y124.102 E12.5535
G1 X147.314 Y124.353 E12.56871
G1 X147.165 Y124.626 E12.58423
G1 X147.044 Y124.912 E12.59972
G1 X146.947 Y125.222 E12.61593
G1 X146.886 Y125.53 E12.63159
G1 X146.855 Y125.834 E12.64684
G1 X146.853 Y125.855 E12.64789
G1 X146.85 Y126.109 E12.66056
G1 X146.85 Y132.008 E12.95486
G1 X146.866 Y132.311 E12.97
G1 X146.913 Y132.626 E12.98589
G1 X146.99 Y132.927 E13.00139
G1 X147.095 Y133.218 E13.01683
G1 X147.232 Y133.505 E13.03269
G1 X147.397 Y133.775 E13.04848
G1 X147.58 Y134.018 E13.06366
G1 X147.798 Y134.253 E13.07965
G1 X148.035 Y134.462 E13.09541
G1 X148.288 Y134.644 E13.11096
G1 X148.56 Y134.801 E13.12663
G1 X148.843 Y134.93 E13.14215
G1 X149.144 Y135.031 E13.15799
G1 X149.436 Y135.098 E13.17293
G1 X149.755 Y135.14 E13.18898
G0 F6000 X149.721 Y135.578
G1 F2700 E8.18898
G0 F6000 X148.479 Y135.854
G0 X149.151 Y134.121
G0 X126.981 Y167.861
G0 X128.59 Y166.933
G0 X128.335 Y169.601
G0 X128.014 Y170.55
G0 X127.54 Y171.209
G0 X125.779 Y172.874
;TYPE:WALL-INNER
G1 F2700 E13.18898
G1 F1200 X126.156 Y172.778 E13.20839
G1 X126.514 Y172.649 E13.22738
G1 X126.885 Y172.473 E13.24786
G1 X127.225 Y172.265 E13.26775
G1 X127.532 Y172.034 E13.28692
G1 X127.83 Y171.756 E13.30725
G1 X128.08 Y171.471 E13.32616
G1 X128.315 Y171.15 E13.34601
G1 X128.513 Y170.806 E13.36581
G1 X128.675 Y170.451 E13.38528
G1 X128.803 Y170.073 E13.40519
G1 X128.882 Y169.718 E13.42334
G1 X128.887 Y169.7 E13.42427
G1 X128.938 Y169.307 E13.44404
G1 X128.949 Y168.898 E13.46445
G1 X128.921 Y168.52 E13.48336
G1 X128.853 Y168.122 E13.50351
G1 X128.748 Y167.752 E13.52269
G1 X128.606 Y167.384 E13.54237
G1 X128.425 Y167.029 E13.56225
G1 X128.213 Y166.7 E13.58178
G1 X127.972 Y166.397 E13.6011
G1 X127.688 Y166.109 E13.62127
G1 X127.389 Y165.854 E13.64088
G1 X127.067 Y165.632 E13.66039
G1 X126.722 Y165.443 E13.68002
G1 X126.362 Y165.291 E13.69951
G1 X125.976 Y165.171 E13.71968
