;FLAVOR:Marlin
;TIME:5451
;Filament used: 4.05169m
;Layer height: 0.2
;MINX:119.25
;MINY:118.25
;MINZ:0.3
;MAXX:180.75
;MAXY:182.614
;MAXZ:7.9
;Generated with Cura_SteamEngine 4.10.0
M140 S60
M105
M190 S60
M104 S210
M105
M109 S210
M82 ;absolute extrusion mode
M201 X500.00 Y500.00 Z100.00 E5000.00 ;Setup machine max acceleration
M203 X500.00 Y500.00 Z10.00 E50.00 ;Setup machine max feedrate
M204 P500.00 R1000.00 T500.00 ;Setup Print/Retract/Travel acceleration
M205 X8.00 Y8.00 Z0.40 E5.00 ;Setup Jerk
M220 S100 ;Reset Feedrate
M221 S100 ;Reset Flowrate

G28 ;Home

G92 E0 ;Reset Extruder
G1 Z2.0 F3000 ;Move Z Axis up
G1 X10.1 Y20 Z0.28 F5000.0 ;Move to start position
G1 X10.1 Y200.0 Z0.28 F1500.0 E15 ;Draw the first line
G1 X10.4 Y200.0 Z0.28 F5000.0 ;Move to side a little
G1 X10.4 Y20 Z0.28 F1500.0 E30 ;Draw the second line
G92 E0 ;Reset Extruder
G1 Z2.0 F3000 ;Move Z Axis up

G92 E0
G92 E0
G1 F2700 E-5
;LAYER_COUNT:40
;LAYER:0
M107
M204 S500
;MESH:CARRIAGE-PLATE-1.0.stl
G0 F6000 X173.772 Y179.596 Z0.3
;TYPE:WALL-INNER
G1 F2700 E0
G1 F1200 X174.261 Y179.728 E0.02527
G1 X174.632 Y179.784 E0.04399
G1 X174.997 Y179.8 E0.06222
G1 X175.36 Y179.784 E0.08034
G1 X175.728 Y179.73 E0.0989
G1 X176.134 Y179.629 E0.11977
G1 X176.484 Y179.5 E0.13838
G1 X176.816 Y179.338 E0.15681
G1 X177.157 Y179.131 E0.17671
G1 X177.448 Y178.908 E0.19501
G1 X177.718 Y178.657 E0.2134
G1 X177.959 Y178.382 E0.23164
G1 X178.177 Y178.085 E0.25002
G1 X178.381 Y177.737 E0.27015
G1 X178.532 Y177.405 E0.28834
G1 X178.667 Y177 E0.30964
G1 X178.747 Y176.641 E0.32799
G1 X178.787 Y176.295 E0.34537
G1 X178.79 Y176.277 E0.34628
G1 X178.799 Y175.901 E0.36504
G1 X178.77 Y175.507 E0.38475
G1 X178.704 Y175.142 E0.40326
G1 X178.604 Y174.793 E0.42137
G1 X178.468 Y174.446 E0.43996
G1 X178.296 Y174.106 E0.45897
G1 X178.099 Y173.8 E0.47713
G1 X177.847 Y173.48 E0.49745
G1 X177.561 Y173.192 E0.5177
G1 X177.305 Y172.979 E0.53431
G1 X176.981 Y172.755 E0.55397
G1 X176.654 Y172.577 E0.57254
G1 X176.278 Y172.421 E0.59285
G1 X176.253 Y172.41 E0.59421
G1 X176.228 Y172.404 E0.59549
G1 X175.739 Y172.272 E0.62076
G1 X175.368 Y172.216 E0.63948
G1 X175.001 Y172.2 E0.65781
G1 X174.639 Y172.216 E0.67589
G1 X174.27 Y172.27 E0.69449
G1 X173.864 Y172.372 E0.71538
G1 X173.517 Y172.499 E0.73381
G1 X173.186 Y172.66 E0.75218
G1 X172.874 Y172.849 E0.77038
G1 X172.55 Y173.091 E0.79055
G1 X172.279 Y173.346 E0.80912
G1 X172.041 Y173.616 E0.82707
G1 X171.823 Y173.916 E0.84557
G1 X171.619 Y174.263 E0.86566
G1 X171.468 Y174.595 E0.88385
G1 X171.333 Y175 E0.90515
G1 X171.253 Y175.359 E0.9235
G1 X171.213 Y175.705 E0.94088
G1 X171.21 Y175.723 E0.94179
G1 X171.201 Y176.099 E0.96055
G1 X171.23 Y176.493 E0.98026
G1 X171.296 Y176.858 E0.99877
G1 X171.402 Y177.226 E1.01787
G1 X171.528 Y177.543 E1.03489
G1 X171.7 Y177.886 E1.05404
G1 X171.901 Y178.199 E1.07259
G1 X172.153 Y178.519 E1.09291
G1 X172.439 Y178.808 E1.1132
G1 X172.695 Y179.021 E1.12981
G1 X173.021 Y179.246 E1.14958
G1 X173.346 Y179.423 E1.16804
G1 X173.722 Y179.579 E1.18835
G1 X173.747 Y179.59 E1.18971
G1 X173.772 Y179.596 E1.19099
G0 F6000 X173.876 Y179.211
G1 F1200 X174.343 Y179.336 E1.21511
G1 X174.671 Y179.385 E1.23166
G1 X174.997 Y179.4 E1.24794
G1 X175.322 Y179.385 E1.26417
G1 X175.651 Y179.337 E1.28076
G1 X176.016 Y179.246 E1.29953
G1 X176.327 Y179.132 E1.31605
G1 X176.624 Y178.987 E1.33254
G1 X176.931 Y178.8 E1.35047
G1 X177.19 Y178.602 E1.36674
G1 X177.431 Y178.378 E1.38315
G1 X177.647 Y178.132 E1.39949
G1 X177.842 Y177.865 E1.41598
G1 X178.025 Y177.553 E1.43403
G1 X178.159 Y177.258 E1.45019
G1 X178.281 Y176.893 E1.46939
G1 X178.352 Y176.574 E1.4857
G1 X178.391 Y176.248 E1.50208
G1 X178.399 Y175.911 E1.5189
G1 X178.373 Y175.558 E1.53655
G1 X178.314 Y175.233 E1.55303
G1 X178.225 Y174.921 E1.56922
G1 X178.103 Y174.61 E1.58589
G1 X177.948 Y174.305 E1.60296
G1 X177.773 Y174.032 E1.61913
G1 X177.547 Y173.746 E1.63732
G1 X177.29 Y173.487 E1.65552
G1 X177.063 Y173.298 E1.67026
G1 X176.771 Y173.096 E1.68797
G1 X176.481 Y172.938 E1.70445
G1 X176.124 Y172.789 E1.72375
G1 X175.657 Y172.664 E1.74787
G1 X175.329 Y172.615 E1.76441
G1 X175.001 Y172.6 E1.7808
G1 X174.677 Y172.615 E1.79698
G1 X174.348 Y172.663 E1.81356
G1 X173.982 Y172.755 E1.83239
G1 X173.674 Y172.868 E1.84876
G1 X173.377 Y173.012 E1.86523
G1 X173.098 Y173.181 E1.8815
G1 X172.808 Y173.398 E1.89957
G1 X172.567 Y173.625 E1.91609
G1 X172.353 Y173.867 E1.93221
G1 X172.158 Y174.135 E1.94874
G1 X171.975 Y174.447 E1.96679
G1 X171.841 Y174.742 E1.98295
G1 X171.719 Y175.107 E2.00215
G1 X171.648 Y175.426 E2.01846
G1 X171.609 Y175.752 E2.03484
G1 X171.601 Y176.089 E2.05165
G1 X171.627 Y176.442 E2.06931
G1 X171.686 Y176.767 E2.08579
G1 X171.781 Y177.097 E2.10293
G1 X171.893 Y177.379 E2.11806
G1 X172.048 Y177.688 E2.13531
G1 X172.227 Y177.967 E2.15185
G1 X172.453 Y178.254 E2.17007
G1 X172.71 Y178.513 E2.18828
G1 X172.937 Y178.702 E2.20301
G1 X173.231 Y178.905 E2.22084
G1 X173.519 Y179.062 E2.2372
G1 X173.876 Y179.211 E2.2565
G0 F6000 X174.005 Y178.832
;TYPE:WALL-OUTER
G1 F1200 X174.424 Y178.944 E2.27814
G1 X174.71 Y178.986 E2.29256
G1 X174.997 Y179 E2.3069
G1 X175.284 Y178.986 E2.32123
G1 X175.574 Y178.944 E2.33585
G1 X175.898 Y178.863 E2.35251
G1 X176.17 Y178.763 E2.36697
G1 X176.432 Y178.636 E2.3815
G1 X176.705 Y178.469 E2.39746
G1 X176.932 Y178.296 E2.4117
G1 X177.144 Y178.099 E2.42614
G1 X177.335 Y177.882 E2.44056
G1 X177.507 Y177.646 E2.45513
G1 X177.669 Y177.369 E2.47114
G1 X177.786 Y177.111 E2.48528
G1 X177.895 Y176.786 E2.50238
G1 X177.957 Y176.506 E2.51669
G1 X177.992 Y176.219 E2.53111
G1 X177.999 Y175.921 E2.54598
G1 X177.976 Y175.609 E2.56159
G1 X177.924 Y175.324 E2.57604
G1 X177.846 Y175.049 E2.5903
G1 X177.738 Y174.774 E2.60504
G1 X177.601 Y174.504 E2.62015
G1 X177.447 Y174.265 E2.63433
G1 X177.247 Y174.011 E2.65046
G1 X177.02 Y173.782 E2.66655
G1 X176.821 Y173.617 E2.67945
G1 X176.561 Y173.437 E2.69522
G1 X176.308 Y173.299 E2.7096
G1 X175.995 Y173.168 E2.72653
G1 X175.576 Y173.056 E2.74817
G1 X175.29 Y173.014 E2.76259
G1 X175.001 Y173 E2.77702
G1 X174.716 Y173.014 E2.79126
G1 X174.426 Y173.056 E2.80588
G1 X174.1 Y173.138 E2.82265
G1 X173.83 Y173.237 E2.837
G1 X173.568 Y173.364 E2.85152
G1 X173.322 Y173.513 E2.86587
G1 X173.066 Y173.705 E2.88184
G1 X172.854 Y173.904 E2.89634
G1 X172.665 Y174.118 E2.91059
G1 X172.493 Y174.354 E2.92516
G1 X172.331 Y174.631 E2.94117
G1 X172.214 Y174.889 E2.9553
G1 X172.105 Y175.214 E2.9724
G1 X172.043 Y175.494 E2.98671
G1 X172.008 Y175.781 E3.00113
G1 X172.001 Y176.079 E3.016
G1 X172.024 Y176.391 E3.03161
G1 X172.076 Y176.676 E3.04607
G1 X172.16 Y176.968 E3.06122
G1 X172.258 Y177.215 E3.07448
G1 X172.396 Y177.49 E3.08983
G1 X172.553 Y177.735 E3.10435
G1 X172.753 Y177.989 E3.12048
G1 X172.98 Y178.218 E3.13657
G1 X173.179 Y178.383 E3.14946
G1 X173.441 Y178.564 E3.16535
G1 X173.692 Y178.701 E3.17962
G1 X174.005 Y178.832 E3.19654
G0 F6000 X173.863 Y179.248
G1 F2700 E-1.80346
G0 F6000 X172.574 Y178.148
G0 X172.039 Y177.313
G0 X171.786 Y176.421
G0 X171.791 Y176.147
G0 X171.892 Y173.497
G0 X173.397 Y174.59
G0 X149.778 Y126.385
G0 X149.778 Y128.22
G0 X146.035 Y128.05
;TYPE:WALL-INNER
G1 F2700 E3.19654
G1 F1200 X153.965 Y128.05 E3.59217
G1 X154.6 Y127.415 E3.63698
G1 X154.6 Y120.585 E3.97773
G1 X153.965 Y119.95 E4.02253
G1 X146.035 Y119.95 E4.41816
G1 X145.4 Y120.585 E4.46296
G1 X145.4 Y127.415 E4.80371
G1 X146.035 Y128.05 E4.84851
G0 F6000 X146.201 Y127.65
G1 F1200 X153.799 Y127.65 E5.22758
G1 X154.2 Y127.249 E5.25587
G1 X154.2 Y120.751 E5.58006
G1 X153.799 Y120.35 E5.60835
G1 X146.201 Y120.35 E5.98742
G1 X145.8 Y120.751 E6.01571
G1 X145.8 Y127.249 E6.3399
G1 X146.201 Y127.65 E6.36819
G0 F6000 X146.367 Y127.25
;TYPE:WALL-OUTER
G1 F1200 X153.633 Y127.25 E6.73069
G1 X153.8 Y127.083 E6.74247
G1 X153.8 Y120.917 E7.0501
G1 X153.633 Y120.75 E7.06188
G1 X146.367 Y120.75 E7.42438
G1 X146.2 Y120.917 E7.43616
G1 X146.2 Y127.083 E7.74379
G1 X146.367 Y127.25 E7.75557
G0 F6000 X146.199 Y127.656
G1 F2700 E2.75557
G0 F6000 X150.279 Y128.24
G0 X150.231 Y129.808
G0 X151.188 Y129.987
G0 X152.03 Y130.477
G0 X152.666 Y131.16
G0 X153.091 Y132.03
G0 X153.239 Y132.989
G0 X153.224 Y139.314
G0 X152.984 Y140.261
G0 X152.474 Y141.09
G0 X152.078 Y141.441
G0 X150.279 Y142.79
;TYPE:WALL-INNER
G1 F2700 E7.75557
G1 F1200 X150.644 Y142.747 E7.77391
G1 X150.997 Y142.666 E7.79198
G1 X151.393 Y142.536 E7.81277
G1 X151.733 Y142.382 E7.83139
G1 X152.081 Y142.182 E7.85142
G1 X152.379 Y141.966 E7.86978
G1 X152.636 Y141.739 E7.88688
G1 X152.903 Y141.452 E7.90644
G1 X153.149 Y141.13 E7.92666
G1 X153.339 Y140.814 E7.94505
G1 X153.502 Y140.48 E7.9636
G1 X153.631 Y140.122 E7.98258
G1 X153.73 Y139.734 E8.00256
G1 X153.784 Y139.365 E8.02116
G1 X153.8 Y138.904 E8.04418
G1 X153.8 Y132.975 E8.33998
G1 X153.784 Y132.644 E8.35651
G1 X153.73 Y132.27 E8.37536
G1 X153.628 Y131.864 E8.39625
G1 X153.501 Y131.517 E8.41468
G1 X153.338 Y131.184 E8.43318
G1 X153.129 Y130.843 E8.45313
G1 X152.906 Y130.55 E8.4715
G1 X152.655 Y130.28 E8.48989
G1 X152.383 Y130.04 E8.50799
G1 X152.083 Y129.821 E8.52652
G1 X151.735 Y129.618 E8.54662
G1 X151.393 Y129.464 E8.56533
G1 X151.001 Y129.332 E8.58597
G1 X150.635 Y129.252 E8.60466
G1 X150.292 Y129.213 E8.62188
G1 X150.273 Y129.21 E8.62284
G1 X149.899 Y129.201 E8.64151
G1 X149.503 Y129.231 E8.66132
G1 X149.143 Y129.296 E8.67957
G1 X148.77 Y129.403 E8.69893
G1 X148.45 Y129.53 E8.71611
G1 X148.075 Y129.719 E8.73706
G1 X147.788 Y129.908 E8.7542
G1 X147.505 Y130.131 E8.77218
G1 X147.193 Y130.437 E8.79398
G1 X146.978 Y130.696 E8.81077
G1 X146.754 Y131.021 E8.83047
G1 X146.577 Y131.346 E8.84893
G1 X146.421 Y131.722 E8.86924
G1 X146.41 Y131.747 E8.8706
G1 X146.404 Y131.772 E8.87188
G1 X146.272 Y132.261 E8.89715
G1 X146.216 Y132.632 E8.91587
G1 X146.2 Y132.978 E8.93315
G1 X146.2 Y139.025 E9.23484
G1 X146.216 Y139.358 E9.25147
G1 X146.27 Y139.729 E9.27018
G1 X146.37 Y140.125 E9.29055
G1 X146.481 Y140.439 E9.30717
G1 X146.66 Y140.814 E9.3279
G1 X146.848 Y141.123 E9.34594
G1 X147.091 Y141.448 E9.36619
G1 X147.346 Y141.72 E9.38479
G1 X147.616 Y141.959 E9.40278
G1 X147.913 Y142.176 E9.42113
G1 X148.263 Y142.381 E9.44137
G1 X148.602 Y142.534 E9.45992
G1 X149 Y142.667 E9.48086
G1 X149.358 Y142.747 E9.49916
G1 X149.714 Y142.79 E9.51705
G1 X149.916 Y142.799 E9.52714
G1 X150.279 Y142.79 E9.54525
G0 F6000 X150.25 Y142.391
G1 F1200 X150.575 Y142.352 E9.56158
G1 X150.89 Y142.28 E9.5777
G1 X151.248 Y142.163 E9.5965
G1 X151.55 Y142.026 E9.61304
G1 X151.863 Y141.846 E9.63105
G1 X152.129 Y141.653 E9.64745
G1 X152.357 Y141.452 E9.66261
G1 X152.597 Y141.194 E9.68019
G1 X152.818 Y140.905 E9.69834
G1 X152.987 Y140.623 E9.71475
G1 X153.133 Y140.324 E9.73135
G1 X153.248 Y140.005 E9.74826
G1 X153.337 Y139.655 E9.76628
G1 X153.385 Y139.329 E9.78272
G1 X153.4 Y138.897 E9.80429
G1 X153.4 Y132.985 E10.09924
G1 X153.385 Y132.682 E10.11437
G1 X153.337 Y132.347 E10.13126
G1 X153.245 Y131.982 E10.15004
G1 X153.132 Y131.674 E10.1664
G1 X152.987 Y131.376 E10.18294
G1 X152.799 Y131.069 E10.2009
G1 X152.6 Y130.808 E10.21727
G1 X152.376 Y130.567 E10.23369
G1 X152.132 Y130.352 E10.24991
G1 X151.864 Y130.156 E10.26648
G1 X151.552 Y129.974 E10.2845
G1 X151.247 Y129.837 E10.30118
G1 X150.894 Y129.718 E10.31976
G1 X150.569 Y129.647 E10.33636
G1 X150.245 Y129.609 E10.35264
G1 X149.909 Y129.601 E10.3694
G1 X149.554 Y129.628 E10.38717
G1 X149.234 Y129.686 E10.40339
G1 X148.899 Y129.782 E10.42078
G1 X148.614 Y129.895 E10.43607
G1 X148.276 Y130.066 E10.45497
G1 X148.022 Y130.233 E10.47014
G1 X147.77 Y130.432 E10.48616
G1 X147.488 Y130.708 E10.50584
G1 X147.297 Y130.938 E10.52076
G1 X147.095 Y131.231 E10.53851
G1 X146.938 Y131.519 E10.55488
G1 X146.789 Y131.876 E10.57418
G1 X146.664 Y132.343 E10.5983
G1 X146.615 Y132.671 E10.61484
G1 X146.6 Y132.987 E10.63062
G1 X146.6 Y139.015 E10.93136
G1 X146.615 Y139.319 E10.94655
G1 X146.663 Y139.651 E10.96328
G1 X146.753 Y140.009 E10.9817
G1 X146.851 Y140.286 E10.99636
G1 X147.012 Y140.623 E11.01499
G1 X147.18 Y140.899 E11.03111
G1 X147.398 Y141.191 E11.04929
G1 X147.625 Y141.433 E11.06585
G1 X147.867 Y141.647 E11.08196
G1 X148.133 Y141.841 E11.09839
G1 X148.447 Y142.025 E11.11654
G1 X148.748 Y142.161 E11.13302
G1 X149.107 Y142.281 E11.15191
G1 X149.426 Y142.352 E11.16821
G1 X149.747 Y142.391 E11.18434
G1 X149.92 Y142.399 E11.19299
G1 X150.25 Y142.391 E11.20945
G0 F6000 X150.221 Y141.992
;TYPE:WALL-OUTER
G1 F1200 X150.506 Y141.957 E11.22378
G1 X150.784 Y141.894 E11.238
G1 X151.103 Y141.79 E11.25474
G1 X151.367 Y141.67 E11.26921
G1 X151.645 Y141.51 E11.28521
G1 X151.879 Y141.34 E11.29964
G1 X152.078 Y141.165 E11.31286
G1 X152.291 Y140.936 E11.32846
G1 X152.486 Y140.68 E11.34452
G1 X152.635 Y140.432 E11.35895
G1 X152.764 Y140.168 E11.37361
G1 X152.865 Y139.888 E11.38846
G1 X152.944 Y139.576 E11.40452
G1 X152.986 Y139.293 E11.41879
G1 X153 Y138.89 E11.43891
G1 X153 Y132.995 E11.73301
G1 X152.986 Y132.72 E11.74675
G1 X152.944 Y132.424 E11.76167
G1 X152.862 Y132.1 E11.77834
G1 X152.763 Y131.83 E11.79269
G1 X152.636 Y131.568 E11.80721
G1 X152.469 Y131.295 E11.82318
G1 X152.294 Y131.066 E11.83756
G1 X152.097 Y130.854 E11.852
G1 X151.881 Y130.664 E11.86635
G1 X151.644 Y130.491 E11.88099
G1 X151.369 Y130.33 E11.89689
G1 X151.101 Y130.21 E11.91154
G1 X150.787 Y130.104 E11.92807
G1 X150.503 Y130.042 E11.94257
G1 X150.217 Y130.008 E11.95694
G1 X149.92 Y130.001 E11.97176
G1 X149.605 Y130.025 E11.98753
G1 X149.325 Y130.076 E12.00172
G1 X149.028 Y130.161 E12.01714
G1 X148.779 Y130.26 E12.0305
G1 X148.477 Y130.413 E12.0474
G1 X148.256 Y130.558 E12.06058
G1 X148.035 Y130.733 E12.07465
G1 X147.782 Y130.98 E12.09229
G1 X147.616 Y131.18 E12.10525
G1 X147.436 Y131.441 E12.12107
G1 X147.299 Y131.692 E12.13534
G1 X147.168 Y132.005 E12.15227
G1 X147.056 Y132.424 E12.1739
G1 X147.014 Y132.71 E12.18833
G1 X147 Y132.997 E12.20266
G1 X147 Y139.005 E12.5024
G1 X147.014 Y139.28 E12.51614
G1 X147.056 Y139.574 E12.53096
G1 X147.136 Y139.893 E12.54736
G1 X147.221 Y140.133 E12.56007
G1 X147.364 Y140.432 E12.5766
G1 X147.512 Y140.675 E12.5908
G1 X147.705 Y140.934 E12.60691
G1 X147.904 Y141.146 E12.62142
G1 X148.118 Y141.335 E12.63566
G1 X148.352 Y141.506 E12.65012
G1 X148.631 Y141.669 E12.66624
G1 X148.894 Y141.788 E12.68064
G1 X149.214 Y141.895 E12.69748
G1 X149.494 Y141.957 E12.71178
G1 X149.781 Y141.992 E12.72621
G1 X149.925 Y141.999 E12.7334
G1 X150.221 Y141.992 E12.74817
G0 F6000 X150.253 Y142.43
G1 F2700 E7.74817
G0 F6000 X149.325 Y142.935
G0 X149.535 Y141.083
G0 X126.905 Y175.035
G0 X128.642 Y174.368
G0 X128.009 Y177.198
G0 X127.528 Y178.026
G0 X125.73 Y179.73
;TYPE:WALL-INNER
G1 F2700 E12.74817
G1 F1200 X126.136 Y179.628 E12.76906
G1 X126.483 Y179.501 E12.78749
G1 X126.816 Y179.338 E12.80599
G1 X127.157 Y179.131 E12.82589
G1 X127.452 Y178.907 E12.84437
G1 X127.747 Y178.628 E12.86463
G1 X127.966 Y178.375 E12.88132
G1 X128.179 Y178.083 E12.89935
G1 X128.381 Y177.737 E12.91934
G1 X128.532 Y177.405 E12.93754
G1 X128.667 Y177 E12.95884
G1 X128.747 Y176.641 E12.97719
G1 X128.787 Y176.295 E12.99456
G1 X128.79 Y176.277 E12.99548
G1 X128.799 Y175.903 E13.01414
G1 X128.77 Y175.508 E13.0339
G1 X128.704 Y175.142 E13.05245
G1 X128.604 Y174.793 E13.07057
G1 X128.468 Y174.446 E13.08916
G1 X128.296 Y174.106 E13.10817
G1 X128.099 Y173.8 E13.12633
G1 X127.847 Y173.48 E13.14665
G1 X127.561 Y173.192 E13.1669
G1 X127.305 Y172.979 E13.18351
G1 X126.981 Y172.755 E13.20316
G1 X126.654 Y172.577 E13.22174
G1 X126.278 Y172.421 E13.24205
G1 X126.253 Y172.41 E13.24341
G1 X126.228 Y172.404 E13.24469
G1 X125.739 Y172.272 E13.26996
G1 X125.368 Y172.216 E13.28868
G1 X125.001 Y172.2 E13.30701
G1 X124.639 Y172.216 E13.32509
G1 X124.27 Y172.27 E13.34369
G1 X123.864 Y172.372 E13.36458
G1 X123.517 Y172.499 E13.38301
G1 X123.188 Y172.659 E13.40126
G1 X122.874 Y172.849 E13.41957
G1 X122.55 Y173.091 E13.43975
G1 X122.279 Y173.346 E13.45831
G1 X122.041 Y173.616 E13.47627
G1 X121.823 Y173.916 E13.49477
G1 X121.619 Y174.263 E13.51485
G1 X121.468 Y174.595 E13.53305
G1 X121.333 Y175 E13.55435
G1 X121.253 Y175.359 E13.5727
G1 X121.213 Y175.705 E13.59007
G1 X121.21 Y175.723 E13.59098
G1 X121.201 Y176.099 E13.60975
G1 X121.23 Y176.492 E13.62941
