;FLAVOR:Marlin
;TIME:10796
;Filament used: 6.95168m
;Layer height: 0.2
;MINX:119.25
;MINY:110.385
;MINZ:0.3
;MAXX:180.75
;MAXY:189.611
;MAXZ:32.5
;Generated with Cura_SteamEngine 4.10.0
M140 S60
M105
M190 S60
M104 S210
M105
M109 S210
M82 ;absolute extrusion mode
M201 X500.00 Y500.00 Z100.00 E5000.00 ;Setup machine max acceleration
M203 X500.00 Y500.00 Z10.00 E50.00 ;Setup machine max feedrate
M204 P500.00 R1000.00 T500.00 ;Setup Print/Retract/Travel acceleration
M205 X8.00 Y8.00 Z0.40 E5.00 ;Setup Jerk
M220 S100 ;Reset Feedrate
M221 S100 ;Reset Flowrate

G28 ;Home

G92 E0 ;Reset Extruder
G1 Z2.0 F3000 ;Move Z Axis up
G1 X10.1 Y20 Z0.28 F5000.0 ;Move to start position
G1 X10.1 Y200.0 Z0.28 F1500.0 E15 ;Draw the first line
G1 X10.4 Y200.0 Z0.28 F5000.0 ;Move to side a little
G1 X10.4 Y20 Z0.28 F1500.0 E30 ;Draw the second line
G92 E0 ;Reset Extruder
G1 Z2.0 F3000 ;Move Z Axis up

G92 E0
G92 E0
G1 F2700 E-5
;LAYER_COUNT:162
;LAYER:0
M107
M204 S500
;MESH:CARRIAGE-1.0.stl
G0 F6000 X173.772 Y172.596 Z0.3
;TYPE:WALL-INNER
G1 F2700 E0
G1 F1200 X174.261 Y172.728 E0.02527
G1 X174.632 Y172.784 E0.04399
G1 X174.997 Y172.8 E0.06222
G1 X175.36 Y172.784 E0.08034
G1 X175.728 Y172.73 E0.0989
G1 X176.134 Y172.629 E0.11977
G1 X176.484 Y172.5 E0.13838
G1 X176.816 Y172.338 E0.15681
G1 X177.157 Y172.131 E0.17671
G1 X177.45 Y171.907 E0.19511
G1 X177.718 Y171.657 E0.2134
G1 X177.966 Y171.377 E0.23206
G1 X178.176 Y171.086 E0.24996
G1 X178.381 Y170.737 E0.27016
G1 X178.532 Y170.405 E0.28835
G1 X178.667 Y170 E0.30965
G1 X178.747 Y169.641 E0.328
G1 X178.787 Y169.295 E0.34538
G1 X178.79 Y169.277 E0.34629
G1 X178.799 Y168.901 E0.36505
G1 X178.77 Y168.508 E0.38471
G1 X178.704 Y168.141 E0.40332
G1 X178.598 Y167.775 E0.42233
G1 X178.468 Y167.446 E0.43998
G1 X178.296 Y167.106 E0.45899
G1 X178.099 Y166.8 E0.47714
G1 X177.847 Y166.48 E0.49746
G1 X177.561 Y166.192 E0.51771
G1 X177.305 Y165.979 E0.53433
G1 X176.981 Y165.755 E0.55398
G1 X176.654 Y165.577 E0.57255
G1 X176.278 Y165.421 E0.59286
G1 X176.253 Y165.41 E0.59423
G1 X176.228 Y165.404 E0.59551
G1 X175.739 Y165.272 E0.62078
G1 X175.368 Y165.216 E0.6395
G1 X175.001 Y165.2 E0.65782
G1 X174.639 Y165.216 E0.6759
G1 X174.27 Y165.27 E0.69451
G1 X173.864 Y165.372 E0.71539
G1 X173.517 Y165.499 E0.73383
G1 X173.184 Y165.662 E0.75232
G1 X172.843 Y165.869 E0.77223
G1 X172.548 Y166.093 E0.7907
G1 X172.279 Y166.346 E0.80913
G1 X172.041 Y166.616 E0.82709
G1 X171.823 Y166.916 E0.84559
G1 X171.619 Y167.263 E0.86567
G1 X171.468 Y167.595 E0.88386
G1 X171.333 Y168 E0.90516
G1 X171.253 Y168.359 E0.92351
G1 X171.213 Y168.705 E0.94089
G1 X171.21 Y168.723 E0.9418
G1 X171.201 Y169.099 E0.96056
G1 X171.23 Y169.492 E0.98022
G1 X171.296 Y169.86 E0.99888
G1 X171.401 Y170.221 E1.01763
G1 X171.526 Y170.541 E1.03477
G1 X171.7 Y170.886 E1.05405
G1 X171.901 Y171.199 E1.07261
G1 X172.153 Y171.519 E1.09293
G1 X172.439 Y171.808 E1.11322
G1 X172.695 Y172.021 E1.12983
G1 X173.021 Y172.246 E1.14959
G1 X173.346 Y172.423 E1.16805
G1 X173.722 Y172.579 E1.18836
G1 X173.747 Y172.59 E1.18973
G1 X173.772 Y172.596 E1.19101
G0 F6000 X173.876 Y172.211
G1 F1200 X174.343 Y172.336 E1.21513
G1 X174.671 Y172.385 E1.23167
G1 X174.997 Y172.4 E1.24796
G1 X175.322 Y172.385 E1.26419
G1 X175.651 Y172.337 E1.28077
G1 X176.016 Y172.246 E1.29954
G1 X176.327 Y172.132 E1.31607
G1 X176.624 Y171.987 E1.33256
G1 X176.931 Y171.8 E1.35049
G1 X177.192 Y171.601 E1.36686
G1 X177.431 Y171.378 E1.38317
G1 X177.653 Y171.127 E1.39989
G1 X177.841 Y170.867 E1.4159
G1 X178.025 Y170.553 E1.43405
G1 X178.159 Y170.258 E1.45022
G1 X178.281 Y169.893 E1.46942
G1 X178.352 Y169.574 E1.48572
G1 X178.391 Y169.248 E1.5021
G1 X178.399 Y168.911 E1.51892
G1 X178.373 Y168.558 E1.53658
G1 X178.314 Y168.232 E1.55311
G1 X178.219 Y167.904 E1.57015
G1 X178.103 Y167.61 E1.58591
G1 X177.948 Y167.305 E1.60298
G1 X177.773 Y167.032 E1.61916
G1 X177.547 Y166.746 E1.63735
G1 X177.29 Y166.487 E1.65555
G1 X177.063 Y166.298 E1.67029
G1 X176.771 Y166.096 E1.688
G1 X176.481 Y165.938 E1.70448
G1 X176.124 Y165.789 E1.72378
G1 X175.657 Y165.664 E1.7479
G1 X175.329 Y165.615 E1.76444
G1 X175.001 Y165.6 E1.78082
G1 X174.677 Y165.615 E1.797
G1 X174.348 Y165.663 E1.81359
G1 X173.982 Y165.755 E1.83242
G1 X173.674 Y165.868 E1.84879
G1 X173.376 Y166.013 E1.86532
G1 X173.069 Y166.2 E1.88325
G1 X172.807 Y166.399 E1.89967
G1 X172.567 Y166.625 E1.91612
G1 X172.353 Y166.867 E1.93223
G1 X172.158 Y167.135 E1.94877
G1 X171.975 Y167.447 E1.96681
G1 X171.841 Y167.742 E1.98298
G1 X171.719 Y168.107 E2.00218
G1 X171.648 Y168.426 E2.01848
G1 X171.609 Y168.752 E2.03486
G1 X171.601 Y169.089 E2.05168
G1 X171.627 Y169.442 E2.06934
G1 X171.686 Y169.768 E2.08587
G1 X171.78 Y170.092 E2.1027
G1 X171.892 Y170.378 E2.11802
G1 X172.048 Y170.688 E2.13534
G1 X172.227 Y170.967 E2.15187
G1 X172.453 Y171.254 E2.1701
G1 X172.71 Y171.513 E2.1883
G1 X172.937 Y171.702 E2.20304
G1 X173.231 Y171.905 E2.22086
G1 X173.519 Y172.062 E2.23723
G1 X173.876 Y172.211 E2.25653
G0 F6000 X174.005 Y171.832
;TYPE:WALL-OUTER
G1 F1200 X174.424 Y171.944 E2.27817
G1 X174.71 Y171.986 E2.29259
G1 X174.997 Y172 E2.30692
G1 X175.284 Y171.986 E2.32126
G1 X175.574 Y171.944 E2.33588
G1 X175.898 Y171.863 E2.35254
G1 X176.17 Y171.763 E2.367
G1 X176.432 Y171.636 E2.38152
G1 X176.705 Y171.469 E2.39749
G1 X176.934 Y171.295 E2.41184
G1 X177.144 Y171.099 E2.42617
G1 X177.34 Y170.877 E2.44095
G1 X177.506 Y170.648 E2.45506
G1 X177.669 Y170.369 E2.47118
G1 X177.786 Y170.111 E2.48531
G1 X177.895 Y169.786 E2.50241
G1 X177.957 Y169.506 E2.51672
G1 X177.992 Y169.219 E2.53114
G1 X177.999 Y168.921 E2.54602
G1 X177.976 Y168.609 E2.56162
G1 X177.924 Y168.324 E2.57608
G1 X177.84 Y168.033 E2.59119
G1 X177.738 Y167.774 E2.60508
G1 X177.601 Y167.504 E2.62018
G1 X177.447 Y167.265 E2.63437
G1 X177.247 Y167.011 E2.65049
G1 X177.02 Y166.782 E2.66658
G1 X176.821 Y166.617 E2.67948
G1 X176.561 Y166.437 E2.69525
G1 X176.308 Y166.299 E2.70963
G1 X175.995 Y166.168 E2.72656
G1 X175.576 Y166.056 E2.7482
G1 X175.29 Y166.014 E2.76262
G1 X175.001 Y166 E2.77706
G1 X174.716 Y166.014 E2.79129
G1 X174.426 Y166.056 E2.80591
G1 X174.1 Y166.138 E2.82268
G1 X173.83 Y166.237 E2.83703
G1 X173.568 Y166.364 E2.85155
G1 X173.295 Y166.531 E2.86752
G1 X173.066 Y166.705 E2.88187
G1 X172.854 Y166.904 E2.89638
G1 X172.665 Y167.118 E2.91062
G1 X172.493 Y167.354 E2.92519
G1 X172.331 Y167.631 E2.9412
G1 X172.214 Y167.889 E2.95533
G1 X172.105 Y168.214 E2.97243
G1 X172.043 Y168.494 E2.98674
G1 X172.008 Y168.781 E3.00117
G1 X172.001 Y169.079 E3.01604
G1 X172.024 Y169.391 E3.03165
G1 X172.076 Y169.676 E3.0461
G1 X172.159 Y169.963 E3.061
G1 X172.258 Y170.215 E3.07451
G1 X172.396 Y170.49 E3.08986
G1 X172.553 Y170.735 E3.10438
G1 X172.753 Y170.989 E3.12051
G1 X172.98 Y171.218 E3.1366
G1 X173.179 Y171.383 E3.14949
G1 X173.441 Y171.564 E3.16538
G1 X173.692 Y171.701 E3.17965
G1 X174.005 Y171.832 E3.19657
G0 F6000 X173.863 Y172.248
G1 F2700 E-1.80343
G0 F6000 X172.574 Y171.148
G0 X172.039 Y170.313
G0 X171.835 Y169.592
G0 X171.449 Y167.175
G0 X173.096 Y168.036
G0 X149.778 Y119.385
G0 X149.778 Y121.22
G0 X146.035 Y121.05
;TYPE:WALL-INNER
G1 F2700 E3.19657
G1 F1200 X153.965 Y121.05 E3.5922
G1 X154.6 Y120.415 E3.63701
G1 X154.6 Y113.585 E3.97776
G1 X153.965 Y112.95 E4.02256
G1 X146.035 Y112.95 E4.41819
G1 X145.4 Y113.585 E4.46299
G1 X145.4 Y120.415 E4.80374
G1 X146.035 Y121.05 E4.84854
G0 F6000 X146.201 Y120.65
G1 F1200 X153.799 Y120.65 E5.22761
G1 X154.2 Y120.249 E5.2559
G1 X154.2 Y113.751 E5.58009
G1 X153.799 Y113.35 E5.60838
G1 X146.201 Y113.35 E5.98745
G1 X145.8 Y113.751 E6.01574
G1 X145.8 Y120.249 E6.33993
G1 X146.201 Y120.65 E6.36822
G0 F6000 X146.367 Y120.25
;TYPE:WALL-OUTER
G1 F1200 X153.633 Y120.25 E6.73072
G1 X153.8 Y120.083 E6.7425
G1 X153.8 Y113.917 E7.05013
G1 X153.633 Y113.75 E7.06191
G1 X146.367 Y113.75 E7.42441
G1 X146.2 Y113.917 E7.4362
G1 X146.2 Y120.083 E7.74382
G1 X146.367 Y120.25 E7.7556
G0 F6000 X146.199 Y120.656
G1 F2700 E2.7556
G0 F6000 X150.279 Y121.24
G0 X150.231 Y122.808
G0 X151.188 Y122.987
G0 X152.03 Y123.477
G0 X152.687 Y124.191
G0 X153.091 Y125.03
G0 X153.239 Y125.989
G0 X153.224 Y132.311
G0 X152.984 Y133.261
G0 X152.474 Y134.09
G0 X151.908 Y134.592
G0 X150.279 Y135.79
;TYPE:WALL-INNER
G1 F2700 E7.7556
G1 F1200 X150.643 Y135.747 E7.77389
G1 X150.997 Y135.666 E7.792
G1 X151.393 Y135.536 E7.8128
G1 X151.731 Y135.383 E7.83131
G1 X152.081 Y135.182 E7.85144
G1 X152.379 Y134.966 E7.86981
G1 X152.636 Y134.739 E7.88691
G1 X152.903 Y134.452 E7.90647
G1 X153.149 Y134.13 E7.92669
G1 X153.339 Y133.814 E7.94508
G1 X153.502 Y133.48 E7.96362
G1 X153.631 Y133.124 E7.98252
G1 X153.73 Y132.734 E8.00259
G1 X153.784 Y132.362 E8.02134
G1 X153.8 Y131.904 E8.04421
G1 X153.8 Y125.975 E8.34001
G1 X153.784 Y125.644 E8.35654
G1 X153.73 Y125.27 E8.37539
G1 X153.628 Y124.864 E8.39628
G1 X153.501 Y124.518 E8.41466
G1 X153.34 Y124.184 E8.43316
G1 X153.151 Y123.876 E8.45119
G1 X152.908 Y123.552 E8.4714
G1 X152.655 Y123.28 E8.48993
G1 X152.383 Y123.04 E8.50803
G1 X152.083 Y122.821 E8.52656
G1 X151.735 Y122.618 E8.54666
G1 X151.393 Y122.464 E8.56537
G1 X151.001 Y122.332 E8.58601
G1 X150.635 Y122.252 E8.6047
G1 X150.292 Y122.213 E8.62192
G1 X150.273 Y122.21 E8.62288
G1 X149.899 Y122.201 E8.64154
G1 X149.503 Y122.231 E8.66136
G1 X149.143 Y122.296 E8.67961
G1 X148.77 Y122.403 E8.69897
G1 X148.45 Y122.53 E8.71614
G1 X148.075 Y122.719 E8.73709
G1 X147.788 Y122.908 E8.75424
G1 X147.505 Y123.131 E8.77221
G1 X147.192 Y123.438 E8.79409
G1 X146.981 Y123.693 E8.8106
G1 X146.754 Y124.021 E8.8305
G1 X146.577 Y124.346 E8.84896
G1 X146.421 Y124.722 E8.86927
G1 X146.41 Y124.747 E8.87064
G1 X146.404 Y124.772 E8.87192
G1 X146.272 Y125.261 E8.89719
G1 X146.216 Y125.632 E8.91591
G1 X146.2 Y125.978 E8.93319
G1 X146.2 Y132.025 E9.23487
G1 X146.216 Y132.358 E9.25151
G1 X146.27 Y132.728 E9.27016
G1 X146.372 Y133.136 E9.29114
G1 X146.499 Y133.483 E9.30958
G1 X146.66 Y133.814 E9.32794
G1 X146.849 Y134.126 E9.34614
G1 X147.093 Y134.45 E9.36638
G1 X147.373 Y134.747 E9.38674
G1 X147.624 Y134.965 E9.40333
G1 X147.916 Y135.177 E9.42133
G1 X148.263 Y135.381 E9.44141
G1 X148.602 Y135.534 E9.45997
G1 X149 Y135.667 E9.4809
G1 X149.358 Y135.747 E9.4992
G1 X149.714 Y135.79 E9.51709
G1 X149.916 Y135.799 E9.52718
G1 X150.279 Y135.79 E9.5453
G0 F6000 X150.25 Y135.391
G1 F1200 X150.574 Y135.352 E9.56158
G1 X150.89 Y135.28 E9.57775
G1 X151.248 Y135.163 E9.59654
G1 X151.548 Y135.027 E9.61297
G1 X151.863 Y134.846 E9.63109
G1 X152.129 Y134.653 E9.64749
G1 X152.357 Y134.452 E9.66265
G1 X152.597 Y134.194 E9.68023
G1 X152.818 Y133.905 E9.69839
G1 X152.987 Y133.623 E9.71479
G1 X153.133 Y133.324 E9.73139
G1 X153.248 Y133.006 E9.74826
G1 X153.337 Y132.656 E9.76628
G1 X153.385 Y132.326 E9.78291
G1 X153.4 Y131.897 E9.80433
G1 X153.4 Y125.985 E10.09928
G1 X153.385 Y125.682 E10.11442
G1 X153.337 Y125.347 E10.1313
G1 X153.245 Y124.982 E10.15008
G1 X153.132 Y124.674 E10.16645
G1 X152.988 Y124.376 E10.18296
G1 X152.82 Y124.101 E10.19904
G1 X152.601 Y123.809 E10.21725
G1 X152.376 Y123.567 E10.23373
G1 X152.132 Y123.352 E10.24996
G1 X151.864 Y123.156 E10.26652
G1 X151.552 Y122.974 E10.28454
G1 X151.247 Y122.837 E10.30122
G1 X150.894 Y122.718 E10.31981
G1 X150.569 Y122.647 E10.3364
G1 X150.245 Y122.609 E10.35268
G1 X149.909 Y122.601 E10.36945
G1 X149.554 Y122.628 E10.38721
G1 X149.234 Y122.686 E10.40343
G1 X148.899 Y122.782 E10.42082
G1 X148.614 Y122.895 E10.43612
G1 X148.276 Y123.066 E10.45501
G1 X148.022 Y123.233 E10.47018
G1 X147.77 Y123.432 E10.4862
G1 X147.487 Y123.709 E10.50596
G1 X147.3 Y123.935 E10.52059
G1 X147.095 Y124.231 E10.53855
G1 X146.938 Y124.519 E10.55492
G1 X146.789 Y124.876 E10.57422
G1 X146.664 Y125.343 E10.59834
G1 X146.615 Y125.671 E10.61488
G1 X146.6 Y125.987 E10.63067
G1 X146.6 Y132.015 E10.9314
G1 X146.615 Y132.319 E10.94659
G1 X146.663 Y132.651 E10.96332
G1 X146.755 Y133.018 E10.9822
G1 X146.868 Y133.326 E10.99857
G1 X147.012 Y133.623 E11.01504
G1 X147.181 Y133.902 E11.03131
G1 X147.399 Y134.192 E11.04941
G1 X147.65 Y134.458 E11.06766
G1 X147.873 Y134.652 E11.0824
G1 X148.135 Y134.842 E11.09855
G1 X148.447 Y135.025 E11.11659
G1 X148.748 Y135.161 E11.13307
G1 X149.107 Y135.281 E11.15196
G1 X149.426 Y135.352 E11.16826
G1 X149.747 Y135.391 E11.1844
G1 X149.92 Y135.399 E11.19304
G1 X150.25 Y135.391 E11.2095
G0 F6000 X150.221 Y134.992
;TYPE:WALL-OUTER
G1 F1200 X150.505 Y134.957 E11.22378
G1 X150.784 Y134.894 E11.23805
G1 X151.103 Y134.79 E11.25479
G1 X151.365 Y134.671 E11.26915
G1 X151.645 Y134.51 E11.28526
G1 X151.879 Y134.34 E11.29969
G1 X152.078 Y134.165 E11.31291
G1 X152.291 Y133.936 E11.32851
G1 X152.486 Y133.68 E11.34457
G1 X152.635 Y133.432 E11.359
G1 X152.764 Y133.168 E11.37366
G1 X152.865 Y132.888 E11.38851
G1 X152.944 Y132.578 E11.40447
G1 X152.986 Y132.29 E11.41899
G1 X153 Y131.89 E11.43896
G1 X153 Y125.995 E11.73306
G1 X152.986 Y125.72 E11.7468
G1 X152.944 Y125.424 E11.76172
G1 X152.862 Y125.1 E11.77839
G1 X152.763 Y124.83 E11.79274
G1 X152.636 Y124.568 E11.80726
G1 X152.488 Y124.325 E11.82146
G1 X152.294 Y124.066 E11.8376
G1 X152.097 Y123.854 E11.85204
G1 X151.881 Y123.664 E11.86639
G1 X151.644 Y123.491 E11.88103
G1 X151.369 Y123.33 E11.89693
G1 X151.101 Y123.21 E11.91158
G1 X150.787 Y123.104 E11.92811
G1 X150.503 Y123.042 E11.94262
G1 X150.217 Y123.008 E11.95699
G1 X149.92 Y123.001 E11.97181
G1 X149.605 Y123.025 E11.98757
G1 X149.325 Y123.076 E12.00177
G1 X149.028 Y123.161 E12.01718
G1 X148.779 Y123.26 E12.03055
G1 X148.477 Y123.413 E12.04744
G1 X148.256 Y123.558 E12.06063
G1 X148.035 Y123.733 E12.07469
G1 X147.782 Y123.98 E12.09233
G1 X147.619 Y124.177 E12.10509
G1 X147.436 Y124.441 E12.12111
G1 X147.299 Y124.692 E12.13538
G1 X147.168 Y125.005 E12.15231
G1 X147.056 Y125.424 E12.17394
G1 X147.014 Y125.71 E12.18837
G1 X147 Y125.997 E12.2027
G1 X147 Y132.005 E12.50244
G1 X147.014 Y132.28 E12.51618
G1 X147.056 Y132.574 E12.531
G1 X147.138 Y132.9 E12.54777
G1 X147.237 Y133.17 E12.56211
G1 X147.364 Y133.432 E12.57664
G1 X147.513 Y133.678 E12.59099
G1 X147.705 Y133.934 E12.60695
G1 X147.927 Y134.169 E12.62308
G1 X148.122 Y134.339 E12.63599
G1 X148.354 Y134.507 E12.65028
G1 X148.631 Y134.669 E12.66629
G1 X148.894 Y134.788 E12.68069
G1 X149.214 Y134.895 E12.69752
G1 X149.494 Y134.957 E12.71183
G1 X149.781 Y134.992 E12.72626
G1 X149.925 Y134.999 E12.73345
G1 X150.221 Y134.992 E12.74822
G0 F6000 X150.253 Y135.43
G1 F2700 E7.74822
G0 F6000 X149.325 Y135.935
G0 X149.634 Y134.103
G0 X127.022 Y168.311
G0 X128.779 Y167.713
G0 X127.882 Y170.479
G0 X127.563 Y170.922
G0 X126.134 Y172.629
;TYPE:WALL-INNER
G1 F2700 E12.74822
G1 F1200 X126.479 Y172.502 E12.76656
G1 X126.816 Y172.34 E12.78522
G1 X127.157 Y172.131 E12.80517
G1 X127.452 Y171.907 E12.82365
G1 X127.721 Y171.654 E12.84207
G1 X127.959 Y171.384 E12.86003
G1 X128.176 Y171.087 E12.87838
G1 X128.381 Y170.737 E12.89862
G1 X128.532 Y170.405 E12.91681
G1 X128.667 Y170 E12.93811
G1 X128.747 Y169.641 E12.95646
G1 X128.787 Y169.295 E12.97384
G1 X128.79 Y169.277 E12.97475
G1 X128.799 Y168.901 E12.99351
G1 X128.77 Y168.508 E13.01317
G1 X128.704 Y168.141 E13.03178
G1 X128.598 Y167.775 E13.05079
G1 X128.468 Y167.446 E13.06844
G1 X128.296 Y167.106 E13.08745
G1 X128.099 Y166.8 E13.1056
G1 X127.847 Y166.48 E13.12592
G1 X127.561 Y166.192 E13.14617
G1 X127.305 Y165.979 E13.16279
G1 X126.981 Y165.755 E13.18244
G1 X126.654 Y165.577 E13.20101
G1 X126.278 Y165.421 E13.22132
G1 X126.253 Y165.41 E13.22269
G1 X126.228 Y165.404 E13.22397
G1 X125.739 Y165.272 E13.24924
G1 X125.368 Y165.216 E13.26796
G1 X125.001 Y165.2 E13.28628
G1 X124.639 Y165.216 E13.30436
G1 X124.27 Y165.27 E13.32297
G1 X123.864 Y165.372 E13.34385
G1 X123.517 Y165.499 E13.36229
G1 X123.186 Y165.66 E13.38065
G1 X122.874 Y165.849 E13.39885
G1 X122.55 Y166.091 E13.41903
G1 X122.279 Y166.346 E13.43759
G1 X122.041 Y166.616 E13.45555
G1 X121.823 Y166.916 E13.47405
G1 X121.619 Y167.263 E13.49413
G1 X121.468 Y167.595 E13.51233
G1 X121.333 Y167.997 E13.53348
G1 X121.253 Y168.36 E13.55203
G1 X121.213 Y168.704 E13.56931
G1 X121.21 Y168.723 E13.57027
G1 X121.201 Y169.099 E13.58903
G1 X121.23 Y169.492 E13.60869
G1 X121.296 Y169.86 E13.62734
G1 X121.401 Y170.221 E13.6461
