;FLAVOR:Marlin
;TIME:5441
;Filament used: 3.99566m
;Layer height: 0.2
;MINX:119.4
;MINY:118.4
;MINZ:0.3
;MAXX:180.6
;MAXY:182.465
;MAXZ:7.9
;Generated with Cura_SteamEngine 4.10.0
M140 S60
M105
M190 S60
M104 S210
M105
M109 S210
M82 ;absolute extrusion mode
M201 X500.00 Y500.00 Z100.00 E5000.00 ;Setup machine max acceleration
M203 X500.00 Y500.00 Z10.00 E50.00 ;Setup machine max feedrate
M204 P500.00 R1000.00 T500.00 ;Setup Print/Retract/Travel acceleration
M205 X8.00 Y8.00 Z0.40 E5.00 ;Setup Jerk
M220 S100 ;Reset Feedrate
M221 S100 ;Reset Flowrate

G28 ;Home

G92 E0 ;Reset Extruder
G1 Z2.0 F3000 ;Move Z Axis up
G1 X10.1 Y20 Z0.28 F5000.0 ;Move to start position
G1 X10.1 Y200.0 Z0.28 F1500.0 E15 ;Draw the first line
G1 X10.4 Y200.0 Z0.28 F5000.0 ;Move to side a little
G1 X10.4 Y20 Z0.28 F1500.0 E30 ;Draw the second line
G92 E0 ;Reset Extruder
G1 Z2.0 F3000 ;Move Z Axis up

G92 E0
G92 E0
G1 F2700 E-5
;LAYER_COUNT:40
;LAYER:0
M107
M204 S500
;MESH:CARRIAGE-PLATE-1.0.stl
G0 F6000 X174.577 Y179.925 Z0.3
;TYPE:WALL-INNER
G1 F2700 E0
G1 F1200 X174.597 Y179.929 E0.00102
G1 X174.992 Y179.952 E0.02076
G1 X175.391 Y179.932 E0.04069
G1 X175.779 Y179.874 E0.06026
G1 X176.156 Y179.778 E0.07967
G1 X176.514 Y179.649 E0.09865
G1 X176.885 Y179.474 E0.11912
G1 X177.227 Y179.265 E0.13912
G1 X177.534 Y179.031 E0.15837
G1 X177.822 Y178.767 E0.17787
G1 X178.078 Y178.472 E0.19735
G1 X178.316 Y178.15 E0.21733
G1 X178.513 Y177.806 E0.23711
G1 X178.675 Y177.451 E0.25657
G1 X178.803 Y177.073 E0.27648
G1 X178.882 Y176.718 E0.29463
G1 X178.887 Y176.7 E0.29556
G1 X178.938 Y176.307 E0.31533
G1 X178.949 Y175.896 E0.33584
G1 X178.921 Y175.52 E0.35466
G1 X178.854 Y175.123 E0.37474
G1 X178.751 Y174.759 E0.39361
G1 X178.606 Y174.384 E0.41367
G1 X178.425 Y174.029 E0.43355
G1 X178.213 Y173.7 E0.45308
G1 X177.972 Y173.397 E0.4724
G1 X177.688 Y173.109 E0.49257
G1 X177.389 Y172.854 E0.51218
G1 X177.072 Y172.636 E0.53137
G1 X176.724 Y172.445 E0.55118
G1 X176.362 Y172.291 E0.57081
G1 X175.976 Y172.171 E0.59097
G1 X175.589 Y172.094 E0.61066
G1 X175.211 Y172.055 E0.62962
G1 X174.808 Y172.053 E0.64972
G1 X174.425 Y172.092 E0.66893
G1 X174.031 Y172.17 E0.68897
G1 X173.659 Y172.284 E0.70838
G1 X173.293 Y172.435 E0.72813
G1 X172.946 Y172.623 E0.74782
G1 X172.62 Y172.847 E0.76756
G1 X172.312 Y173.104 E0.78757
G1 X172.042 Y173.382 E0.8069
G1 X171.795 Y173.69 E0.8266
G1 X171.584 Y174.016 E0.84597
G1 X171.401 Y174.368 E0.86577
G1 X171.257 Y174.734 E0.88539
G1 X171.15 Y175.116 E0.90518
G1 X171.08 Y175.505 E0.9249
G1 X171.051 Y175.898 E0.94456
G1 X171.061 Y176.292 E0.96422
G1 X171.107 Y176.686 E0.98401
G1 X171.197 Y177.07 E1.00369
G1 X171.32 Y177.438 E1.02305
G1 X171.481 Y177.796 E1.04263
G1 X171.677 Y178.137 E1.06225
G1 X171.91 Y178.461 E1.08216
G1 X172.175 Y178.763 E1.10221
G1 X172.467 Y179.033 E1.12205
G1 X172.764 Y179.257 E1.14061
G1 X173.114 Y179.472 E1.1611
G1 X173.132 Y179.48 E1.16208
G1 X173.469 Y179.643 E1.18076
G1 X173.831 Y179.774 E1.19997
G1 X174.209 Y179.869 E1.21941
G1 X174.227 Y179.871 E1.22032
G1 X174.577 Y179.925 E1.23798
G0 F6000 X174.639 Y179.531
G1 F1200 X174.993 Y179.551 E1.25567
G1 X175.351 Y179.533 E1.27356
G1 X175.7 Y179.481 E1.29116
G1 X176.039 Y179.395 E1.30861
G1 X176.36 Y179.279 E1.32564
G1 X176.695 Y179.121 E1.34412
G1 X177.001 Y178.934 E1.36201
G1 X177.277 Y178.724 E1.37931
G1 X177.535 Y178.487 E1.39679
G1 X177.766 Y178.222 E1.41433
G1 X177.98 Y177.931 E1.43235
G1 X178.157 Y177.623 E1.45007
G1 X178.303 Y177.304 E1.46757
G1 X178.417 Y176.965 E1.48542
G1 X178.493 Y176.63 E1.50256
G1 X178.539 Y176.276 E1.52036
G1 X178.549 Y175.905 E1.53888
G1 X178.524 Y175.569 E1.55569
G1 X178.463 Y175.211 E1.57381
G1 X178.371 Y174.886 E1.59066
G1 X178.24 Y174.547 E1.60879
G1 X178.078 Y174.229 E1.6266
G1 X177.887 Y173.933 E1.64417
G1 X177.672 Y173.662 E1.66143
G1 X177.416 Y173.402 E1.67963
G1 X177.145 Y173.172 E1.69737
G1 X176.862 Y172.977 E1.71451
G1 X176.549 Y172.805 E1.73233
G1 X176.224 Y172.667 E1.74995
G1 X175.877 Y172.559 E1.76808
G1 X175.529 Y172.49 E1.78578
G1 X175.189 Y172.455 E1.80283
G1 X174.827 Y172.453 E1.82089
G1 X174.484 Y172.488 E1.83809
G1 X174.129 Y172.558 E1.85614
G1 X173.794 Y172.661 E1.87363
G1 X173.465 Y172.797 E1.89139
G1 X173.155 Y172.965 E1.90898
G1 X172.862 Y173.166 E1.92671
G1 X172.584 Y173.398 E1.94477
G1 X172.342 Y173.647 E1.9621
G1 X172.12 Y173.924 E1.97981
G1 X171.93 Y174.217 E1.99723
G1 X171.766 Y174.534 E2.01503
G1 X171.637 Y174.862 E2.03262
G1 X171.54 Y175.206 E2.05045
G1 X171.477 Y175.555 E2.06814
G1 X171.451 Y175.908 E2.0858
G1 X171.46 Y176.263 E2.10352
G1 X171.502 Y176.617 E2.1213
G1 X171.582 Y176.961 E2.13892
G1 X171.693 Y177.292 E2.15634
G1 X171.838 Y177.614 E2.17396
G1 X172.014 Y177.92 E2.19157
G1 X172.223 Y178.212 E2.20949
G1 X172.462 Y178.483 E2.22751
G1 X172.724 Y178.726 E2.24534
G1 X172.99 Y178.926 E2.26194
G1 X173.306 Y179.121 E2.28047
G1 X173.624 Y179.274 E2.29808
G1 X173.948 Y179.391 E2.31526
G1 X174.289 Y179.477 E2.33281
G1 X174.639 Y179.531 E2.35048
G0 F6000 X174.68 Y179.133
;TYPE:WALL-OUTER
G1 F1200 X174.994 Y179.15 E2.36616
G1 X175.311 Y179.134 E2.382
G1 X175.621 Y179.088 E2.39763
G1 X175.922 Y179.012 E2.41312
G1 X176.206 Y178.909 E2.42819
G1 X176.505 Y178.768 E2.44469
G1 X176.775 Y178.603 E2.46047
G1 X177.02 Y178.417 E2.47582
G1 X177.248 Y178.207 E2.49128
G1 X177.454 Y177.972 E2.50688
G1 X177.644 Y177.712 E2.52294
G1 X177.801 Y177.44 E2.53861
G1 X177.93 Y177.157 E2.55413
G1 X178.031 Y176.856 E2.56997
G1 X178.099 Y176.559 E2.58517
G1 X178.14 Y176.245 E2.60097
G1 X178.149 Y175.914 E2.61749
G1 X178.127 Y175.618 E2.63229
G1 X178.072 Y175.3 E2.64839
G1 X177.991 Y175.013 E2.66327
G1 X177.874 Y174.71 E2.67948
G1 X177.731 Y174.429 E2.69521
G1 X177.561 Y174.166 E2.71083
G1 X177.372 Y173.927 E2.72603
G1 X177.144 Y173.695 E2.74226
G1 X176.902 Y173.49 E2.75808
G1 X176.652 Y173.318 E2.77322
G1 X176.374 Y173.165 E2.78905
G1 X176.086 Y173.043 E2.80466
G1 X175.778 Y172.947 E2.82075
G1 X175.47 Y172.886 E2.83642
G1 X175.167 Y172.855 E2.85161
G1 X174.846 Y172.853 E2.86763
G1 X174.543 Y172.884 E2.88282
G1 X174.227 Y172.946 E2.89889
G1 X173.93 Y173.038 E2.9144
G1 X173.637 Y173.159 E2.93022
G1 X173.364 Y173.307 E2.94571
G1 X173.104 Y173.485 E2.96143
G1 X172.856 Y173.692 E2.97755
G1 X172.642 Y173.912 E2.99286
G1 X172.445 Y174.159 E3.00862
G1 X172.276 Y174.418 E3.02405
G1 X172.131 Y174.7 E3.03987
G1 X172.016 Y174.99 E3.05543
G1 X171.93 Y175.296 E3.07129
G1 X171.874 Y175.605 E3.08696
G1 X171.851 Y175.918 E3.10262
G1 X171.859 Y176.234 E3.11839
G1 X171.897 Y176.548 E3.13417
G1 X171.967 Y176.852 E3.14973
G1 X172.066 Y177.146 E3.16521
G1 X172.195 Y177.432 E3.18086
G1 X172.351 Y177.704 E3.1965
G1 X172.536 Y177.963 E3.21238
G1 X172.748 Y178.203 E3.22836
G1 X172.981 Y178.418 E3.24418
G1 X173.216 Y178.595 E3.25885
G1 X173.499 Y178.77 E3.27546
G1 X173.779 Y178.905 E3.29096
G1 X174.065 Y179.008 E3.30613
G1 X174.369 Y179.085 E3.32177
G1 X174.68 Y179.133 E3.33747
G0 F6000 X174.635 Y179.57
G1 F2700 E-1.66253
G0 F6000 X173.081 Y178.793
G0 X172.348 Y178.112
G0 X171.843 Y177.233
G0 X171.62 Y176.251
G0 X171.689 Y175.344
G0 X172.505 Y172.694
G0 X173.617 Y174.181
G0 X151.657 Y126.535
G0 X151.657 Y128.37
G0 X154.426 Y127.981
;TYPE:WALL-INNER
G1 F2700 E3.33747
G1 F1200 X154.8 Y127.237 E3.37902
G1 X154.8 Y120.84 E3.69817
G1 X154.581 Y120.174 E3.73314
G1 X153.837 Y119.8 E3.77469
G1 X146.24 Y119.8 E4.1537
G1 X145.574 Y120.019 E4.18868
G1 X145.2 Y120.763 E4.23022
G1 X145.2 Y127.16 E4.54937
G1 X145.419 Y127.826 E4.58435
G1 X146.163 Y128.2 E4.62589
G1 X153.76 Y128.2 E5.00491
G1 X154.426 Y127.981 E5.03989
G0 F6000 X154.143 Y127.653
G1 F1200 X154.4 Y127.142 E5.06842
G1 X154.4 Y120.904 E5.37964
G1 X154.253 Y120.457 E5.40311
G1 X153.742 Y120.2 E5.43165
G1 X146.304 Y120.2 E5.80273
G1 X145.857 Y120.347 E5.82621
G1 X145.6 Y120.858 E5.85475
G1 X145.6 Y127.096 E6.16596
G1 X145.747 Y127.543 E6.18944
G1 X146.258 Y127.8 E6.21797
G1 X153.696 Y127.8 E6.58906
G1 X154.143 Y127.653 E6.61253
G0 F6000 X153.86 Y127.325
;TYPE:WALL-OUTER
G1 F1200 X154 Y127.047 E6.62806
G1 X154 Y120.968 E6.93134
G1 X153.925 Y120.74 E6.94332
G1 X153.647 Y120.6 E6.95885
G1 X146.368 Y120.6 E7.322
G1 X146.14 Y120.675 E7.33397
G1 X146 Y120.953 E7.3495
G1 X146 Y127.032 E7.65279
G1 X146.075 Y127.26 E7.66476
G1 X146.353 Y127.4 E7.68029
G1 X153.632 Y127.4 E8.04344
G1 X153.86 Y127.325 E8.05541
G0 F6000 X154.147 Y127.658
G1 F2700 E3.05541
G0 F6000 X150.104 Y128.39
G0 X150.073 Y129.636
G0 X150.924 Y129.739
G0 X151.843 Y130.155
G0 X152.598 Y130.823
G0 X153.128 Y131.696
G0 X153.372 Y132.665
G0 X153.351 Y139.505
G0 X153.051 Y140.478
G0 X152.478 Y141.31
G0 X151.84 Y141.819
G0 X150.104 Y142.949
;TYPE:WALL-INNER
G1 F2700 E8.05541
G1 F1200 X150.48 Y142.921 E8.07422
G1 X150.878 Y142.853 E8.09437
G1 X151.248 Y142.748 E8.11356
G1 X151.616 Y142.606 E8.13324
G1 X151.971 Y142.425 E8.15312
G1 X152.3 Y142.213 E8.17264
G1 X152.603 Y141.972 E8.19196
G1 X152.888 Y141.693 E8.21186
G1 X153.146 Y141.39 E8.23171
G1 X153.368 Y141.067 E8.25126
G1 X153.557 Y140.722 E8.27089
G1 X153.709 Y140.362 E8.29039
G1 X153.829 Y139.976 E8.31055
G1 X153.906 Y139.588 E8.33029
G1 X153.947 Y139.189 E8.3503
G1 X153.95 Y138.895 E8.36497
G1 X153.95 Y132.97 E8.66057
G1 X153.93 Y132.609 E8.6786
G1 X153.874 Y132.221 E8.69816
G1 X153.776 Y131.837 E8.71793
G1 X153.647 Y131.48 E8.73687
G1 X153.472 Y131.113 E8.75716
G1 X153.265 Y130.773 E8.77702
G1 X153.029 Y130.462 E8.79649
G1 X152.758 Y130.171 E8.81633
G1 X152.473 Y129.92 E8.83528
G1 X152.15 Y129.684 E8.85524
G1 X151.809 Y129.488 E8.87486
G1 X151.446 Y129.323 E8.89475
G1 X151.077 Y129.2 E8.91416
G1 X150.691 Y129.111 E8.93392
G1 X150.299 Y129.062 E8.95363
G1 X149.893 Y129.051 E8.97389
G1 X149.514 Y129.08 E8.99286
G1 X149.135 Y129.144 E9.01203
G1 X148.748 Y129.252 E9.03208
G1 X148.375 Y129.399 E9.05208
G1 X148.032 Y129.573 E9.07127
G1 X147.697 Y129.79 E9.09118
G1 X147.383 Y130.039 E9.11117
G1 X147.121 Y130.298 E9.12955
G1 X146.851 Y130.614 E9.15029
G1 X146.632 Y130.933 E9.16959
G1 X146.443 Y131.278 E9.18922
G1 X146.291 Y131.638 E9.20872
G1 X146.171 Y132.024 E9.22888
G1 X146.094 Y132.412 E9.24862
G1 X146.057 Y132.779 E9.26702
G1 X146.05 Y132.981 E9.2771
G1 X146.05 Y139.03 E9.57889
G1 X146.07 Y139.391 E9.59693
G1 X146.126 Y139.778 E9.61644
G1 X146.221 Y140.151 E9.63564
G1 X146.355 Y140.526 E9.65551
G1 X146.528 Y140.887 E9.67548
G1 X146.723 Y141.206 E9.69413
G1 X146.964 Y141.53 E9.71428
G1 X147.244 Y141.832 E9.73482
G1 X147.528 Y142.078 E9.75357
G1 X147.847 Y142.313 E9.77334
G1 X148.194 Y142.513 E9.79332
G1 X148.549 Y142.676 E9.81281
G1 X148.927 Y142.802 E9.83269
G1 X149.305 Y142.888 E9.85203
G1 X149.693 Y142.938 E9.87154
G1 X150.104 Y142.949 E9.89206
G0 F6000 X150.095 Y142.549
G1 F1200 X150.431 Y142.524 E9.90886
G1 X150.789 Y142.462 E9.92699
G1 X151.121 Y142.368 E9.94421
G1 X151.453 Y142.24 E9.96196
G1 X151.771 Y142.078 E9.97976
G1 X152.067 Y141.887 E9.99734
G1 X152.338 Y141.672 E10.0146
G1 X152.595 Y141.42 E10.03255
G1 X152.828 Y141.146 E10.0505
G1 X153.027 Y140.857 E10.068
G1 X153.196 Y140.548 E10.08557
G1 X153.333 Y140.224 E10.10313
G1 X153.441 Y139.877 E10.12126
G1 X153.51 Y139.529 E10.13896
G1 X153.547 Y139.166 E10.15716
G1 X153.55 Y138.893 E10.17078
G1 X153.55 Y132.981 E10.46573
G1 X153.532 Y132.649 E10.48232
G1 X153.481 Y132.3 E10.49992
G1 X153.393 Y131.955 E10.51768
G1 X153.277 Y131.634 E10.53471
G1 X153.12 Y131.304 E10.55294
G1 X152.934 Y130.999 E10.57076
G1 X152.722 Y130.72 E10.58824
G1 X152.479 Y130.458 E10.60607
G1 X152.222 Y130.232 E10.62315
G1 X151.932 Y130.02 E10.64107
G1 X151.626 Y129.844 E10.65868
G1 X151.3 Y129.696 E10.67654
G1 X150.968 Y129.585 E10.69401
G1 X150.621 Y129.505 E10.71177
G1 X150.269 Y129.461 E10.72947
G1 X149.903 Y129.451 E10.74774
G1 X149.563 Y129.477 E10.76475
G1 X149.223 Y129.535 E10.78196
G1 X148.875 Y129.632 E10.79998
G1 X148.539 Y129.764 E10.81799
G1 X148.232 Y129.92 E10.83517
G1 X147.931 Y130.115 E10.85306
G1 X147.649 Y130.339 E10.87103
G1 X147.414 Y130.571 E10.88751
G1 X147.169 Y130.858 E10.90633
G1 X146.973 Y131.143 E10.92359
G1 X146.804 Y131.452 E10.94116
G1 X146.667 Y131.776 E10.95871
G1 X146.559 Y132.123 E10.97684
G1 X146.49 Y132.471 E10.99454
G1 X146.456 Y132.806 E11.01134
G1 X146.45 Y132.988 E11.02043
G1 X146.45 Y139.019 E11.32131
G1 X146.468 Y139.351 E11.3379
G1 X146.519 Y139.7 E11.3555
G1 X146.604 Y140.034 E11.37269
G1 X146.725 Y140.372 E11.3906
G1 X146.88 Y140.696 E11.40852
G1 X147.055 Y140.982 E11.42525
G1 X147.272 Y141.274 E11.4434
G1 X147.523 Y141.544 E11.46179
G1 X147.778 Y141.766 E11.47866
G1 X148.066 Y141.978 E11.4965
G1 X148.377 Y142.157 E11.5144
G1 X148.696 Y142.303 E11.53191
G1 X149.035 Y142.416 E11.54973
G1 X149.375 Y142.494 E11.56714
G1 X149.724 Y142.539 E11.58469
G1 X150.095 Y142.549 E11.60321
G0 F6000 X150.086 Y142.149
;TYPE:WALL-OUTER
G1 F1200 X150.382 Y142.127 E11.61802
G1 X150.7 Y142.072 E11.63412
G1 X150.994 Y141.988 E11.64937
G1 X151.29 Y141.874 E11.6652
G1 X151.571 Y141.731 E11.68093
G1 X151.834 Y141.561 E11.69655
G1 X152.073 Y141.372 E11.71175
G1 X152.302 Y141.147 E11.72777
G1 X152.51 Y140.902 E11.7438
G1 X152.686 Y140.647 E11.75926
G1 X152.835 Y140.374 E11.77478
G1 X152.957 Y140.086 E11.79038
G1 X153.053 Y139.778 E11.80648
G1 X153.114 Y139.47 E11.82214
G1 X153.145 Y139.166 E11.83739
G1 X153.147 Y139.145 E11.83844
G1 X153.15 Y138.891 E11.85111
G1 X153.15 Y132.992 E12.14541
G1 X153.134 Y132.689 E12.16055
G1 X153.088 Y132.379 E12.17619
G1 X153.01 Y132.073 E12.19194
G1 X152.907 Y131.788 E12.20706
G1 X152.768 Y131.495 E12.22324
G1 X152.603 Y131.225 E12.23903
G1 X152.415 Y130.977 E12.25455
G1 X152.2 Y130.745 E12.27033
G1 X151.972 Y130.545 E12.28546
G1 X151.713 Y130.356 E12.30146
G1 X151.443 Y130.2 E12.31702
G1 X151.153 Y130.069 E12.33289
G1 X150.859 Y129.97 E12.34837
G1 X150.551 Y129.899 E12.36414
G1 X150.239 Y129.86 E12.37983
G1 X149.913 Y129.851 E12.3961
G1 X149.612 Y129.874 E12.41116
G1 X149.311 Y129.926 E12.4264
G1 X149.002 Y130.012 E12.4424
G1 X148.703 Y130.129 E12.45842
G1 X148.432 Y130.267 E12.47359
G1 X148.165 Y130.44 E12.48946
G1 X147.915 Y130.639 E12.5054
G1 X147.707 Y130.844 E12.51997
G1 X147.487 Y131.102 E12.53689
G1 X147.314 Y131.353 E12.5521
G1 X147.165 Y131.626 E12.56762
G1 X147.043 Y131.914 E12.58322
G1 X146.947 Y132.222 E12.59932
G1 X146.886 Y132.53 E12.61498
G1 X146.855 Y132.833 E12.63018
G1 X146.85 Y132.994 E12.63821
G1 X146.85 Y139.008 E12.93825
G1 X146.866 Y139.311 E12.95339
G1 X146.912 Y139.621 E12.96902
G1 X146.987 Y139.917 E12.98426
G1 X147.095 Y140.218 E13.00021
G1 X147.232 Y140.505 E13.01608
G1 X147.387 Y140.758 E13.03088
G1 X147.58 Y141.018 E13.04704
G1 X147.802 Y141.256 E13.06327
G1 X148.028 Y141.454 E13.07826
G1 X148.285 Y141.642 E13.09415
G1 X148.56 Y141.801 E13.11
G1 X148.843 Y141.93 E13.12552
G1 X149.144 Y142.031 E13.14135
G1 X149.445 Y142.1 E13.15676
G1 X149.755 Y142.14 E13.17236
G1 X150.086 Y142.149 E13.18888
G0 F6000 X150.096 Y142.588
G1 F2700 E8.18888
G0 F6000 X149.271 Y143.076
G0 X149.492 Y141.227
G0 X127.037 Y174.964
G0 X128.78 Y174.306
G0 X128.262 Y176.92
G0 X127.848 Y177.838
G0 X127.301 Y178.457
G0 X125.779 Y179.874
;TYPE:WALL-INNER
G1 F2700 E13.18888
G1 F1200 X126.163 Y179.776 E13.20865
G1 X126.514 Y179.649 E13.22727
G1 X126.885 Y179.473 E13.24776
G1 X127.225 Y179.265 E13.26764
G1 X127.532 Y179.034 E13.28681
G1 X127.825 Y178.762 E13.30675
G1 X128.089 Y178.463 E13.32665
G1 X128.32 Y178.142 E13.34638
G1 X128.513 Y177.806 E13.36572
G1 X128.675 Y177.451 E13.38518
G1 X128.803 Y177.073 E13.40509
G1 X128.882 Y176.718 E13.42324
G1 X128.887 Y176.7 E13.42417
G1 X128.938 Y176.307 E13.44394
G1 X128.949 Y175.898 E13.46435
G1 X128.922 Y175.521 E13.48321
G1 X128.854 Y175.123 E13.50336
G1 X128.751 Y174.759 E13.52223
G1 X128.606 Y174.384 E13.54229
G1 X128.425 Y174.029 E13.56217
G1 X128.213 Y173.7 E13.58169
G1 X127.972 Y173.397 E13.60101
G1 X127.688 Y173.109 E13.62119
G1 X127.389 Y172.854 E13.64079
G1 X127.072 Y172.636 E13.65999
G1 X126.724 Y172.445 E13.67979
G1 X126.362 Y172.291 E13.69942
G1 X125.976 Y172.171 E13.71959
G1 X125.589 Y172.094 E13.73927
G1 X125.211 Y172.055 E13.75823
G1 X124.808 Y172.053 E13.77834
G1 X124.425 Y172.092 E13.79754
G1 X124.031 Y172.17 E13.81758
G1 X123.659 Y172.284 E13.83699
