;FLAVOR:Marlin
;TIME:4046
;Filament used: 2.59237m
;Layer height: 0.2
;MINX:123.9
;MINY:135.4
;MINZ:0.3
;MAXX:176.1
;MAXY:164.6
;MAXZ:9.9
;Generated with Cura_SteamEngine 4.10.0
M140 S60
M105
M190 S60
M104 S210
M105
M109 S210
M82 ;absolute extrusion mode
M201 X500.00 Y500.00 Z100.00 E5000.00 ;Setup machine max acceleration
M203 X500.00 Y500.00 Z10.00 E50.00 ;Setup machine max feedrate
M204 P500.00 R1000.00 T500.00 ;Setup Print/Retract/Travel acceleration
M205 X8.00 Y8.00 Z0.40 E5.00 ;Setup Jerk
M220 S100 ;Reset Feedrate
M221 S100 ;Reset Flowrate

G28 ;Home

G92 E0 ;Reset Extruder
G1 Z2.0 F3000 ;Move Z Axis up
G1 X10.1 Y20 Z0.28 F5000.0 ;Move to start position
G1 X10.1 Y200.0 Z0.28 F1500.0 E15 ;Draw the first line
G1 X10.4 Y200.0 Z0.28 F5000.0 ;Move to side a little
G1 X10.4 Y20 Z0.28 F1500.0 E30 ;Draw the second line
G92 E0 ;Reset Extruder
G1 Z2.0 F3000 ;Move Z Axis up

G92 E0
G92 E0
G1 F2700 E-5
;LAYER_COUNT:50
;LAYER:0
M107
M204 S500
;MESH:CLAMP-FRONT-1.0.stl
G0 F6000 X128.749 Y163.444 Z0.3
;TYPE:WALL-INNER
G1 F2700 E0
G1 F1200 X129.078 Y163.402 E0.01655
G1 X129.102 Y163.398 E0.01776
G1 X129.436 Y163.321 E0.03486
G1 X129.758 Y163.214 E0.05179
G1 X130.071 Y163.072 E0.06894
G1 X130.363 Y162.904 E0.08574
G1 X130.647 Y162.702 E0.10313
G1 X130.905 Y162.475 E0.12028
G1 X131.137 Y162.226 E0.13726
G1 X131.347 Y161.948 E0.15464
G1 X131.356 Y161.932 E0.15555
G1 X131.528 Y161.655 E0.17182
G1 X131.679 Y161.345 E0.18902
G1 X131.796 Y161.026 E0.20597
G1 X131.88 Y160.693 E0.22311
G1 X131.934 Y160.351 E0.24038
G1 X131.949 Y160.01 E0.25741
G1 X131.935 Y159.664 E0.27469
G1 X131.884 Y159.326 E0.29174
G1 X131.8 Y158.986 E0.30921
G1 X131.681 Y158.665 E0.32629
G1 X131.535 Y158.359 E0.34321
G1 X131.35 Y158.055 E0.36096
G1 X131.147 Y157.786 E0.37778
G1 X130.918 Y157.538 E0.39462
G1 X130.669 Y157.318 E0.41119
G1 X130.382 Y157.108 E0.42894
G1 X130.072 Y156.928 E0.44682
G1 X129.757 Y156.786 E0.46406
G1 X129.436 Y156.678 E0.48096
G1 X129.109 Y156.604 E0.49768
G1 X128.769 Y156.56 E0.51479
G1 X128.413 Y156.551 E0.53255
G1 X128.084 Y156.573 E0.549
G1 X127.749 Y156.631 E0.56597
G1 X127.399 Y156.728 E0.58409
G1 X127.088 Y156.851 E0.60077
G1 X126.782 Y157.008 E0.61793
G1 X126.503 Y157.186 E0.63444
G1 X126.237 Y157.396 E0.65135
G1 X125.974 Y157.649 E0.66955
G1 X125.752 Y157.91 E0.68665
G1 X125.559 Y158.193 E0.70374
G1 X125.389 Y158.508 E0.7216
G1 X125.254 Y158.827 E0.73888
G1 X125.157 Y159.146 E0.75551
G1 X125.098 Y159.43 E0.76998
G1 X125.088 Y159.481 E0.77258
G1 X125.053 Y159.828 E0.78998
G1 X125.053 Y160.172 E0.80714
G1 X125.088 Y160.518 E0.82449
G1 X125.098 Y160.572 E0.82723
G1 X125.156 Y160.855 E0.84164
G1 X125.255 Y161.174 E0.85831
G1 X125.383 Y161.476 E0.87467
G1 X125.551 Y161.791 E0.89248
G1 X125.739 Y162.072 E0.90935
G1 X125.96 Y162.334 E0.92645
G1 X126.215 Y162.587 E0.94437
G1 X126.484 Y162.802 E0.96155
G1 X126.761 Y162.98 E0.97798
G1 X127.072 Y163.143 E0.99549
G1 X127.39 Y163.267 E1.01252
G1 X127.716 Y163.361 E1.02945
G1 X127.942 Y163.402 E1.04091
G1 X128.064 Y163.423 E1.04708
G1 X128.408 Y163.449 E1.0643
G1 X128.749 Y163.444 E1.08131
G0 F6000 X128.72 Y163.044
G1 F1200 X129.032 Y163.004 E1.097
G1 X129.328 Y162.936 E1.11216
G1 X129.612 Y162.841 E1.1271
G1 X129.888 Y162.716 E1.14221
G1 X130.147 Y162.567 E1.15712
G1 X130.398 Y162.388 E1.1725
G1 X130.626 Y162.188 E1.18763
G1 X130.83 Y161.968 E1.2026
G1 X131.017 Y161.722 E1.21802
G1 X131.177 Y161.462 E1.23325
G1 X131.31 Y161.188 E1.24844
G1 X131.413 Y160.907 E1.26337
G1 X131.488 Y160.613 E1.27851
G1 X131.535 Y160.311 E1.29376
G1 X131.549 Y160.009 E1.30884
G1 X131.536 Y159.702 E1.32417
G1 X131.491 Y159.404 E1.33921
G1 X131.417 Y159.104 E1.35462
G1 X131.312 Y158.821 E1.36968
G1 X131.183 Y158.549 E1.3847
G1 X131.019 Y158.28 E1.40042
G1 X130.84 Y158.043 E1.41524
G1 X130.638 Y157.824 E1.4301
G1 X130.418 Y157.63 E1.44474
G1 X130.163 Y157.443 E1.46051
G1 X129.889 Y157.284 E1.47632
G1 X129.611 Y157.159 E1.49152
G1 X129.328 Y157.064 E1.50642
G1 X129.039 Y156.998 E1.52121
G1 X128.738 Y156.959 E1.53635
G1 X128.422 Y156.951 E1.55212
G1 X128.132 Y156.971 E1.56662
G1 X127.837 Y157.022 E1.58156
G1 X127.526 Y157.108 E1.59766
G1 X127.253 Y157.216 E1.6123
G1 X126.981 Y157.355 E1.62754
G1 X126.735 Y157.512 E1.6421
G1 X126.5 Y157.698 E1.65705
G1 X126.266 Y157.923 E1.67325
G1 X126.071 Y158.153 E1.68829
G1 X125.901 Y158.402 E1.70333
G1 X125.75 Y158.681 E1.71916
G1 X125.631 Y158.963 E1.73443
G1 X125.545 Y159.245 E1.74914
G1 X125.484 Y159.542 E1.76427
G1 X125.453 Y159.848 E1.77961
G1 X125.453 Y160.152 E1.79478
G1 X125.484 Y160.458 E1.81012
G1 X125.544 Y160.756 E1.82529
G1 X125.631 Y161.037 E1.83996
G1 X125.744 Y161.304 E1.85443
G1 X125.894 Y161.585 E1.87032
G1 X126.059 Y161.831 E1.8851
G1 X126.254 Y162.062 E1.90018
G1 X126.482 Y162.288 E1.9162
G1 X126.718 Y162.477 E1.93128
G1 X126.962 Y162.634 E1.94576
G1 X127.238 Y162.778 E1.96129
G1 X127.519 Y162.888 E1.97634
G1 X127.807 Y162.971 E1.9913
G1 X128.114 Y163.026 E2.00686
G1 X128.42 Y163.049 E2.02217
G1 X128.72 Y163.044 E2.03713
G0 F6000 X128.691 Y162.644
;TYPE:WALL-OUTER
G1 F1200 X128.962 Y162.61 E2.05076
G1 X129.219 Y162.551 E2.06392
G1 X129.465 Y162.468 E2.07687
G1 X129.706 Y162.359 E2.09007
G1 X129.931 Y162.23 E2.103
G1 X130.149 Y162.074 E2.11638
G1 X130.347 Y161.901 E2.1295
G1 X130.523 Y161.711 E2.14242
G1 X130.687 Y161.495 E2.15595
G1 X130.826 Y161.27 E2.16914
G1 X130.941 Y161.031 E2.18237
G1 X131.031 Y160.788 E2.1953
G1 X131.096 Y160.533 E2.20843
G1 X131.136 Y160.271 E2.22165
G1 X131.149 Y160.008 E2.23479
G1 X131.137 Y159.741 E2.24813
G1 X131.098 Y159.482 E2.26119
G1 X131.034 Y159.222 E2.27455
G1 X130.943 Y158.976 E2.28764
G1 X130.831 Y158.739 E2.30072
G1 X130.688 Y158.505 E2.3144
G1 X130.533 Y158.3 E2.32722
G1 X130.358 Y158.11 E2.34011
G1 X130.167 Y157.942 E2.3528
G1 X129.944 Y157.778 E2.36661
G1 X129.706 Y157.64 E2.38033
G1 X129.465 Y157.532 E2.39351
G1 X129.219 Y157.449 E2.40646
G1 X128.969 Y157.392 E2.41925
G1 X128.707 Y157.358 E2.43243
G1 X128.431 Y157.351 E2.44621
G1 X128.18 Y157.369 E2.45876
G1 X127.924 Y157.413 E2.47172
G1 X127.653 Y157.488 E2.48575
G1 X127.418 Y157.581 E2.49836
G1 X127.18 Y157.702 E2.51168
G1 X126.968 Y157.838 E2.52425
G1 X126.763 Y158 E2.53728
G1 X126.558 Y158.197 E2.55147
G1 X126.39 Y158.396 E2.56446
G1 X126.243 Y158.611 E2.57745
G1 X126.111 Y158.854 E2.59125
G1 X126.008 Y159.099 E2.60451
G1 X125.933 Y159.344 E2.61729
G1 X125.88 Y159.603 E2.63048
G1 X125.853 Y159.868 E2.64377
G1 X125.853 Y160.132 E2.65694
G1 X125.88 Y160.398 E2.67028
G1 X125.932 Y160.657 E2.68346
G1 X126.007 Y160.9 E2.69615
G1 X126.105 Y161.132 E2.70871
G1 X126.237 Y161.379 E2.72268
G1 X126.379 Y161.59 E2.73537
G1 X126.548 Y161.791 E2.74847
G1 X126.748 Y161.989 E2.76251
G1 X126.952 Y162.152 E2.77554
G1 X127.163 Y162.288 E2.78807
G1 X127.404 Y162.413 E2.80161
G1 X127.648 Y162.509 E2.81469
G1 X127.898 Y162.581 E2.82767
G1 X128.165 Y162.629 E2.84121
G1 X128.431 Y162.649 E2.85451
G1 X128.691 Y162.644 E2.86749
G0 F6000 X128.722 Y163.082
G1 F2700 E-2.13251
G0 F6000 X130.06 Y162.432
G0 X130.706 Y161.865
G0 X131.161 Y161.124
G0 X131.374 Y160.295
G0 X131.333 Y159.436
G0 X131.042 Y158.625
G0 X130.525 Y157.939
G0 X128.409 Y156.38
G0 X124.991 Y159.103
G0 X124.907 Y159.342
G0 X124.907 Y140.659
G0 X126.683 Y142.322
G0 X128.749 Y143.444
;TYPE:WALL-INNER
G1 F2700 E2.86749
G1 F1200 X129.102 Y143.398 E2.88525
G1 X129.436 Y143.321 E2.90235
G1 X129.758 Y143.214 E2.91928
G1 X130.071 Y143.072 E2.93642
G1 X130.363 Y142.904 E2.95323
G1 X130.647 Y142.702 E2.97062
G1 X130.905 Y142.475 E2.98776
G1 X131.137 Y142.226 E3.00474
G1 X131.347 Y141.948 E3.02212
G1 X131.356 Y141.932 E3.02304
G1 X131.528 Y141.655 E3.03931
G1 X131.679 Y141.345 E3.05651
G1 X131.796 Y141.026 E3.07346
G1 X131.88 Y140.693 E3.0906
G1 X131.934 Y140.351 E3.10787
G1 X131.949 Y140.01 E3.1249
G1 X131.935 Y139.664 E3.14218
G1 X131.884 Y139.326 E3.15923
G1 X131.8 Y138.986 E3.1767
G1 X131.681 Y138.665 E3.19378
G1 X131.535 Y138.359 E3.2107
G1 X131.35 Y138.055 E3.22845
G1 X131.147 Y137.786 E3.24526
G1 X130.918 Y137.538 E3.2621
G1 X130.669 Y137.318 E3.27868
G1 X130.382 Y137.108 E3.29642
G1 X130.072 Y136.928 E3.31431
G1 X129.757 Y136.786 E3.33155
G1 X129.436 Y136.678 E3.34844
G1 X129.109 Y136.604 E3.36517
G1 X129.069 Y136.598 E3.36719
G1 X128.769 Y136.56 E3.38227
G1 X128.413 Y136.551 E3.40004
G1 X128.084 Y136.573 E3.41649
G1 X127.935 Y136.598 E3.42403
G1 X127.749 Y136.631 E3.43345
G1 X127.399 Y136.728 E3.45157
G1 X127.088 Y136.851 E3.46826
G1 X126.782 Y137.008 E3.48542
G1 X126.503 Y137.186 E3.50193
G1 X126.237 Y137.396 E3.51884
G1 X125.974 Y137.649 E3.53704
G1 X125.752 Y137.91 E3.55414
G1 X125.559 Y138.193 E3.57123
G1 X125.389 Y138.508 E3.58908
G1 X125.254 Y138.827 E3.60637
G1 X125.157 Y139.146 E3.623
G1 X125.098 Y139.43 E3.63747
G1 X125.088 Y139.481 E3.64007
G1 X125.053 Y139.828 E3.65746
G1 X125.053 Y140.172 E3.67463
G1 X125.088 Y140.518 E3.69198
G1 X125.098 Y140.572 E3.69472
G1 X125.156 Y140.855 E3.70913
G1 X125.255 Y141.174 E3.72579
G1 X125.383 Y141.476 E3.74216
G1 X125.551 Y141.791 E3.75997
G1 X125.739 Y142.072 E3.77684
G1 X125.96 Y142.334 E3.79394
G1 X126.215 Y142.587 E3.81186
G1 X126.484 Y142.802 E3.82904
G1 X126.761 Y142.98 E3.84546
G1 X127.072 Y143.143 E3.86298
G1 X127.39 Y143.267 E3.88001
G1 X127.716 Y143.361 E3.89694
G1 X128.064 Y143.423 E3.91457
G1 X128.408 Y143.449 E3.93178
G1 X128.749 Y143.444 E3.9488
G0 F6000 X128.72 Y143.044
G1 F1200 X129.032 Y143.004 E3.96449
G1 X129.328 Y142.936 E3.97964
G1 X129.612 Y142.841 E3.99458
G1 X129.888 Y142.716 E4.0097
G1 X130.147 Y142.567 E4.02461
G1 X130.398 Y142.388 E4.03999
G1 X130.626 Y142.188 E4.05512
G1 X130.83 Y141.968 E4.07009
G1 X131.017 Y141.722 E4.0855
G1 X131.177 Y141.462 E4.10073
G1 X131.31 Y141.188 E4.11593
G1 X131.413 Y140.907 E4.13086
G1 X131.488 Y140.613 E4.146
G1 X131.535 Y140.311 E4.16125
G1 X131.549 Y140.009 E4.17633
G1 X131.536 Y139.702 E4.19166
G1 X131.491 Y139.404 E4.2067
G1 X131.417 Y139.104 E4.22211
G1 X131.312 Y138.821 E4.23717
G1 X131.183 Y138.549 E4.25219
G1 X131.019 Y138.28 E4.26791
G1 X130.84 Y138.043 E4.28273
G1 X130.638 Y137.824 E4.29759
G1 X130.418 Y137.63 E4.31222
G1 X130.163 Y137.443 E4.328
G1 X129.889 Y137.284 E4.3438
G1 X129.611 Y137.159 E4.35901
G1 X129.328 Y137.064 E4.3739
G1 X129.039 Y136.998 E4.38869
G1 X128.738 Y136.959 E4.40384
G1 X128.422 Y136.951 E4.41961
G1 X128.132 Y136.971 E4.43411
G1 X127.837 Y137.022 E4.44905
G1 X127.526 Y137.108 E4.46514
G1 X127.253 Y137.216 E4.47979
G1 X126.981 Y137.355 E4.49503
G1 X126.735 Y137.512 E4.50959
G1 X126.5 Y137.698 E4.52454
G1 X126.266 Y137.923 E4.54074
G1 X126.071 Y138.153 E4.55578
G1 X125.901 Y138.402 E4.57082
G1 X125.75 Y138.681 E4.58665
G1 X125.631 Y138.963 E4.60192
G1 X125.545 Y139.245 E4.61663
G1 X125.484 Y139.542 E4.63176
G1 X125.453 Y139.848 E4.6471
G1 X125.453 Y140.152 E4.66227
G1 X125.484 Y140.458 E4.67761
G1 X125.544 Y140.756 E4.69278
G1 X125.631 Y141.037 E4.70745
G1 X125.744 Y141.304 E4.72192
G1 X125.894 Y141.585 E4.73781
G1 X126.059 Y141.831 E4.75259
G1 X126.254 Y142.062 E4.76767
G1 X126.482 Y142.288 E4.78368
G1 X126.718 Y142.477 E4.79877
G1 X126.962 Y142.634 E4.81324
G1 X127.238 Y142.778 E4.82878
G1 X127.519 Y142.888 E4.84383
G1 X127.807 Y142.971 E4.85878
G1 X128.114 Y143.026 E4.87434
G1 X128.42 Y143.049 E4.88965
G1 X128.72 Y143.044 E4.90462
G0 F6000 X128.691 Y142.644
;TYPE:WALL-OUTER
G1 F1200 X128.962 Y142.61 E4.91825
G1 X129.219 Y142.551 E4.9314
G1 X129.465 Y142.468 E4.94436
G1 X129.706 Y142.359 E4.95755
G1 X129.931 Y142.23 E4.97049
G1 X130.149 Y142.074 E4.98387
G1 X130.347 Y141.901 E4.99698
G1 X130.523 Y141.711 E5.00991
G1 X130.687 Y141.495 E5.02344
G1 X130.826 Y141.27 E5.03663
G1 X130.941 Y141.031 E5.04986
G1 X131.031 Y140.788 E5.06279
G1 X131.096 Y140.533 E5.07592
G1 X131.136 Y140.271 E5.08914
G1 X131.149 Y140.008 E5.10228
G1 X131.137 Y139.741 E5.11561
G1 X131.098 Y139.482 E5.12868
G1 X131.034 Y139.222 E5.14204
G1 X130.943 Y138.976 E5.15513
G1 X130.831 Y138.739 E5.1682
G1 X130.688 Y138.505 E5.18188
G1 X130.533 Y138.3 E5.19471
G1 X130.358 Y138.11 E5.20759
G1 X130.167 Y137.942 E5.22028
G1 X129.944 Y137.778 E5.23409
G1 X129.706 Y137.64 E5.24782
G1 X129.465 Y137.532 E5.261
G1 X129.219 Y137.449 E5.27395
G1 X128.969 Y137.392 E5.28674
G1 X128.707 Y137.358 E5.29992
G1 X128.431 Y137.351 E5.3137
G1 X128.18 Y137.369 E5.32625
G1 X127.924 Y137.413 E5.33921
G1 X127.653 Y137.488 E5.35324
G1 X127.418 Y137.581 E5.36585
G1 X127.18 Y137.702 E5.37917
G1 X126.968 Y137.838 E5.39173
G1 X126.763 Y138 E5.40477
G1 X126.558 Y138.197 E5.41895
G1 X126.39 Y138.396 E5.43195
G1 X126.243 Y138.611 E5.44494
G1 X126.111 Y138.854 E5.45874
G1 X126.008 Y139.099 E5.472
G1 X125.933 Y139.344 E5.48478
G1 X125.88 Y139.603 E5.49797
G1 X125.853 Y139.868 E5.51126
G1 X125.853 Y140.132 E5.52443
G1 X125.88 Y140.398 E5.53777
G1 X125.932 Y140.657 E5.55095
G1 X126.007 Y140.9 E5.56364
G1 X126.105 Y141.132 E5.5762
G1 X126.237 Y141.379 E5.59017
G1 X126.379 Y141.59 E5.60286
G1 X126.548 Y141.791 E5.61596
G1 X126.748 Y141.989 E5.63
G1 X126.952 Y142.152 E5.64303
G1 X127.163 Y142.288 E5.65555
G1 X127.404 Y142.413 E5.6691
G1 X127.648 Y142.509 E5.68218
G1 X127.898 Y142.581 E5.69516
G1 X128.165 Y142.629 E5.70869
G1 X128.431 Y142.649 E5.722
G1 X128.691 Y142.644 E5.73498
G0 F6000 X128.722 Y143.082
G1 F2700 E0.73498
G0 F6000 X131.677 Y141.737
G0 X131.038 Y137.416
G0 X129.164 Y136.406
G0 X170.834 Y136.408
G0 X167.885 Y139.802
G0 X169.216 Y141.849
G0 X171.064 Y143.423
;TYPE:WALL-INNER
G1 F2700 E5.73498
G1 F1200 X171.408 Y143.449 E5.75219
G1 X171.747 Y143.444 E5.7691
G1 X172.098 Y143.399 E5.78676
G1 X172.437 Y143.321 E5.80411
G1 X172.758 Y143.214 E5.82099
G1 X173.071 Y143.072 E5.83814
G1 X173.363 Y142.904 E5.85495
G1 X173.647 Y142.702 E5.87233
G1 X173.905 Y142.475 E5.88948
G1 X174.137 Y142.227 E5.90642
G1 X174.35 Y141.945 E5.92405
G1 X174.525 Y141.659 E5.94078
G1 X174.677 Y141.345 E5.95819
G1 X174.683 Y141.327 E5.95913
G1 X174.795 Y141.026 E5.97515
G1 X174.88 Y140.693 E5.9923
G1 X174.902 Y140.558 E5.99912
G1 X174.934 Y140.351 E6.00957
G1 X174.949 Y140.01 E6.0266
G1 X174.935 Y139.67 E6.04358
G1 X174.902 Y139.443 E6.05503
G1 X174.884 Y139.328 E6.06083
G1 X174.8 Y138.986 E6.0784
G1 X174.681 Y138.665 E6.09548
G1 X174.535 Y138.359 E6.1124
G1 X174.35 Y138.055 E6.13015
G1 X174.147 Y137.786 E6.14696
G1 X173.918 Y137.538 E6.1638
G1 X173.669 Y137.318 E6.18038
G1 X173.382 Y137.108 E6.19812
G1 X173.072 Y136.928 E6.21601
G1 X172.757 Y136.786 E6.23325
G1 X172.436 Y136.678 E6.25014
G1 X172.109 Y136.604 E6.26687
G1 X172.069 Y136.598 E6.26889
G1 X171.769 Y136.56 E6.28397
G1 X171.413 Y136.551 E6.30174
G1 X171.084 Y136.573 E6.31819
G1 X170.935 Y136.598 E6.32573
G1 X170.749 Y136.631 E6.33515
G1 X170.399 Y136.728 E6.35327
G1 X170.088 Y136.851 E6.36996
G1 X169.782 Y137.008 E6.38712
G1 X169.504 Y137.186 E6.40359
G1 X169.224 Y137.406 E6.42135
G1 X168.972 Y137.651 E6.43889
G1 X168.752 Y137.91 E6.45584
G1 X168.559 Y138.193 E6.47293
G1 X168.389 Y138.506 E6.4907
G1 X168.256 Y138.82 E6.50771
G1 X168.157 Y139.146 E6.52471
G1 X168.088 Y139.483 E6.54187
G1 X168.056 Y139.811 E6.55831
G1 X168.053 Y140.168 E6.57613
G1 X168.088 Y140.519 E6.59372
G1 X168.156 Y140.855 E6.61083
G1 X168.255 Y141.174 E6.62749
G1 X168.383 Y141.476 E6.64385
G1 X168.551 Y141.791 E6.66167
G1 X168.739 Y142.072 E6.67853
G1 X168.96 Y142.334 E6.69563
G1 X169.214 Y142.586 E6.71348
G1 X169.484 Y142.802 E6.73073
G1 X169.761 Y142.981 E6.74719
G1 X170.072 Y143.141 E6.76464
G1 X170.388 Y143.267 E6.78161
G1 X170.716 Y143.361 E6.79863
G1 X171.064 Y143.423 E6.81627
G0 F6000 X171.114 Y143.026
G1 F1200 X171.42 Y143.049 E6.83158
G1 X171.719 Y143.044 E6.8465
G1 X172.028 Y143.005 E6.86203
G1 X172.328 Y142.936 E6.87739
G1 X172.612 Y142.841 E6.89233
G1 X172.888 Y142.716 E6.90745
G1 X173.147 Y142.567 E6.92236
G1 X173.398 Y142.388 E6.93774
G1 X173.626 Y142.188 E6.95287
G1 X173.83 Y141.969 E6.9678
G1 X174.019 Y141.719 E6.98344
G1 X174.174 Y141.467 E6.9982
G1 X174.309 Y141.188 E7.01366
G1 X174.413 Y140.907 E7.02861
G1 X174.488 Y140.613 E7.04375
G1 X174.535 Y140.311 E7.05899
G1 X174.549 Y140.009 E7.07408
G1 X174.536 Y139.708 E7.08911
G1 X174.491 Y139.405 E7.10439
G1 X174.417 Y139.104 E7.11985
G1 X174.312 Y138.821 E7.13491
