;FLAVOR:Marlin
;TIME:5463
;Filament used: 3.22188m
;Layer height: 0.2
;MINX:123.9
;MINY:139.547
;MINZ:0.3
;MAXX:176.1
;MAXY:159.6
;MAXZ:29.9
;Generated with Cura_SteamEngine 4.10.0
M140 S60
M105
M190 S60
M104 S210
M105
M109 S210
M82 ;absolute extrusion mode
M201 X500.00 Y500.00 Z100.00 E5000.00 ;Setup machine max acceleration
M203 X500.00 Y500.00 Z10.00 E50.00 ;Setup machine max feedrate
M204 P500.00 R1000.00 T500.00 ;Setup Print/Retract/Travel acceleration
M205 X8.00 Y8.00 Z0.40 E5.00 ;Setup Jerk
M220 S100 ;Reset Feedrate
M221 S100 ;Reset Flowrate

G28 ;Home

G92 E0 ;Reset Extruder
G1 Z2.0 F3000 ;Move Z Axis up
G1 X10.1 Y20 Z0.28 F5000.0 ;Move to start position
G1 X10.1 Y200.0 Z0.28 F1500.0 E15 ;Draw the first line
G1 X10.4 Y200.0 Z0.28 F5000.0 ;Move to side a little
G1 X10.4 Y20 Z0.28 F1500.0 E30 ;Draw the second line
G92 E0 ;Reset Extruder
G1 Z2.0 F3000 ;Move Z Axis up

G92 E0
G92 E0
G1 F2700 E-5
;LAYER_COUNT:150
;LAYER:0
M107
M204 S500
;MESH:CLAMP-BACK-1.0.stl
G0 F6000 X154.985 Y158.8 Z0.3
;TYPE:WALL-INNER
G1 F2700 E0
G1 F1200 X144.924 Y158.799 E0.50195
G1 X144.643 Y158.736 E0.51631
G1 X144.37 Y158.546 E0.53291
G1 X144.203 Y158.285 E0.54837
G1 X144.151 Y157.983 E0.56365
G1 X144.225 Y157.65 E0.58067
G1 X144.285 Y157.535 E0.58714
G1 X148.368 Y150.463 E0.99455
G1 X148.496 Y149.863 E1.02516
G1 X148.147 Y149.101 E1.06697
G1 X147.458 Y148.8 E1.10448
G1 X124.7 Y148.8 E2.23988
G1 X124.7 Y141.2 E2.61905
G1 X132.3 Y141.2 E2.99821
G1 X132.3 Y145.16 E3.19578
G1 X132.519 Y145.826 E3.23076
G1 X133.263 Y146.2 E3.2723
G1 X166.66 Y146.2 E4.93848
G1 X167.326 Y145.981 E4.97346
G1 X167.7 Y145.237 E5.01501
G1 X167.7 Y141.2 E5.21641
G1 X175.3 Y141.2 E5.59558
G1 X175.3 Y148.8 E5.97474
G1 X152.59 Y148.8 E7.10775
G1 X152.004 Y148.994 E7.13855
G1 X151.524 Y149.674 E7.18007
G1 X151.607 Y150.42 E7.21752
G1 X155.701 Y157.509 E7.62593
G1 X155.792 Y157.693 E7.63617
G1 X155.85 Y157.979 E7.65073
G1 X155.795 Y158.291 E7.66654
G1 X155.642 Y158.54 E7.68112
G1 X155.397 Y158.719 E7.69626
G1 X154.985 Y158.8 E7.71721
G0 F6000 X155.233 Y159.185
G1 F1200 X155.011 Y159.198 E7.7283
G1 X154.994 Y159.2 E7.72915
G1 X144.895 Y159.199 E8.233
G1 X144.703 Y159.174 E8.24266
G1 X144.463 Y159.098 E8.25521
G1 X144.077 Y158.83 E8.27866
G1 X143.867 Y158.5 E8.29817
G1 X143.823 Y158.432 E8.30221
G1 X143.743 Y157.975 E8.32536
G1 X143.847 Y157.509 E8.34918
G1 X143.93 Y157.35 E8.35813
G1 X147.99 Y150.318 E8.76323
G1 X148.077 Y149.909 E8.78409
G1 X147.847 Y149.406 E8.81169
G1 X147.375 Y149.2 E8.83738
G1 X124.3 Y149.2 E9.9886
G1 X124.3 Y140.8 E10.40768
G1 X132.7 Y140.8 E10.82675
G1 X132.7 Y145.096 E11.04108
G1 X132.847 Y145.543 E11.06456
G1 X133.358 Y145.8 E11.09309
G1 X166.596 Y145.8 E12.75134
G1 X167.043 Y145.653 E12.77482
G1 X167.3 Y145.142 E12.80336
G1 X167.3 Y140.8 E13.01998
G1 X175.7 Y140.8 E13.43906
G1 X175.7 Y149.2 E13.85814
G1 X152.654 Y149.2 E15.00791
G1 X152.255 Y149.332 E15.02887
G1 X151.938 Y149.781 E15.05629
G1 X151.995 Y150.292 E15.08195
G1 X156.055 Y157.323 E15.48701
G1 X156.174 Y157.562 E15.50033
G1 X156.257 Y157.974 E15.52129
G1 X156.176 Y158.435 E15.54465
G1 X155.952 Y158.798 E15.56593
G1 X155.79 Y158.949 E15.57697
G1 X155.563 Y159.087 E15.59023
G1 X155.233 Y159.185 E15.6074
G0 F6000 X155.295 Y159.582
;TYPE:WALL-OUTER
G1 F1200 X155.003 Y159.6 E15.622
G1 X144.866 Y159.599 E16.12774
G1 X144.616 Y159.566 E16.14032
G1 X144.308 Y159.469 E16.15643
G1 X144.034 Y159.318 E16.17203
G1 X143.789 Y159.111 E16.18804
G1 X143.596 Y158.867 E16.20356
G1 X143.447 Y158.575 E16.21991
G1 X143.365 Y158.278 E16.23528
G1 X143.341 Y157.969 E16.25075
G1 X143.379 Y157.651 E16.26672
G1 X143.478 Y157.351 E16.28249
G1 X143.575 Y157.165 E16.29295
G1 X147.612 Y150.173 E16.69575
G1 X147.658 Y149.955 E16.70687
G1 X147.547 Y149.711 E16.72024
G1 X147.292 Y149.6 E16.73412
G1 X123.9 Y149.6 E17.90115
G1 X123.9 Y140.4 E18.36014
G1 X133.1 Y140.4 E18.81913
G1 X133.1 Y145.032 E19.05022
G1 X133.175 Y145.26 E19.06219
G1 X133.453 Y145.4 E19.07772
G1 X166.532 Y145.4 E20.72804
G1 X166.76 Y145.325 E20.74001
G1 X166.9 Y145.047 E20.75554
G1 X166.9 Y140.4 E20.98738
G1 X176.1 Y140.4 E21.44637
G1 X176.1 Y149.6 E21.90536
G1 X152.718 Y149.6 E23.0719
G1 X152.506 Y149.67 E23.08303
G1 X152.352 Y149.888 E23.09635
G1 X152.383 Y150.164 E23.11021
G1 X156.413 Y157.144 E23.51231
G1 X156.549 Y157.416 E23.52749
G1 X156.633 Y157.713 E23.54289
G1 X156.659 Y157.97 E23.55577
G1 X156.635 Y158.278 E23.57119
G1 X156.553 Y158.575 E23.58656
G1 X156.439 Y158.808 E23.5995
G1 X156.253 Y159.065 E23.61533
G1 X156.034 Y159.269 E23.63026
G1 X155.743 Y159.446 E23.64725
G1 X155.573 Y159.515 E23.6564
G1 X155.295 Y159.582 E23.67067
G0 F6000 X155.23 Y159.147
G0 X154.949 Y158.41
;TYPE:SKIN
G1 F1200 X144.966 Y158.409 E24.16872
G1 X144.803 Y158.372 E24.17706
G1 X144.657 Y158.271 E24.18592
G1 X144.573 Y158.141 E24.19364
G1 X144.549 Y157.994 E24.20107
G1 X144.623 Y157.73 E24.21475
G1 X148.737 Y150.605 E24.62522
G1 X148.904 Y149.818 E24.66536
G1 X148.44 Y148.803 E24.72104
G1 X147.54 Y148.41 E24.77003
G1 X125.09 Y148.41 E25.89007
G1 X125.09 Y141.59 E26.23032
G1 X131.91 Y141.59 E26.57057
G1 X131.91 Y145.222 E26.75177
G1 X132.199 Y146.101 E26.79793
G1 X133.171 Y146.59 E26.85222
G1 X166.722 Y146.59 E28.52608
G1 X167.601 Y146.301 E28.57225
G1 X168.09 Y145.329 E28.62653
G1 X168.09 Y141.59 E28.81307
G1 X174.91 Y141.59 E29.15332
G1 X174.91 Y148.41 E29.49357
G1 X152.527 Y148.41 E30.61027
G1 X151.76 Y148.664 E30.65057
G1 X151.12 Y149.57 E30.70592
G1 X151.229 Y150.545 E30.75486
G1 X155.357 Y157.693 E31.16667
G1 X155.453 Y157.983 E31.18191
G1 X155.423 Y158.151 E31.19043
G1 X155.351 Y158.269 E31.19732
G1 X155.235 Y158.353 E31.20447
G1 X154.949 Y158.41 E31.21902
G1 F2700 E26.21902
G0 F6000 X154.948 Y158.689
G0 X155.326 Y158.558
G0 X156.337 Y157.538
G0 X152.151 Y150.24
G0 X152.107 Y149.826
G0 X152.358 Y149.469
G0 X152.68 Y149.361
G0 X175.118 Y148.618
G0 X175.19 Y141.939
G0 X174.749 Y141.939
G1 F2700 E31.21902
G1 F1200 X174.559 Y141.75 E31.23239
G0 F6000 X173.994 Y141.75
G1 F1200 X174.749 Y142.505 E31.28566
G0 F6000 X174.749 Y143.071
G1 F1200 X173.428 Y141.75 E31.37886
G0 F6000 X172.862 Y141.75
G1 F1200 X174.749 Y143.636 E31.51196
G0 F6000 X174.749 Y144.202
G1 F1200 X172.297 Y141.75 E31.68497
G0 F6000 X171.731 Y141.75
G1 F1200 X174.749 Y144.768 E31.8979
G0 F6000 X174.749 Y145.333
G1 F1200 X171.165 Y141.75 E32.15074
G0 F6000 X170.6 Y141.75
G1 F1200 X174.749 Y145.899 E32.44347
G0 F6000 X174.749 Y146.465
G1 F1200 X170.034 Y141.75 E32.77614
G0 F6000 X169.468 Y141.75
G1 F1200 X174.749 Y147.03 E33.14871
G0 F6000 X174.749 Y147.596
G1 F1200 X168.903 Y141.75 E33.56117
G0 F6000 X168.337 Y141.75
G1 F1200 X174.749 Y148.162 E34.01358
G0 F6000 X174.271 Y148.249
G1 F1200 X168.249 Y142.228 E34.43843
G0 F6000 X168.249 Y142.793
G1 F1200 X173.705 Y148.249 E34.82338
G0 F6000 X173.14 Y148.249
G1 F1200 X168.249 Y143.359 E35.16843
G0 F6000 X168.249 Y143.925
G1 F1200 X172.574 Y148.249 E35.47354
G0 F6000 X172.008 Y148.249
G1 F1200 X168.249 Y144.49 E35.73876
G0 F6000 X168.249 Y145.056
G1 F1200 X171.442 Y148.249 E35.96405
G0 F6000 X170.877 Y148.249
G1 F1200 X168.163 Y145.536 E36.1555
G0 F6000 X167.973 Y145.912
G1 F1200 X170.311 Y148.249 E36.32042
G0 F6000 X169.745 Y148.249
G1 F1200 X167.784 Y146.288 E36.45878
G0 F6000 X167.449 Y146.519
G1 F1200 X169.18 Y148.249 E36.58088
G0 F6000 X168.614 Y148.249
G1 F1200 X167.024 Y146.659 E36.69306
G0 F6000 X166.549 Y146.75
G1 F1200 X168.048 Y148.249 E36.79882
G0 F6000 X167.483 Y148.249
G1 F1200 X165.983 Y146.75 E36.90462
G0 F6000 X165.417 Y146.75
G1 F1200 X166.917 Y148.249 E37.01042
G0 F6000 X166.351 Y148.249
G1 F1200 X164.852 Y146.75 E37.11618
G0 F6000 X164.286 Y146.75
G1 F1200 X165.786 Y148.249 E37.22198
G0 F6000 X165.22 Y148.249
G1 F1200 X163.72 Y146.75 E37.32778
G0 F6000 X163.154 Y146.75
G1 F1200 X164.654 Y148.249 E37.43357
G0 F6000 X164.089 Y148.249
G1 F1200 X162.589 Y146.75 E37.53937
G0 F6000 X162.023 Y146.75
G1 F1200 X163.523 Y148.249 E37.64517
G0 F6000 X162.957 Y148.249
G1 F1200 X161.457 Y146.75 E37.75097
G0 F6000 X160.892 Y146.75
G1 F1200 X162.392 Y148.249 E37.85676
G0 F6000 X161.826 Y148.249
G1 F1200 X160.326 Y146.75 E37.96256
G0 F6000 X159.76 Y146.75
G1 F1200 X161.26 Y148.249 E38.06836
G0 F6000 X160.694 Y148.249
G1 F1200 X159.195 Y146.75 E38.17412
G0 F6000 X158.629 Y146.75
G1 F1200 X160.129 Y148.249 E38.27992
G0 F6000 X159.563 Y148.249
G1 F1200 X158.063 Y146.75 E38.38572
G0 F6000 X157.498 Y146.75
G1 F1200 X158.997 Y148.249 E38.49148
G0 F6000 X158.432 Y148.249
G1 F1200 X156.932 Y146.75 E38.59728
G0 F6000 X156.366 Y146.75
G1 F1200 X157.866 Y148.249 E38.70308
G0 F6000 X157.3 Y148.249
G1 F1200 X155.801 Y146.75 E38.80884
G0 F6000 X155.235 Y146.75
G1 F1200 X156.735 Y148.249 E38.91464
G0 F6000 X156.169 Y148.249
G1 F1200 X154.669 Y146.75 E39.02043
G0 F6000 X154.104 Y146.75
G1 F1200 X155.603 Y148.249 E39.1262
G0 F6000 X155.038 Y148.249
G1 F1200 X153.538 Y146.75 E39.23199
G0 F6000 X152.972 Y146.75
G1 F1200 X154.472 Y148.249 E39.33779
G0 F6000 X153.906 Y148.249
G1 F1200 X152.406 Y146.75 E39.44359
G0 F6000 X151.841 Y146.75
G1 F1200 X153.341 Y148.249 E39.54939
G0 F6000 X152.775 Y148.249
G1 F1200 X151.275 Y146.75 E39.65519
G0 F6000 X150.709 Y146.75
G1 F1200 X152.281 Y148.322 E39.7661
G0 F6000 X151.856 Y148.462
G1 F1200 X150.144 Y146.75 E39.88689
G0 F6000 X149.577 Y146.749
G1 F1200 X151.534 Y148.705 E40.02493
G0 F6000 X151.3 Y149.037
G1 F1200 X149.012 Y146.749 E40.18636
G0 F6000 X148.446 Y146.749
G1 F1200 X151.066 Y149.369 E40.37122
G0 F6000 X150.991 Y149.859
G1 F1200 X147.88 Y146.749 E40.59068
G0 F6000 X147.315 Y146.749
G1 F1200 X151.062 Y150.496 E40.85505
G0 F6000 X151.499 Y150.448
G0 X152.106 Y151.505
G0 X151.725 Y151.725
G1 F1200 X146.749 Y146.749 E41.20614
G0 F6000 X146.183 Y146.749
G1 F1200 X147.769 Y148.334 E41.318
G0 F6000 X147.117 Y148.249
G1 F1200 X145.618 Y146.749 E41.4238
G0 F6000 X145.052 Y146.749
G1 F1200 X146.552 Y148.249 E41.52963
G0 F6000 X145.986 Y148.249
G1 F1200 X144.486 Y146.749 E41.63546
G0 F6000 X143.92 Y146.749
G1 F1200 X145.42 Y148.249 E41.7413
G0 F6000 X144.855 Y148.249
G1 F1200 X143.355 Y146.749 E41.84713
G0 F6000 X142.789 Y146.749
G1 F1200 X144.289 Y148.249 E41.95296
G0 F6000 X143.723 Y148.249
G1 F1200 X142.223 Y146.749 E42.0588
G0 F6000 X141.658 Y146.749
G1 F1200 X143.158 Y148.249 E42.16463
G0 F6000 X142.592 Y148.249
G1 F1200 X141.092 Y146.749 E42.27046
G0 F6000 X140.526 Y146.749
G1 F1200 X142.026 Y148.249 E42.3763
G0 F6000 X141.46 Y148.249
G1 F1200 X139.961 Y146.749 E42.48209
G0 F6000 X139.395 Y146.749
G1 F1200 X140.895 Y148.249 E42.58793
G0 F6000 X140.329 Y148.249
G1 F1200 X138.829 Y146.749 E42.69376
G0 F6000 X138.264 Y146.749
G1 F1200 X139.763 Y148.249 E42.79956
G0 F6000 X139.198 Y148.249
G1 F1200 X137.698 Y146.749 E42.90539
G0 F6000 X137.132 Y146.749
G1 F1200 X138.632 Y148.249 E43.01122
G0 F6000 X138.066 Y148.249
G1 F1200 X136.567 Y146.749 E43.11702
G0 F6000 X136.001 Y146.749
G1 F1200 X137.501 Y148.249 E43.22286
G0 F6000 X136.935 Y148.249
G1 F1200 X135.435 Y146.749 E43.32869
G0 F6000 X134.87 Y146.749
G1 F1200 X136.369 Y148.249 E43.43449
G0 F6000 X135.804 Y148.249
G1 F1200 X134.304 Y146.749 E43.54032
G0 F6000 X133.738 Y146.749
G1 F1200 X135.238 Y148.249 E43.64615
G0 F6000 X134.672 Y148.249
G1 F1200 X133.172 Y146.749 E43.75199
G0 F6000 X133.236 Y146.313
G0 X132.422 Y145.909
G0 X132.074 Y146.216
G1 F1200 X134.107 Y148.249 E43.89542
G0 F6000 X133.541 Y148.249
G1 F1200 X127.041 Y141.749 E44.35403
G0 F6000 X127.607 Y141.749
G1 F1200 X132.067 Y146.209 E44.66871
G0 F6000 X131.789 Y145.365
G1 F1200 X128.173 Y141.749 E44.92384
G0 F6000 X128.738 Y141.749
G1 F1200 X131.75 Y144.761 E45.13635
G0 F6000 X131.75 Y144.195
G1 F1200 X129.304 Y141.749 E45.30893
G0 F6000 X129.87 Y141.749
G1 F1200 X131.75 Y143.629 E45.44158
G0 F6000 X131.75 Y143.063
G1 F1200 X130.435 Y141.749 E45.53432
G0 F6000 X131.001 Y141.749
G1 F1200 X131.75 Y142.498 E45.58717
G0 F6000 X131.75 Y141.932
G1 F1200 X131.567 Y141.749 E45.60008
G0 F6000 X131.567 Y141.31
G0 X126.475 Y141.31
G0 X126.475 Y141.749
G1 F1200 X132.975 Y148.249 E46.05869
G0 F6000 X132.409 Y148.249
G1 F1200 X125.91 Y141.749 E46.51726
G0 F6000 X125.344 Y141.749
G1 F1200 X131.844 Y148.249 E46.97587
G0 F6000 X131.278 Y148.249
G1 F1200 X125.249 Y142.22 E47.40125
G0 F6000 X125.249 Y142.786
G1 F1200 X130.712 Y148.249 E47.7867
G0 F6000 X130.147 Y148.249
G1 F1200 X125.249 Y143.351 E48.13228
G0 F6000 X125.249 Y143.917
G1 F1200 X129.581 Y148.249 E48.43792
G0 F6000 X129.015 Y148.249
G1 F1200 X125.249 Y144.483 E48.70363
G0 F6000 X125.249 Y145.048
G1 F1200 X128.45 Y148.249 E48.92948
G0 F6000 X127.884 Y148.249
G1 F1200 X125.249 Y145.614 E49.1154
G0 F6000 X125.249 Y146.18
G1 F1200 X127.318 Y148.249 E49.26137
G0 F6000 X126.753 Y148.249
G1 F1200 X125.249 Y146.745 E49.36749
G0 F6000 X125.249 Y147.311
G1 F1200 X126.187 Y148.249 E49.43367
G0 F6000 X125.621 Y148.249
G1 F1200 X125.249 Y147.877 E49.45992
G1 F2700 E44.45992
G0 F6000 X124.81 Y147.877
G0 X124.882 Y148.618
G0 X147.342 Y149.361
G0 X147.725 Y149.53
G0 X147.906 Y149.928
G0 X144.395 Y157.566
G0 X144.774 Y157.785
G1 F2700 E49.45992
G1 F1200 X145.237 Y158.248 E49.49258
G0 F6000 X145.803 Y158.248
G1 F1200 X144.981 Y157.426 E49.55058
G0 F6000 X145.188 Y157.068
G1 F1200 X146.368 Y158.248 E49.63384
G0 F6000 X146.934 Y158.248
G1 F1200 X145.396 Y156.709 E49.74239
G0 F6000 X145.603 Y156.351
G1 F1200 X147.5 Y158.248 E49.87623
G0 F6000 X148.066 Y158.248
G1 F1200 X145.81 Y155.992 E50.0354
G0 F6000 X146.016 Y155.633
G1 F1200 X148.631 Y158.248 E50.21991
G0 F6000 X149.197 Y158.248
G1 F1200 X146.224 Y155.274 E50.4297
G0 F6000 X146.431 Y154.916
G1 F1200 X149.763 Y158.248 E50.66479
G0 F6000 X150.328 Y158.248
G1 F1200 X146.638 Y154.557 E50.92518
G0 F6000 X146.845 Y154.199
G1 F1200 X150.894 Y158.248 E51.21086
G0 F6000 X151.46 Y158.248
G1 F1200 X147.052 Y153.84 E51.52186
G0 F6000 X147.259 Y153.482
G1 F1200 X152.025 Y158.248 E51.85813
G0 F6000 X152.591 Y158.248
G1 F1200 X147.466 Y153.123 E52.21973
G0 F6000 X147.673 Y152.764
G1 F1200 X153.157 Y158.248 E52.60665
G0 F6000 X153.722 Y158.248
G1 F1200 X147.88 Y152.406 E53.01884
G0 F6000 X148.087 Y152.047
G1 F1200 X154.288 Y158.248 E53.45635
G0 F6000 X154.854 Y158.248
G1 F1200 X148.295 Y151.689 E53.91912
G0 F6000 X148.502 Y151.33
G1 F1200 X155.268 Y158.097 E54.39654
G0 F6000 X155.642 Y158.328
G0 X155.675 Y157.982
G0 X155.201 Y156.864
G0 X154.821 Y157.083
G1 F1200 X148.708 Y150.971 E54.82781
G0 F6000 X148.901 Y150.598
G1 F1200 X154.047 Y155.744 E55.19089
G0 F6000 X154.427 Y155.525
G0 X153.654 Y154.185
G0 X153.273 Y154.404
G1 F1200 X149 Y150.131 E55.49237
G0 F6000 X148.933 Y149.499
G1 F1200 X152.498 Y153.064 E55.7439
G0 F6000 X152.879 Y152.844
G0 X156.34 Y157.803
G0 X156.401 Y157.815
;TYPE:SKIN
G1 F1200 X156.436 Y158.133 E55.74578
G1 X156.211 Y158.756 E55.74967
G1 X155.661 Y158.773 E55.75291
G1 X155.269 Y158.946 E55.75543
G0 F6000 X155.236 Y158.913
G0 X144.301 Y159.123
G0 X144.148 Y159.138
G1 F1200 X143.784 Y158.774 E55.76189
G1 X143.592 Y158.299 E55.76833
G1 X143.587 Y157.729 E55.77549
G0 F6000 X143.98 Y157.744
;MESH:NONMESH
G0 F300 X143.98 Y157.744 Z0.5
G0 F6000 X144.497 Y158.425
G0 X144.712 Y158.576
G0 X155.183 Y158.786
;TIME_ELAPSED:74.513550
;LAYER:1
M106 S127.5
;TYPE:WALL-INNER
;MESH:CLAMP-BACK-1.0.stl
G1 F1275 X154.882 Y158.8 E55.78551
G1 X144.918 Y158.799 E56.11691
G1 X144.641 Y158.734 E56.12638
G1 X144.372 Y158.548 E56.13726
G1 X144.202 Y158.281 E56.14778
G1 X144.15 Y157.981 E56.15791
G1 X144.205 Y157.702 E56.16737
G1 X144.323 Y157.469 E56.17605
G1 X148.368 Y150.463 E56.44513
G1 X148.496 Y149.863 E56.46553
G1 X148.147 Y149.101 E56.49341
G1 X147.458 Y148.8 E56.51841
G1 X124.7 Y148.8 E57.27535
G1 X124.7 Y141.2 E57.52812
G1 X132.3 Y141.2 E57.7809
G1 X132.3 Y145.16 E57.91261
G1 X132.519 Y145.826 E57.93593
G1 X133.263 Y146.2 E57.96363
G1 X166.66 Y146.2 E59.07442
G1 X167.326 Y145.981 E59.09773
G1 X167.7 Y145.237 E59.12543
G1 X167.7 Y141.2 E59.2597
G1 X175.3 Y141.2 E59.51248
G1 X175.3 Y148.8 E59.76525
G1 X152.59 Y148.8 E60.52059
G1 X152.004 Y148.994 E60.54112
G1 X151.524 Y149.674 E60.56881
G1 X151.607 Y150.42 E60.59377
G1 X155.725 Y157.553 E60.86771
G1 X155.846 Y157.893 E60.87972
G1 X155.824 Y158.202 E60.89002
