;FLAVOR:Marlin
;TIME:3121
;Filament used: 2.22413m
;Layer height: 0.2
;MINX:140.4
;MINY:139.535
;MINZ:0.3
;MAXX:181.465
;MAXY:160.453
;MAXZ:19.9
;Generated with Cura_SteamEngine 4.8.0
M140 S60
M105
M190 S60
M104 S205
M105
M109 S205
M82 ;absolute extrusion mode
M201 X500.00 Y500.00 Z100.00 E5000.00 ;Setup machine max acceleration
M203 X500.00 Y500.00 Z10.00 E50.00 ;Setup machine max feedrate
M204 P500.00 R1000.00 T500.00 ;Setup Print/Retract/Travel acceleration
M205 X8.00 Y8.00 Z0.40 E5.00 ;Setup Jerk
M220 S100 ;Reset Feedrate
M221 S100 ;Reset Flowrate

G28 ;Home

G92 E0 ;Reset Extruder
G1 Z2.0 F3000 ;Move Z Axis up
G1 X10.1 Y20 Z0.28 F5000.0 ;Move to start position
G1 X10.1 Y200.0 Z0.28 F1500.0 E15 ;Draw the first line
G1 X10.4 Y200.0 Z0.28 F5000.0 ;Move to side a little
G1 X10.4 Y20 Z0.28 F1500.0 E30 ;Draw the second line
G92 E0 ;Reset Extruder
G1 Z2.0 F3000 ;Move Z Axis up

G92 E0
G92 E0
G1 F1500 E-6.5
;LAYER_COUNT:99
;LAYER:0
M107
M204 S500
;MESH:ENCLOSURE-BRACKET-1.0.stl
G0 F3600 X149.523 Y156.43 Z0.3
M204 S100
;TYPE:WALL-INNER
G1 F1500 E0
G1 X150.477 Y156.43 E0.04807
G1 X151.403 Y156.201 E0.09614
G1 X152.246 Y155.759 E0.1441
G1 X152.964 Y155.126 E0.19233
G1 X153.505 Y154.34 E0.24041
G1 X153.844 Y153.447 E0.28854
G1 X153.95 Y152.572 E0.33296
G1 X153.95 Y147.428 E0.59216
G1 X153.844 Y146.553 E0.63657
G1 X153.505 Y145.66 E0.6847
G1 X152.964 Y144.874 E0.73278
G1 X152.246 Y144.241 E0.78101
G1 X151.403 Y143.799 E0.82898
G1 X150.477 Y143.57 E0.87704
G1 X149.523 Y143.57 E0.92511
G1 X148.597 Y143.799 E0.97318
G1 X147.754 Y144.241 E1.02114
G1 X147.036 Y144.874 E1.06937
G1 X146.495 Y145.66 E1.11746
G1 X146.156 Y146.553 E1.16559
G1 X146.05 Y147.428 E1.21
G1 X146.05 Y152.572 E1.4692
G1 X146.156 Y153.447 E1.51361
G1 X146.495 Y154.34 E1.56174
G1 X147.036 Y155.126 E1.60982
G1 X147.754 Y155.759 E1.65806
G1 X148.597 Y156.201 E1.70602
G1 X149.523 Y156.43 E1.75409
M204 S500
G0 F3600 X149.572 Y156.03
M204 S100
G1 F1500 X150.428 Y156.03 E1.79722
G1 X151.26 Y155.824 E1.84041
G1 X152.018 Y155.427 E1.88352
G1 X152.662 Y154.859 E1.92679
G1 X153.148 Y154.153 E1.96998
G1 X153.453 Y153.351 E2.01322
G1 X153.55 Y152.548 E2.05397
G1 X153.55 Y147.452 E2.31076
G1 X153.453 Y146.649 E2.35151
G1 X153.148 Y145.847 E2.39475
G1 X152.662 Y145.141 E2.43794
G1 X152.018 Y144.573 E2.48121
G1 X151.26 Y144.176 E2.52432
G1 X150.428 Y143.97 E2.56751
G1 X149.572 Y143.97 E2.61065
G1 X148.74 Y144.176 E2.65384
G1 X147.982 Y144.573 E2.69695
G1 X147.338 Y145.141 E2.74022
G1 X146.852 Y145.847 E2.78341
G1 X146.547 Y146.649 E2.82665
G1 X146.45 Y147.452 E2.8674
G1 X146.45 Y152.548 E3.12419
G1 X146.547 Y153.351 E3.16494
G1 X146.852 Y154.153 E3.20818
G1 X147.338 Y154.859 E3.25137
G1 X147.982 Y155.427 E3.29464
G1 X148.74 Y155.824 E3.33775
G1 X149.572 Y156.03 E3.38094
M204 S500
G0 F3600 X149.621 Y155.63
M204 S100
;TYPE:WALL-OUTER
G1 F1500 X150.379 Y155.63 E3.41914
G1 X151.117 Y155.447 E3.45745
G1 X151.79 Y155.095 E3.49572
G1 X152.36 Y154.592 E3.53403
G1 X152.791 Y153.966 E3.57232
G1 X153.062 Y153.254 E3.61071
G1 X153.15 Y152.524 E3.64776
G1 X153.15 Y147.476 E3.90213
G1 X153.062 Y146.746 E3.93918
G1 X152.791 Y146.034 E3.97756
G1 X152.36 Y145.408 E4.01586
G1 X151.79 Y144.905 E4.05417
G1 X151.117 Y144.553 E4.09244
G1 X150.379 Y144.37 E4.13075
G1 X149.621 Y144.37 E4.16895
G1 X148.883 Y144.553 E4.20726
G1 X148.21 Y144.905 E4.24553
G1 X147.64 Y145.408 E4.28384
G1 X147.209 Y146.034 E4.32213
G1 X146.938 Y146.746 E4.36052
G1 X146.85 Y147.476 E4.39757
G1 X146.85 Y152.524 E4.65194
G1 X146.938 Y153.254 E4.68899
G1 X147.209 Y153.966 E4.72737
G1 X147.64 Y154.592 E4.76567
G1 X148.21 Y155.095 E4.80398
G1 X148.883 Y155.447 E4.84225
G1 X149.621 Y155.63 E4.88056
M204 S500
G0 F3600 X149.568 Y156.066
G1 F1500 E-1.61944
G0 F3600 X152.355 Y155.917
G0 X152.355 Y158.59
G0 X158.8 Y158.8
M204 S100
;TYPE:WALL-INNER
G1 F1500 E4.88056
G1 X141.2 Y158.8 E5.76741
G1 X141.2 Y141.2 E6.65426
G1 X158.8 Y141.2 E7.5411
G1 X158.8 Y158.8 E8.42795
M204 S500
G0 F3600 X159.2 Y159.2
M204 S100
G1 F1500 X140.8 Y159.2 E9.35511
G1 X140.8 Y140.8 E10.28227
G1 X159.2 Y140.8 E11.20943
G1 X159.2 Y159.2 E12.13659
M204 S500
G0 F3600 X159.6 Y159.6
M204 S100
;TYPE:WALL-OUTER
G1 F1500 X140.4 Y159.6 E13.10406
G1 X140.4 Y140.4 E14.07153
G1 X159.6 Y140.4 E15.039
G1 X159.6 Y159.6 E16.00647
M204 S500
G0 F3600 X159.33 Y159.33
G0 X158.69 Y158.41
G0 X158.41 Y158.41
M204 S100
;TYPE:SKIN
G1 F1500 X141.59 Y158.41 E16.84563
G1 X141.59 Y141.59 E17.68478
G1 X158.41 Y141.59 E18.52393
G1 X158.41 Y158.41 E19.36309
M204 S500
G1 F1500 E12.86309
G0 F3600 X158.69 Y158.41
G0 X153.048 Y158.59
G0 X152.355 Y155.917
G0 X153.048 Y155.198
G0 X153.258 Y155.387
M204 S100
G1 F1500 E19.36309
G1 X153.852 Y154.523 E19.4154
G1 X154.226 Y153.541 E19.46782
G1 X154.34 Y152.595 E19.51536
G1 X154.34 Y147.405 E19.77429
G1 X154.226 Y146.459 E19.82183
G1 X153.852 Y145.477 E19.87425
G1 X153.258 Y144.613 E19.92656
G1 X152.468 Y143.917 E19.97909
G1 X151.542 Y143.432 E20.03124
G1 X150.524 Y143.18 E20.08356
G1 X149.476 Y143.18 E20.13585
G1 X148.458 Y143.432 E20.18817
G1 X147.532 Y143.917 E20.24032
G1 X146.742 Y144.613 E20.29285
G1 X146.148 Y145.477 E20.34516
G1 X145.774 Y146.459 E20.39758
G1 X145.66 Y147.405 E20.44512
G1 X145.66 Y152.595 E20.70405
G1 X145.774 Y153.541 E20.75159
G1 X146.148 Y154.523 E20.80401
G1 X146.742 Y155.387 E20.85632
G1 X147.532 Y156.083 E20.90885
G1 X148.458 Y156.568 E20.961
G1 X149.476 Y156.82 E21.01332
G1 X150.524 Y156.82 E21.06561
G1 X151.542 Y156.568 E21.11793
G1 X152.468 Y156.083 E21.17008
G1 X153.258 Y155.387 E21.22261
M204 S500
G1 F1500 E14.72261
G0 F3600 X153.048 Y155.198
G0 X150.407 Y155.869
G0 X147.645 Y155.917
G0 X147.645 Y158.59
G0 X141.884 Y158.69
G0 X141.884 Y158.289
M204 S100
G1 F1500 E21.22261
G1 X141.709 Y158.114 E21.23495
M204 S500
G0 F3600 X141.709 Y157.549
M204 S100
G1 F1500 X142.45 Y158.289 E21.2872
M204 S500
G0 F3600 X143.015 Y158.289
M204 S100
G1 F1500 X141.709 Y156.983 E21.37934
M204 S500
G0 F3600 X141.709 Y156.417
M204 S100
G1 F1500 X143.581 Y158.289 E21.51142
M204 S500
G0 F3600 X144.147 Y158.289
M204 S100
G1 F1500 X141.709 Y155.851 E21.68344
M204 S500
G0 F3600 X141.709 Y155.286
M204 S100
G1 F1500 X144.712 Y158.289 E21.89532
M204 S500
G0 F3600 X145.278 Y158.289
M204 S100
G1 F1500 X141.709 Y154.72 E22.14713
M204 S500
G0 F3600 X141.709 Y154.154
M204 S100
G1 F1500 X145.844 Y158.289 E22.43887
M204 S500
G0 F3600 X146.409 Y158.289
M204 S100
G1 F1500 X141.709 Y153.589 E22.77049
M204 S500
G0 F3600 X141.709 Y153.023
M204 S100
G1 F1500 X146.975 Y158.289 E23.14203
M204 S500
G0 F3600 X147.541 Y158.289
M204 S100
G1 F1500 X141.709 Y152.457 E23.55351
M204 S500
G0 F3600 X141.709 Y151.892
M204 S100
G1 F1500 X148.107 Y158.289 E24.00489
M204 S500
G0 F3600 X148.672 Y158.289
M204 S100
G1 F1500 X141.709 Y151.326 E24.49616
M204 S500
G0 F3600 X141.709 Y150.76
M204 S100
G1 F1500 X149.238 Y158.289 E25.02738
M204 S500
G0 F3600 X149.804 Y158.289
M204 S100
G1 F1500 X147.952 Y156.438 E25.15801
M204 S500
G0 F3600 X148.874 Y156.793
M204 S100
G1 F1500 X150.369 Y158.289 E25.26353
M204 S500
G0 F3600 X150.935 Y158.289
M204 S100
G1 F1500 X149.585 Y156.939 E25.35877
M204 S500
G0 F3600 X150.151 Y156.939
M204 S100
G1 F1500 X151.501 Y158.289 E25.45402
M204 S500
G0 F3600 X152.066 Y158.289
M204 S100
G1 F1500 X150.681 Y156.904 E25.55174
M204 S500
G0 F3600 X151.134 Y156.791
M204 S100
G1 F1500 X152.632 Y158.289 E25.65744
M204 S500
G0 F3600 X153.198 Y158.289
M204 S100
G1 F1500 X151.587 Y156.678 E25.7711
M204 S500
G0 F3600 X151.959 Y156.484
M204 S100
G1 F1500 X153.763 Y158.289 E25.89842
M204 S500
G0 F3600 X154.329 Y158.289
M204 S100
G1 F1500 X152.33 Y156.29 E26.03946
M204 S500
G0 F3600 X152.67 Y156.064
M204 S100
G1 F1500 X154.895 Y158.289 E26.19644
M204 S500
G0 F3600 X155.46 Y158.289
M204 S100
G1 F1500 X152.971 Y155.799 E26.37209
M204 S500
G0 F3600 X153.271 Y155.534
M204 S100
G1 F1500 X156.026 Y158.289 E26.56647
M204 S500
G0 F3600 X156.592 Y158.289
M204 S100
G1 F1500 X153.519 Y155.216 E26.78329
M204 S500
G0 F3600 X153.749 Y154.881
M204 S100
G1 F1500 X157.158 Y158.289 E27.02378
M204 S500
G0 F3600 X157.723 Y158.289
M204 S100
G1 F1500 X153.972 Y154.538 E27.28843
M204 S500
G0 F3600 X154.128 Y154.128
M204 S100
G1 F1500 X158.289 Y158.289 E27.58201
M204 S500
G0 F3600 X158.289 Y157.723
M204 S100
G1 F1500 X154.284 Y153.718 E27.86459
M204 S500
G0 F3600 X154.381 Y153.249
M204 S100
G1 F1500 X158.289 Y157.158 E28.14035
M204 S500
G0 F3600 X158.289 Y156.592
M204 S100
G1 F1500 X154.442 Y152.745 E28.41178
M204 S500
G0 F3600 X154.459 Y152.196
M204 S100
G1 F1500 X158.289 Y156.026 E28.682
M204 S500
G0 F3600 X158.289 Y155.46
M204 S100
G1 F1500 X154.459 Y151.631 E28.9522
M204 S500
G0 F3600 X154.459 Y151.065
M204 S100
G1 F1500 X158.289 Y154.895 E29.22242
M204 S500
G0 F3600 X158.289 Y154.329
M204 S100
G1 F1500 X154.459 Y150.499 E29.49265
M204 S500
G0 F3600 X154.459 Y149.934
M204 S100
G1 F1500 X158.289 Y153.763 E29.76284
M204 S500
G0 F3600 X158.289 Y153.198
M204 S100
G1 F1500 X154.459 Y149.368 E30.03307
M204 S500
G0 F3600 X154.459 Y148.802
M204 S100
G1 F1500 X158.289 Y152.632 E30.3033
M204 S500
G0 F3600 X158.289 Y152.066
M204 S100
G1 F1500 X154.459 Y148.237 E30.57349
M204 S500
G0 F3600 X154.459 Y147.671
M204 S100
G1 F1500 X158.289 Y151.501 E30.84372
M204 S500
G0 F3600 X158.289 Y150.935
M204 S100
G1 F1500 X154.419 Y147.065 E31.11677
M204 S500
G0 F3600 X154.336 Y146.417
M204 S100
G1 F1500 X158.289 Y150.369 E31.39564
M204 S500
G0 F3600 X158.289 Y149.804
M204 S100
G1 F1500 X153.988 Y145.502 E31.69913
M204 S500
G0 F3600 X153.616 Y145.642
G0 X151.86 Y143.914
G0 X152.046 Y143.561
M204 S100
G1 F1500 X150.195 Y141.71 E31.82973
M204 S500
G0 F3600 X149.63 Y141.71
M204 S100
G1 F1500 X151.124 Y143.205 E31.93517
M204 S500
G0 F3600 X150.413 Y143.059
M204 S100
G1 F1500 X149.064 Y141.71 E32.03035
M204 S500
G0 F3600 X148.498 Y141.71
M204 S100
G1 F1500 X149.847 Y143.059 E32.12553
M204 S500
G0 F3600 X149.317 Y143.095
M204 S100
G1 F1500 X147.933 Y141.71 E32.22322
M204 S500
G0 F3600 X147.367 Y141.71
M204 S100
G1 F1500 X148.864 Y143.207 E32.32884
M204 S500
G0 F3600 X148.411 Y143.32
M204 S100
G1 F1500 X146.801 Y141.71 E32.44243
M204 S500
G0 F3600 X146.236 Y141.71
M204 S100
G1 F1500 X148.039 Y143.514 E32.56968
M204 S500
G0 F3600 X147.668 Y143.708
M204 S100
G1 F1500 X145.67 Y141.71 E32.71065
M204 S500
G0 F3600 X145.104 Y141.71
M204 S100
G1 F1500 X147.328 Y143.934 E32.86756
M204 S500
G0 F3600 X147.028 Y144.199
M204 S100
G1 F1500 X144.538 Y141.71 E33.04321
M204 S500
G0 F3600 X143.973 Y141.71
M204 S100
G1 F1500 X146.727 Y144.464 E33.23752
M204 S500
G0 F3600 X146.479 Y144.782
M204 S100
G1 F1500 X143.407 Y141.71 E33.45427
M204 S500
G0 F3600 X142.841 Y141.71
M204 S100
G1 F1500 X146.249 Y145.118 E33.69472
M204 S500
G0 F3600 X146.026 Y145.461
M204 S100
G1 F1500 X142.276 Y141.71 E33.95934
M204 S500
G0 F3600 X141.709 Y141.709
M204 S100
G1 F1500 X145.87 Y145.87 E34.25292
M204 S500
G0 F3600 X145.714 Y146.28
M204 S100
G1 F1500 X141.709 Y142.275 E34.53549
M204 S500
G0 F3600 X141.709 Y142.841
M204 S100
G1 F1500 X145.618 Y146.749 E34.81126
M204 S500
G0 F3600 X145.556 Y147.253
M204 S100
G1 F1500 X141.709 Y143.406 E35.08269
M204 S500
G0 F3600 X141.709 Y143.972
M204 S100
G1 F1500 X145.539 Y147.802 E35.35291
M204 S500
G0 F3600 X145.539 Y148.367
M204 S100
G1 F1500 X141.709 Y144.538 E35.6231
M204 S500
G0 F3600 X141.709 Y145.103
M204 S100
G1 F1500 X145.539 Y148.933 E35.89333
M204 S500
G0 F3600 X145.539 Y149.499
M204 S100
G1 F1500 X141.709 Y145.669 E36.16356
M204 S500
G0 F3600 X141.709 Y146.235
M204 S100
G1 F1500 X145.539 Y150.065 E36.43379
M204 S500
G0 F3600 X145.539 Y150.63
M204 S100
G1 F1500 X141.709 Y146.801 E36.70398
M204 S500
G0 F3600 X141.709 Y147.366
M204 S100
G1 F1500 X145.539 Y151.196 E36.9742
M204 S500
G0 F3600 X145.539 Y151.762
M204 S100
G1 F1500 X141.709 Y147.932 E37.24443
M204 S500
G0 F3600 X141.709 Y148.498
M204 S100
G1 F1500 X145.539 Y152.327 E37.51462
M204 S500
G0 F3600 X145.579 Y152.933
M204 S100
G1 F1500 X141.709 Y149.063 E37.78767
M204 S500
G0 F3600 X141.709 Y149.629
M204 S100
G1 F1500 X145.662 Y153.582 E38.06658
M204 S500
G0 F3600 X146.011 Y154.496
M204 S100
G1 F1500 X141.709 Y150.195 E38.37007
M204 S500
G0 F3600 X141.31 Y150.195
G0 X141.382 Y141.382
G0 X150.761 Y141.31
G0 X150.761 Y141.71
M204 S100
G1 F1500 X158.289 Y149.238 E38.90121
M204 S500
G0 F3600 X158.289 Y148.672
M204 S100
G1 F1500 X151.327 Y141.71 E39.39242
M204 S500
G0 F3600 X151.892 Y141.71
M204 S100
G1 F1500 X158.289 Y148.107 E39.84376
M204 S500
G0 F3600 X158.289 Y147.541
M204 S100
G1 F1500 X152.458 Y141.71 E40.25517
M204 S500
G0 F3600 X153.024 Y141.71
M204 S100
G1 F1500 X158.289 Y146.975 E40.62665
M204 S500
G0 F3600 X158.289 Y146.409
M204 S100
G1 F1500 X153.589 Y141.71 E40.95822
M204 S500
G0 F3600 X154.155 Y141.71
M204 S100
G1 F1500 X158.289 Y145.844 E41.2499
M204 S500
G0 F3600 X158.289 Y145.278
M204 S100
G1 F1500 X154.721 Y141.71 E41.50164
M204 S500
G0 F3600 X155.287 Y141.71
M204 S100
G1 F1500 X158.289 Y144.712 E41.71345
M204 S500
G0 F3600 X158.289 Y144.147
M204 S100
G1 F1500 X155.852 Y141.71 E41.88539
M204 S500
G0 F3600 X156.418 Y141.71
M204 S100
G1 F1500 X158.289 Y143.581 E42.0174
M204 S500
G0 F3600 X158.289 Y143.015
M204 S100
G1 F1500 X156.984 Y141.71 E42.10947
M204 S500
G0 F3600 X157.549 Y141.71
M204 S100
G1 F1500 X158.289 Y142.45 E42.16168
M204 S500
G0 F3600 X158.289 Y141.884
M204 S100
G1 F1500 X158.115 Y141.71 E42.17396
M204 S500
G0 F3600 X158.115 Y141.01
G1 F1500 E35.67396
;MESH:ENCLOSURE-BRACKET-1.0.stl(1)
G0 F3600 X158.618 Y141.382
G0 X159.38 Y156.43
G0 X160.465 Y156.43
G0 X169.702 Y154.377
G0 X168.645 Y155.917
G0 X170.523 Y156.43
M204 S100
;TYPE:WALL-INNER
G1 F1500 E42.17396
G1 X171.477 Y156.43 E42.22203
G1 X172.403 Y156.201 E42.2701
G1 X173.246 Y155.759 E42.31806
G1 X173.964 Y155.126 E42.36629
G1 X174.505 Y154.34 E42.41437
G1 X174.844 Y153.447 E42.4625
G1 X174.95 Y152.572 E42.50692
G1 X174.95 Y147.428 E42.76612
G1 X174.844 Y146.553 E42.81053
G1 X174.505 Y145.66 E42.85866
G1 X173.964 Y144.874 E42.90674
G1 X173.246 Y144.241 E42.95498
G1 X172.403 Y143.799 E43.00294
G1 X171.477 Y143.57 E43.051
G1 X170.523 Y143.57 E43.09908
G1 X169.597 Y143.799 E43.14714
G1 X168.754 Y144.241 E43.1951
G1 X168.036 Y144.874 E43.24334
G1 X167.495 Y145.66 E43.29142
G1 X167.156 Y146.553 E43.33955
G1 X167.05 Y147.428 E43.38396
G1 X167.05 Y152.572 E43.64316
G1 X167.156 Y153.447 E43.68757
G1 X167.495 Y154.34 E43.73571
G1 X168.036 Y155.126 E43.78379
G1 X168.754 Y155.759 E43.83202
G1 X169.597 Y156.201 E43.87998
G1 X170.523 Y156.43 E43.92805
M204 S500
G0 F3600 X170.572 Y156.03
M204 S100
G1 F1500 X171.428 Y156.03 E43.97118
G1 X172.26 Y155.824 E44.01437
G1 X173.018 Y155.427 E44.05749
G1 X173.662 Y154.859 E44.10075
G1 X174.148 Y154.153 E44.14394
G1 X174.453 Y153.351 E44.18718
G1 X174.55 Y152.548 E44.22794
G1 X174.55 Y147.452 E44.48472
G1 X174.453 Y146.649 E44.52548
G1 X174.148 Y145.847 E44.56871
G1 X173.662 Y145.141 E44.6119
G1 X173.018 Y144.573 E44.65517
G1 X172.26 Y144.176 E44.69829
G1 X171.428 Y143.97 E44.74148
G1 X170.572 Y143.97 E44.78461
G1 X169.74 Y144.176 E44.8278
G1 X168.982 Y144.573 E44.87091
G1 X168.338 Y145.141 E44.91418
G1 X167.852 Y145.847 E44.95737
G1 X167.547 Y146.649 E45.00061
G1 X167.45 Y147.452 E45.04136
G1 X167.45 Y152.548 E45.29815
G1 X167.547 Y153.351 E45.3389
G1 X167.852 Y154.153 E45.38214
G1 X168.338 Y154.859 E45.42533
G1 X168.982 Y155.427 E45.4686
G1 X169.74 Y155.824 E45.51171
G1 X170.572 Y156.03 E45.5549
M204 S500
G0 F3600 X170.621 Y155.63
M204 S100
;TYPE:WALL-OUTER
G1 F1500 X171.379 Y155.63 E45.5931
G1 X172.117 Y155.447 E45.63141
G1 X172.79 Y155.095 E45.66968
G1 X173.36 Y154.592 E45.70799
G1 X173.791 Y153.966 E45.74629
G1 X174.062 Y153.254 E45.78467
G1 X174.15 Y152.524 E45.82172
G1 X174.15 Y147.476 E46.07609
G1 X174.062 Y146.746 E46.11314
G1 X173.791 Y146.034 E46.15153
G1 X173.36 Y145.408 E46.18982
G1 X172.79 Y144.905 E46.22813
G1 X172.117 Y144.553 E46.2664
G1 X171.379 Y144.37 E46.30471
G1 X170.621 Y144.37 E46.34291
G1 X169.883 Y144.553 E46.38122
G1 X169.21 Y144.905 E46.41949
G1 X168.64 Y145.408 E46.4578
G1 X168.209 Y146.034 E46.49609
G1 X167.938 Y146.746 E46.53448
G1 X167.85 Y147.476 E46.57153
G1 X167.85 Y152.524 E46.8259
