;FLAVOR:Marlin
;TIME:15311
;Filament used: 15.2202m
;Layer height: 0.2
;MINX:69.777
;MINY:94.562
;MINZ:0.3
;MAXX:230.287
;MAXY:205.492
;MAXZ:55.7
;Generated with Cura_SteamEngine 4.8.0
M140 S60
M105
M190 S60
M104 S205
M105
M109 S205
M82 ;absolute extrusion mode
M201 X500.00 Y500.00 Z100.00 E5000.00 ;Setup machine max acceleration
M203 X500.00 Y500.00 Z10.00 E50.00 ;Setup machine max feedrate
M204 P500.00 R1000.00 T500.00 ;Setup Print/Retract/Travel acceleration
M205 X8.00 Y8.00 Z0.40 E5.00 ;Setup Jerk
M220 S100 ;Reset Feedrate
M221 S100 ;Reset Flowrate

G28 ;Home

G92 E0 ;Reset Extruder
G1 Z2.0 F3000 ;Move Z Axis up
G1 X10.1 Y20 Z0.28 F5000.0 ;Move to start position
G1 X10.1 Y200.0 Z0.28 F1500.0 E15 ;Draw the first line
G1 X10.4 Y200.0 Z0.28 F5000.0 ;Move to side a little
G1 X10.4 Y20 Z0.28 F1500.0 E30 ;Draw the second line
G92 E0 ;Reset Extruder
G1 Z2.0 F3000 ;Move Z Axis up

G92 E0
G92 E0
G1 F1500 E-6.5
;LAYER_COUNT:279
;LAYER:0
M107
M204 S500
;MESH:ENCLOSURE-UPPER-1.0.stl
G0 F3600 X131.349 Y106.409 Z0.3
M204 S100
;TYPE:WALL-INNER
G1 F1500 E0
G1 X131.773 Y106.28 E0.02233
G1 X132.171 Y106.089 E0.04458
G1 X132.536 Y105.84 E0.06684
G1 X132.862 Y105.541 E0.08913
G1 X133.136 Y105.195 E0.11137
G1 X133.358 Y104.818 E0.13342
G1 X133.521 Y104.401 E0.15598
G1 X133.618 Y103.974 E0.17804
G1 X133.654 Y103.536 E0.20019
G1 X133.621 Y103.09 E0.22272
G1 X133.527 Y102.668 E0.24451
G1 X133.364 Y102.245 E0.26735
G1 X133.141 Y101.862 E0.28968
G1 X132.871 Y101.524 E0.31148
G1 X132.543 Y101.217 E0.33412
G1 X132.182 Y100.972 E0.3561
G1 X131.782 Y100.778 E0.3785
G1 X131.359 Y100.648 E0.4008
G1 X130.925 Y100.581 E0.42293
G1 X130.485 Y100.58 E0.4451
G1 X130.041 Y100.648 E0.46773
G1 X129.624 Y100.776 E0.48971
G1 X129.231 Y100.964 E0.51166
G1 X128.86 Y101.216 E0.53426
G1 X128.536 Y101.518 E0.55658
G1 X128.261 Y101.861 E0.57873
G1 X128.038 Y102.245 E0.60111
G1 X127.89 Y102.631 E0.62194
G1 X127.879 Y102.657 E0.62336
G1 X127.78 Y103.086 E0.64555
G1 X127.747 Y103.527 E0.66783
G1 X127.78 Y103.967 E0.69007
G1 X127.875 Y104.387 E0.71176
G1 X128.035 Y104.799 E0.73403
G1 X128.256 Y105.185 E0.75645
G1 X128.531 Y105.529 E0.77864
G1 X128.859 Y105.836 E0.80128
G1 X129.217 Y106.079 E0.82308
G1 X129.62 Y106.276 E0.84568
G1 X130.037 Y106.403 E0.86765
G1 X130.468 Y106.471 E0.88963
G1 X130.911 Y106.473 E0.91196
G1 X131.349 Y106.409 E0.93426
M204 S500
G0 F3600 X131.261 Y106.018
M204 S100
G1 F1500 X131.627 Y105.906 E0.95355
G1 X131.971 Y105.741 E0.97277
G1 X132.287 Y105.526 E0.99203
G1 X132.568 Y105.268 E1.01125
G1 X132.805 Y104.968 E1.03052
G1 X132.997 Y104.642 E1.04958
G1 X133.138 Y104.283 E1.06902
G1 X133.222 Y103.913 E1.08814
G1 X133.253 Y103.535 E1.10725
G1 X133.224 Y103.149 E1.12675
G1 X133.143 Y102.784 E1.14559
G1 X133.002 Y102.419 E1.16531
G1 X132.81 Y102.089 E1.18455
G1 X132.576 Y101.796 E1.20344
G1 X132.292 Y101.53 E1.22305
G1 X131.981 Y101.319 E1.24199
G1 X131.635 Y101.151 E1.26137
G1 X131.269 Y101.039 E1.28065
G1 X130.894 Y100.981 E1.29977
G1 X130.515 Y100.98 E1.31887
G1 X130.131 Y101.039 E1.33845
G1 X129.77 Y101.15 E1.35748
G1 X129.431 Y101.312 E1.37641
G1 X129.11 Y101.53 E1.39596
G1 X128.83 Y101.791 E1.41525
G1 X128.592 Y102.088 E1.43443
G1 X128.4 Y102.419 E1.45371
G1 X128.262 Y102.775 E1.47295
G1 X128.177 Y103.146 E1.49213
G1 X128.148 Y103.527 E1.51138
G1 X128.177 Y103.907 E1.53059
G1 X128.259 Y104.27 E1.54934
G1 X128.397 Y104.626 E1.56858
G1 X128.588 Y104.959 E1.58792
G1 X128.826 Y105.257 E1.60714
G1 X129.11 Y105.523 E1.62675
G1 X129.418 Y105.732 E1.6455
G1 X129.767 Y105.903 E1.66508
G1 X130.127 Y106.012 E1.68404
G1 X130.5 Y106.071 E1.70307
G1 X130.883 Y106.073 E1.72237
G1 X131.261 Y106.018 E1.74161
M204 S500
G0 F3600 X131.173 Y105.627
M204 S100
;TYPE:WALL-OUTER
G1 F1500 X131.481 Y105.532 E1.75785
G1 X131.771 Y105.393 E1.77406
G1 X132.038 Y105.212 E1.79031
G1 X132.274 Y104.995 E1.80647
G1 X132.474 Y104.742 E1.82272
G1 X132.636 Y104.466 E1.83884
G1 X132.755 Y104.165 E1.85515
G1 X132.826 Y103.852 E1.87133
G1 X132.852 Y103.534 E1.8874
G1 X132.827 Y103.208 E1.90388
G1 X132.759 Y102.9 E1.91977
G1 X132.64 Y102.593 E1.93636
G1 X132.479 Y102.315 E1.95255
G1 X132.282 Y102.068 E1.96847
G1 X132.042 Y101.844 E1.98501
G1 X131.78 Y101.666 E2.00097
G1 X131.488 Y101.524 E2.01734
G1 X131.18 Y101.43 E2.03356
G1 X130.863 Y101.381 E2.04973
G1 X130.545 Y101.38 E2.06575
G1 X130.221 Y101.43 E2.08227
G1 X129.916 Y101.524 E2.09835
G1 X129.631 Y101.66 E2.11426
G1 X129.36 Y101.844 E2.13077
G1 X129.124 Y102.064 E2.14703
G1 X128.923 Y102.315 E2.16323
G1 X128.762 Y102.593 E2.17942
G1 X128.645 Y102.893 E2.19564
G1 X128.574 Y103.206 E2.21181
G1 X128.549 Y103.527 E2.22804
G1 X128.574 Y103.847 E2.24421
G1 X128.643 Y104.153 E2.26002
G1 X128.759 Y104.453 E2.27623
G1 X128.92 Y104.734 E2.29254
G1 X129.12 Y104.985 E2.30872
G1 X129.36 Y105.209 E2.32526
G1 X129.62 Y105.385 E2.34108
G1 X129.914 Y105.53 E2.3576
G1 X130.216 Y105.621 E2.37349
G1 X130.533 Y105.671 E2.38966
G1 X130.855 Y105.673 E2.40589
G1 X131.173 Y105.627 E2.42208
M204 S500
G0 F3600 X131.269 Y106.056
G1 F1500 E-4.07792
G0 F3600 X133.294 Y105.303
G0 X131.759 Y104.253
G0 X137.585 Y104.25
G0 X137.654 Y100.98
G0 X178.748 Y100.98
G0 X178.814 Y104.243
G0 X184.635 Y104.243
G0 X183.098 Y105.292
G0 X184.62 Y106.276
M204 S100
;TYPE:WALL-INNER
G1 F1500 E2.42208
G1 X185.037 Y106.403 E2.44404
G1 X185.468 Y106.471 E2.46603
G1 X185.911 Y106.473 E2.48835
G1 X186.349 Y106.409 E2.51066
G1 X186.773 Y106.28 E2.53299
G1 X187.171 Y106.089 E2.55523
G1 X187.536 Y105.84 E2.5775
G1 X187.862 Y105.541 E2.59979
G1 X188.136 Y105.195 E2.62203
G1 X188.358 Y104.818 E2.64407
G1 X188.521 Y104.401 E2.66663
G1 X188.618 Y103.974 E2.6887
G1 X188.654 Y103.536 E2.71084
G1 X188.621 Y103.09 E2.73338
G1 X188.527 Y102.668 E2.75516
G1 X188.364 Y102.245 E2.778
G1 X188.141 Y101.862 E2.80034
G1 X187.871 Y101.524 E2.82213
G1 X187.543 Y101.217 E2.84477
G1 X187.182 Y100.972 E2.86676
G1 X186.782 Y100.778 E2.88916
G1 X186.359 Y100.648 E2.91146
G1 X185.925 Y100.581 E2.93358
G1 X185.485 Y100.58 E2.95576
G1 X185.041 Y100.648 E2.97839
G1 X184.624 Y100.776 E3.00037
G1 X184.231 Y100.964 E3.02232
G1 X183.86 Y101.216 E3.04492
G1 X183.536 Y101.518 E3.06724
G1 X183.261 Y101.861 E3.08939
G1 X183.038 Y102.245 E3.11177
G1 X182.89 Y102.631 E3.1326
G1 X182.879 Y102.657 E3.13402
G1 X182.78 Y103.086 E3.15621
G1 X182.747 Y103.527 E3.17849
G1 X182.78 Y103.967 E3.20072
G1 X182.875 Y104.387 E3.22242
G1 X183.035 Y104.799 E3.24469
G1 X183.256 Y105.185 E3.2671
G1 X183.531 Y105.529 E3.2893
G1 X183.859 Y105.836 E3.31193
G1 X184.217 Y106.079 E3.33374
G1 X184.62 Y106.276 E3.35634
M204 S500
G0 F3600 X184.767 Y105.903
M204 S100
G1 F1500 X185.127 Y106.012 E3.37529
G1 X185.5 Y106.071 E3.39432
G1 X185.883 Y106.073 E3.41362
G1 X186.261 Y106.018 E3.43287
G1 X186.627 Y105.906 E3.45215
G1 X186.971 Y105.741 E3.47138
G1 X187.287 Y105.526 E3.49064
G1 X187.568 Y105.268 E3.50986
G1 X187.805 Y104.968 E3.52913
G1 X187.997 Y104.642 E3.54819
G1 X188.138 Y104.283 E3.56762
G1 X188.222 Y103.913 E3.58674
G1 X188.253 Y103.535 E3.60585
G1 X188.224 Y103.149 E3.62536
G1 X188.143 Y102.784 E3.6442
G1 X188.002 Y102.419 E3.66391
G1 X187.81 Y102.089 E3.68315
G1 X187.576 Y101.796 E3.70205
G1 X187.292 Y101.53 E3.72165
G1 X186.981 Y101.319 E3.74059
G1 X186.635 Y101.151 E3.75997
G1 X186.269 Y101.039 E3.77926
G1 X185.894 Y100.981 E3.79838
G1 X185.515 Y100.98 E3.81748
G1 X185.131 Y101.039 E3.83705
G1 X184.77 Y101.15 E3.85609
G1 X184.431 Y101.312 E3.87502
G1 X184.11 Y101.53 E3.89457
G1 X183.83 Y101.791 E3.91386
G1 X183.592 Y102.088 E3.93304
G1 X183.4 Y102.419 E3.95232
G1 X183.262 Y102.775 E3.97156
G1 X183.177 Y103.146 E3.99074
G1 X183.148 Y103.527 E4.00999
G1 X183.177 Y103.907 E4.02919
G1 X183.259 Y104.27 E4.04794
G1 X183.397 Y104.626 E4.06718
G1 X183.588 Y104.959 E4.08653
G1 X183.826 Y105.257 E4.10574
G1 X184.11 Y105.523 E4.12535
G1 X184.418 Y105.732 E4.14411
G1 X184.767 Y105.903 E4.16369
M204 S500
G0 F3600 X184.914 Y105.53
M204 S100
;TYPE:WALL-OUTER
G1 F1500 X185.216 Y105.621 E4.17958
G1 X185.533 Y105.671 E4.19576
G1 X185.855 Y105.673 E4.21198
G1 X186.173 Y105.627 E4.22817
G1 X186.481 Y105.532 E4.24441
G1 X186.771 Y105.393 E4.26062
G1 X187.038 Y105.212 E4.27687
G1 X187.274 Y104.995 E4.29303
G1 X187.474 Y104.742 E4.30928
G1 X187.636 Y104.466 E4.3254
G1 X187.755 Y104.165 E4.34171
G1 X187.826 Y103.852 E4.35788
G1 X187.852 Y103.534 E4.37396
G1 X187.827 Y103.208 E4.39044
G1 X187.759 Y102.9 E4.40633
G1 X187.64 Y102.593 E4.42292
G1 X187.479 Y102.315 E4.43911
G1 X187.282 Y102.068 E4.45503
G1 X187.042 Y101.844 E4.47157
G1 X186.78 Y101.666 E4.48753
G1 X186.488 Y101.524 E4.50389
G1 X186.18 Y101.43 E4.52012
G1 X185.863 Y101.381 E4.53628
G1 X185.545 Y101.38 E4.55231
G1 X185.221 Y101.43 E4.56883
G1 X184.916 Y101.524 E4.58491
G1 X184.631 Y101.66 E4.60082
G1 X184.36 Y101.844 E4.61733
G1 X184.124 Y102.064 E4.63358
G1 X183.923 Y102.315 E4.64979
G1 X183.762 Y102.593 E4.66597
G1 X183.645 Y102.893 E4.6822
G1 X183.574 Y103.206 E4.69837
G1 X183.549 Y103.527 E4.7146
G1 X183.574 Y103.847 E4.73077
G1 X183.643 Y104.153 E4.74658
G1 X183.759 Y104.453 E4.76278
G1 X183.92 Y104.734 E4.7791
G1 X184.12 Y104.985 E4.79527
G1 X184.36 Y105.209 E4.81182
G1 X184.62 Y105.385 E4.82764
G1 X184.914 Y105.53 E4.84416
M204 S500
G0 F3600 X184.753 Y105.939
G1 F1500 E-1.65584
G0 F3600 X185.925 Y106.664
G0 X185.799 Y104.809
G0 X199.115 Y147.616
G0 X197.749 Y146.36
G0 X197.115 Y149.323
G0 X197.067 Y150.257
G0 X197.202 Y151.16
G0 X197.514 Y152.03
G0 X197.994 Y152.82
G0 X200.033 Y154.952
M204 S100
;TYPE:WALL-INNER
G1 F1500 E4.84416
G1 X200.53 Y155.093 E4.87019
G1 X201.041 Y155.186 E4.89636
G1 X201.556 Y155.224 E4.92238
G1 X202.073 Y155.216 E4.94843
G1 X202.589 Y155.152 E4.97463
G1 X203.096 Y155.038 E5.00082
G1 X203.59 Y154.874 E5.02705
G1 X204.062 Y154.661 E5.05314
G1 X204.51 Y154.405 E5.07914
G1 X204.932 Y154.103 E5.10529
G1 X205.322 Y153.761 E5.13143
G1 X205.676 Y153.38 E5.15763
G1 X205.989 Y152.969 E5.18366
G1 X206.262 Y152.525 E5.20993
G1 X206.488 Y152.058 E5.23607
G1 X206.665 Y151.574 E5.26204
G1 X206.669 Y151.555 E5.26302
G1 X206.789 Y151.09 E5.28722
G1 X206.795 Y151.069 E5.28832
G1 X206.873 Y150.558 E5.31436
G1 X206.9 Y150.043 E5.34035
G1 X206.877 Y149.512 E5.36713
G1 X206.8 Y148.996 E5.39342
G1 X206.674 Y148.506 E5.41891
G1 X206.501 Y148.021 E5.44486
G1 X206.27 Y147.541 E5.4717
G1 X206 Y147.097 E5.49789
G1 X205.693 Y146.691 E5.52353
G1 X205.334 Y146.303 E5.55017
G1 X204.945 Y145.961 E5.57627
G1 X204.534 Y145.664 E5.60182
G1 X204.073 Y145.398 E5.62864
G1 X203.601 Y145.185 E5.65473
G1 X203.11 Y145.019 E5.68085
G1 X202.605 Y144.905 E5.70694
G1 X202.09 Y144.84 E5.73309
G1 X201.572 Y144.828 E5.7592
G1 X201.067 Y144.862 E5.78471
G1 X200.545 Y144.957 E5.81144
G1 X200.045 Y145.095 E5.83758
G1 X199.564 Y145.285 E5.86364
G1 X199.111 Y145.515 E5.88924
G1 X198.664 Y145.803 E5.91603
G1 X198.257 Y146.127 E5.94225
G1 X197.889 Y146.49 E5.96829
G1 X197.554 Y146.885 E5.99439
G1 X197.262 Y147.317 E6.02066
G1 X197.021 Y147.759 E6.04603
G1 X196.814 Y148.246 E6.0727
G1 X196.664 Y148.731 E6.09828
G1 X196.56 Y149.237 E6.12431
G1 X196.506 Y149.767 E6.15115
G1 X196.506 Y150.286 E6.1773
G1 X196.556 Y150.788 E6.20272
G1 X196.658 Y151.298 E6.22893
G1 X196.808 Y151.793 E6.25499
G1 X197.009 Y152.272 E6.28117
G1 X197.262 Y152.736 E6.3078
G1 X197.545 Y153.157 E6.33336
G1 X197.88 Y153.555 E6.35957
G1 X198.258 Y153.926 E6.38626
G1 X198.655 Y154.241 E6.4118
G1 X199.086 Y154.523 E6.43775
G1 X199.549 Y154.762 E6.46401
G1 X200.033 Y154.952 E6.49021
M204 S500
G0 F3600 X200.161 Y154.573
M204 S100
G1 F1500 X200.621 Y154.703 E6.51429
G1 X201.092 Y154.789 E6.53842
G1 X201.567 Y154.824 E6.56242
G1 X202.045 Y154.816 E6.58651
G1 X202.52 Y154.757 E6.61063
G1 X202.989 Y154.652 E6.63485
G1 X203.444 Y154.501 E6.659
G1 X203.88 Y154.304 E6.68311
G1 X204.294 Y154.068 E6.70712
G1 X204.683 Y153.789 E6.73124
G1 X205.043 Y153.474 E6.75535
G1 X205.37 Y153.122 E6.77956
G1 X205.659 Y152.742 E6.80361
G1 X205.911 Y152.333 E6.82782
G1 X206.119 Y151.902 E6.85194
G1 X206.283 Y151.455 E6.87593
G1 X206.403 Y150.989 E6.90017
G1 X206.475 Y150.517 E6.92423
G1 X206.5 Y150.041 E6.94825
G1 X206.478 Y149.551 E6.97297
G1 X206.407 Y149.075 E6.99722
G1 X206.291 Y148.623 E7.02073
G1 X206.131 Y148.175 E7.0447
G1 X205.918 Y147.732 E7.06947
G1 X205.669 Y147.322 E7.09364
G1 X205.386 Y146.948 E7.11727
G1 X205.054 Y146.59 E7.14188
G1 X204.695 Y146.274 E7.16598
G1 X204.316 Y146 E7.18954
G1 X203.89 Y145.754 E7.21433
G1 X203.455 Y145.558 E7.23837
G1 X203.001 Y145.405 E7.26251
G1 X202.535 Y145.299 E7.28659
G1 X202.06 Y145.239 E7.31072
G1 X201.581 Y145.228 E7.33486
G1 X201.116 Y145.26 E7.35835
G1 X200.634 Y145.347 E7.38303
G1 X200.172 Y145.475 E7.40718
G1 X199.728 Y145.65 E7.43123
G1 X199.31 Y145.862 E7.45485
G1 X198.898 Y146.128 E7.47956
G1 X198.523 Y146.427 E7.50373
G1 X198.182 Y146.762 E7.52781
G1 X197.873 Y147.127 E7.55191
G1 X197.604 Y147.525 E7.57612
G1 X197.382 Y147.933 E7.59952
G1 X197.19 Y148.384 E7.62422
G1 X197.052 Y148.831 E7.6478
G1 X196.956 Y149.298 E7.67182
G1 X196.906 Y149.787 E7.69659
G1 X196.906 Y150.266 E7.72072
G1 X196.952 Y150.729 E7.74417
G1 X197.046 Y151.2 E7.76837
G1 X197.185 Y151.657 E7.79244
G1 X197.37 Y152.099 E7.81658
G1 X197.604 Y152.528 E7.84121
G1 X197.865 Y152.916 E7.86477
G1 X198.174 Y153.283 E7.88895
G1 X198.523 Y153.626 E7.9136
G1 X198.889 Y153.916 E7.93713
G1 X199.288 Y154.177 E7.96116
G1 X199.714 Y154.397 E7.98532
G1 X200.161 Y154.573 E8.00952
M204 S500
G0 F3600 X200.289 Y154.194
M204 S100
;TYPE:WALL-OUTER
G1 F1500 X200.711 Y154.313 E8.03162
G1 X201.143 Y154.392 E8.05375
G1 X201.578 Y154.424 E8.07572
G1 X202.017 Y154.416 E8.09785
G1 X202.452 Y154.362 E8.11994
G1 X202.882 Y154.266 E8.14214
G1 X203.298 Y154.128 E8.16422
G1 X203.698 Y153.947 E8.18635
G1 X204.078 Y153.731 E8.20837
G1 X204.434 Y153.475 E8.23047
G1 X204.764 Y153.186 E8.25257
G1 X205.064 Y152.864 E8.27474
G1 X205.329 Y152.515 E8.29683
G1 X205.56 Y152.141 E8.31898
G1 X205.75 Y151.746 E8.34106
G1 X205.901 Y151.336 E8.36308
G1 X206.011 Y150.909 E8.3853
G1 X206.077 Y150.476 E8.40737
G1 X206.1 Y150.04 E8.42937
G1 X206.079 Y149.59 E8.45207
G1 X206.014 Y149.154 E8.47428
G1 X205.908 Y148.74 E8.49581
G1 X205.761 Y148.329 E8.51781
G1 X205.566 Y147.923 E8.5405
G1 X205.338 Y147.547 E8.56266
G1 X205.079 Y147.206 E8.58424
G1 X204.774 Y146.877 E8.60684
G1 X204.445 Y146.587 E8.62894
G1 X204.098 Y146.336 E8.65052
G1 X203.708 Y146.111 E8.67321
G1 X203.308 Y145.931 E8.69531
G1 X202.892 Y145.79 E8.71745
G1 X202.465 Y145.693 E8.73951
G1 X202.03 Y145.638 E8.7616
G1 X201.591 Y145.628 E8.78373
G1 X201.165 Y145.658 E8.80525
G1 X200.723 Y145.737 E8.82788
G1 X200.299 Y145.855 E8.85005
G1 X199.892 Y146.015 E8.87209
G1 X199.51 Y146.209 E8.89368
G1 X199.132 Y146.453 E8.91635
G1 X198.788 Y146.727 E8.93851
G1 X198.475 Y147.034 E8.9606
G1 X198.192 Y147.369 E8.9827
G1 X197.946 Y147.733 E9.00484
G1 X197.742 Y148.107 E9.0263
G1 X197.566 Y148.521 E9.04897
G1 X197.44 Y148.93 E9.07053
G1 X197.352 Y149.359 E9.0926
G1 X197.306 Y149.807 E9.11529
G1 X197.306 Y150.246 E9.13742
G1 X197.348 Y150.67 E9.15889
G1 X197.434 Y151.102 E9.18108
G1 X197.562 Y151.521 E9.20316
G1 X197.731 Y151.926 E9.22527
G1 X197.946 Y152.32 E9.24789
G1 X198.185 Y152.675 E9.26945
G1 X198.468 Y153.011 E9.29159
G1 X198.788 Y153.326 E9.31421
G1 X199.123 Y153.591 E9.33574
G1 X199.49 Y153.831 E9.35783
G1 X199.88 Y154.032 E9.37994
G1 X200.289 Y154.194 E9.40211
M204 S500
G0 F3600 X200.149 Y154.61
G1 F1500 E2.90211
G0 F3600 X200.449 Y155.268
G0 X200.901 Y153.469
G0 X200.449 Y175.492
G0 X200.449 Y173.637
G0 X191.573 Y174.399
G0 X191.001 Y188.427
M204 S100
;TYPE:WALL-INNER
G1 F1500 E9.40211
G1 X212.401 Y188.427 E10.48043
G1 X212.401 Y173.827 E11.21611
G1 X191.001 Y173.827 E12.29444
G1 X191.001 Y188.427 E13.03012
M204 S500
G0 F3600 X191.401 Y188.027
M204 S100
G1 F1500 X212.001 Y188.027 E14.06814
G1 X212.001 Y174.227 E14.76351
G1 X191.401 Y174.227 E15.80152
G1 X191.401 Y188.027 E16.49689
M204 S500
G0 F3600 X191.801 Y187.627
M204 S100
;TYPE:WALL-OUTER
G1 F1500 X211.601 Y187.627 E17.4946
G1 X211.601 Y174.627 E18.14966
G1 X191.801 Y174.627 E19.14736
G1 X191.801 Y187.627 E19.80242
M204 S500
G1 F1500 E13.30242
G0 F3600 X191.501 Y187.627
