;FLAVOR:Marlin
;TIME:2135
;Filament used: 1.24466m
;Layer height: 0.2
;MINX:144.412
;MINY:131.408
;MINZ:0.3
;MAXX:169.458
;MAXY:168.592
;MAXZ:9.5
;Generated with Cura_SteamEngine 4.10.0
M140 S60
M105
M190 S60
M104 S210
M105
M109 S210
M82 ;absolute extrusion mode
M201 X500.00 Y500.00 Z100.00 E5000.00 ;Setup machine max acceleration
M203 X500.00 Y500.00 Z10.00 E50.00 ;Setup machine max feedrate
M204 P500.00 R1000.00 T500.00 ;Setup Print/Retract/Travel acceleration
M205 X8.00 Y8.00 Z0.40 E5.00 ;Setup Jerk
M220 S100 ;Reset Feedrate
M221 S100 ;Reset Flowrate

G28 ;Home

G92 E0 ;Reset Extruder
G1 Z2.0 F3000 ;Move Z Axis up
G1 X10.1 Y20 Z0.28 F5000.0 ;Move to start position
G1 X10.1 Y200.0 Z0.28 F1500.0 E15 ;Draw the first line
G1 X10.4 Y200.0 Z0.28 F5000.0 ;Move to side a little
G1 X10.4 Y20 Z0.28 F1500.0 E30 ;Draw the second line
G92 E0 ;Reset Extruder
G1 Z2.0 F3000 ;Move Z Axis up

G92 E0
G92 E0
G1 F2700 E-5
;LAYER_COUNT:47
;LAYER:0
M107
M204 S500
;MESH:SPACER-1.0.stl(1)
G0 F6000 X149.619 Y140.93 Z0.3
;TYPE:WALL-INNER
G1 F2700 E0
G1 F1200 X150.406 Y140.93 E0.03926
G1 X150.575 Y140.909 E0.04776
G1 X151.332 Y140.722 E0.08666
G1 X151.489 Y140.663 E0.09503
G1 X152.182 Y140.299 E0.13408
G1 X152.322 Y140.204 E0.14252
G1 X152.912 Y139.683 E0.18179
G1 X153.024 Y139.556 E0.19024
G1 X153.474 Y138.904 E0.22976
G1 X153.55 Y138.753 E0.2382
G1 X153.824 Y138.031 E0.27673
G1 X153.866 Y137.867 E0.28517
G1 X153.961 Y137.084 E0.32452
G1 X153.961 Y136.916 E0.3329
G1 X153.866 Y136.133 E0.37225
G1 X153.824 Y135.969 E0.3807
G1 X153.55 Y135.247 E0.41923
G1 X153.474 Y135.096 E0.42766
G1 X153.024 Y134.444 E0.46719
G1 X152.912 Y134.317 E0.47563
G1 X152.322 Y133.796 E0.5149
G1 X152.182 Y133.701 E0.52334
G1 X151.489 Y133.337 E0.5624
G1 X151.332 Y133.278 E0.57076
G1 X150.575 Y133.091 E0.60967
G1 X150.406 Y133.07 E0.61816
G1 X149.619 Y133.07 E0.65743
G1 X149.451 Y133.091 E0.66587
G1 X148.692 Y133.278 E0.70487
G1 X148.535 Y133.337 E0.71324
G1 X147.842 Y133.701 E0.75229
G1 X147.702 Y133.796 E0.76073
G1 X147.112 Y134.317 E0.8
G1 X147 Y134.444 E0.80845
G1 X146.55 Y135.096 E0.84797
G1 X146.474 Y135.247 E0.85641
G1 X146.2 Y135.969 E0.89493
G1 X146.158 Y136.133 E0.90338
G1 X146.063 Y136.916 E0.94273
G1 X146.063 Y137.084 E0.95111
G1 X146.158 Y137.867 E0.99046
G1 X146.2 Y138.031 E0.99891
G1 X146.474 Y138.753 E1.03744
G1 X146.55 Y138.904 E1.04587
G1 X147 Y139.556 E1.08539
G1 X147.112 Y139.683 E1.09384
G1 X147.702 Y140.204 E1.13311
G1 X147.842 Y140.299 E1.14155
G1 X148.535 Y140.663 E1.18061
G1 X148.692 Y140.722 E1.18897
G1 X149.451 Y140.909 E1.22797
G1 X149.619 Y140.93 E1.23642
G0 F6000 X149.644 Y140.53
G1 F1200 X150.381 Y140.53 E1.27319
G1 X150.502 Y140.515 E1.27927
G1 X151.213 Y140.339 E1.31581
G1 X151.325 Y140.297 E1.32178
G1 X151.976 Y139.955 E1.35847
G1 X152.076 Y139.887 E1.3645
G1 X152.628 Y139.4 E1.40123
G1 X152.708 Y139.309 E1.40727
G1 X153.129 Y138.7 E1.44421
G1 X153.183 Y138.592 E1.45023
G1 X153.442 Y137.91 E1.48663
G1 X153.472 Y137.793 E1.49265
G1 X153.561 Y137.06 E1.52949
G1 X153.561 Y136.94 E1.53548
G1 X153.472 Y136.207 E1.57232
G1 X153.442 Y136.09 E1.57834
G1 X153.183 Y135.408 E1.61474
G1 X153.129 Y135.3 E1.62076
G1 X152.708 Y134.691 E1.6577
G1 X152.628 Y134.6 E1.66375
G1 X152.076 Y134.113 E1.70047
G1 X151.976 Y134.045 E1.7065
G1 X151.325 Y133.703 E1.74319
G1 X151.213 Y133.661 E1.74916
G1 X150.502 Y133.485 E1.7857
G1 X150.381 Y133.47 E1.79178
G1 X149.644 Y133.47 E1.82855
G1 X149.524 Y133.485 E1.83459
G1 X148.811 Y133.661 E1.87123
G1 X148.699 Y133.703 E1.87719
G1 X148.048 Y134.045 E1.91388
G1 X147.948 Y134.113 E1.91991
G1 X147.396 Y134.6 E1.95664
G1 X147.316 Y134.691 E1.96268
G1 X146.895 Y135.3 E1.99962
G1 X146.841 Y135.408 E2.00565
G1 X146.582 Y136.09 E2.04204
G1 X146.552 Y136.207 E2.04807
G1 X146.463 Y136.94 E2.08491
G1 X146.463 Y137.06 E2.09089
G1 X146.552 Y137.793 E2.12773
G1 X146.582 Y137.91 E2.13376
G1 X146.841 Y138.592 E2.17015
G1 X146.895 Y138.7 E2.17618
G1 X147.316 Y139.309 E2.21311
G1 X147.396 Y139.4 E2.21916
G1 X147.948 Y139.887 E2.25588
G1 X148.048 Y139.955 E2.26192
G1 X148.699 Y140.297 E2.2986
G1 X148.811 Y140.339 E2.30457
G1 X149.524 Y140.515 E2.34121
G1 X149.644 Y140.53 E2.34724
G0 F6000 X149.669 Y140.13
;TYPE:WALL-OUTER
G1 F1200 X150.356 Y140.13 E2.38152
G1 X150.429 Y140.121 E2.38519
G1 X151.095 Y139.956 E2.41942
G1 X151.162 Y139.931 E2.42299
G1 X151.77 Y139.612 E2.45724
G1 X151.83 Y139.571 E2.46087
G1 X152.345 Y139.116 E2.49515
G1 X152.393 Y139.062 E2.49876
G1 X152.784 Y138.495 E2.53312
G1 X152.817 Y138.43 E2.53676
G1 X153.06 Y137.789 E2.57096
G1 X153.078 Y137.719 E2.57456
G1 X153.161 Y137.036 E2.60889
G1 X153.161 Y136.964 E2.61248
G1 X153.078 Y136.281 E2.64681
G1 X153.06 Y136.211 E2.65041
G1 X152.817 Y135.57 E2.68461
G1 X152.784 Y135.505 E2.68825
G1 X152.393 Y134.938 E2.72261
G1 X152.345 Y134.884 E2.72622
G1 X151.83 Y134.429 E2.7605
G1 X151.77 Y134.388 E2.76413
G1 X151.162 Y134.069 E2.79838
G1 X151.095 Y134.044 E2.80195
G1 X150.429 Y133.879 E2.83618
G1 X150.356 Y133.87 E2.83985
G1 X149.669 Y133.87 E2.87412
G1 X149.597 Y133.879 E2.87774
G1 X148.929 Y134.044 E2.91207
G1 X148.862 Y134.069 E2.91564
G1 X148.254 Y134.388 E2.94989
G1 X148.194 Y134.429 E2.95352
G1 X147.679 Y134.884 E2.9878
G1 X147.631 Y134.938 E2.99141
G1 X147.24 Y135.505 E3.02577
G1 X147.207 Y135.57 E3.02941
G1 X146.964 Y136.211 E3.06361
G1 X146.946 Y136.281 E3.06721
G1 X146.863 Y136.964 E3.10154
G1 X146.863 Y137.036 E3.10513
G1 X146.946 Y137.719 E3.13946
G1 X146.964 Y137.789 E3.14306
G1 X147.207 Y138.43 E3.17726
G1 X147.24 Y138.495 E3.1809
G1 X147.631 Y139.062 E3.21526
G1 X147.679 Y139.116 E3.21887
G1 X148.194 Y139.571 E3.25315
G1 X148.254 Y139.612 E3.25678
G1 X148.862 Y139.931 E3.29103
G1 X148.929 Y139.956 E3.2946
G1 X149.597 Y140.121 E3.32893
G1 X149.669 Y140.13 E3.33255
G0 F6000 X149.642 Y140.569
G0 X150.239 Y141.12
G0 X150.299 Y141.57
G0 X150.239 Y141.79
;TYPE:WALL-INNER
G1 F1200 X149.365 Y141.752 E3.37619
G1 X148.528 Y141.56 E3.41904
G1 X147.74 Y141.224 E3.46177
G1 X147.024 Y140.751 E3.50459
G1 X146.405 Y140.159 E3.54732
G1 X145.891 Y139.451 E3.59097
G1 X145.526 Y138.693 E3.63294
G1 X145.29 Y137.843 E3.67695
G1 X145.216 Y137 E3.71917
G1 X145.29 Y136.157 E3.76139
G1 X145.526 Y135.307 E3.8054
G1 X145.891 Y134.549 E3.84737
G1 X146.405 Y133.841 E3.89102
G1 X147.024 Y133.249 E3.93375
G1 X147.74 Y132.776 E3.97657
G1 X148.528 Y132.44 E4.0193
G1 X149.365 Y132.248 E4.06215
G1 X150.239 Y132.21 E4.10579
G1 X151.079 Y132.324 E4.14808
G1 X151.89 Y132.588 E4.19064
G1 X152.655 Y132.999 E4.23396
G1 X153.322 Y133.531 E4.27653
G1 X153.89 Y134.181 E4.31959
G1 X154.337 Y134.93 E4.36311
G1 X154.632 Y135.711 E4.40476
G1 X154.788 Y136.576 E4.44861
G1 X154.788 Y137.424 E4.49092
G1 X154.632 Y138.289 E4.53477
G1 X154.337 Y139.07 E4.57642
G1 X153.89 Y139.819 E4.61994
G1 X153.322 Y140.469 E4.663
G1 X152.655 Y141.001 E4.70557
G1 X151.89 Y141.412 E4.74889
G1 X151.079 Y141.676 E4.79144
G1 X150.239 Y141.79 E4.83373
G0 F6000 X150.253 Y142.191
G1 F1200 X149.313 Y142.15 E4.88068
G1 X148.404 Y141.942 E4.9272
G1 X147.55 Y141.578 E4.97351
G1 X146.772 Y141.064 E5.02003
G1 X146.103 Y140.424 E5.06622
G1 X145.547 Y139.659 E5.11341
G1 X145.148 Y138.831 E5.15926
G1 X144.896 Y137.92 E5.20642
G1 X144.893 Y137.879 E5.20847
G1 X144.819 Y137.036 E5.25069
G1 X144.815 Y137 E5.25249
G1 X144.896 Y136.08 E5.29857
G1 X145.148 Y135.169 E5.34573
G1 X145.547 Y134.341 E5.39158
G1 X146.103 Y133.576 E5.43876
G1 X146.772 Y132.936 E5.48495
G1 X147.55 Y132.422 E5.53148
G1 X148.404 Y132.058 E5.57779
G1 X149.313 Y131.85 E5.62431
G1 X150.253 Y131.809 E5.67125
G1 X151.169 Y131.933 E5.71737
G1 X152.049 Y132.219 E5.76353
G1 X152.876 Y132.664 E5.81039
G1 X153.598 Y133.24 E5.85647
G1 X153.622 Y133.268 E5.85831
G1 X154.19 Y133.918 E5.90137
G1 X154.214 Y133.945 E5.90317
G1 X154.232 Y133.976 E5.90496
G1 X154.699 Y134.756 E5.95032
G1 X155.02 Y135.607 E5.99569
G1 X155.188 Y136.538 E6.04289
G1 X155.188 Y137.462 E6.08899
G1 X155.02 Y138.392 E6.13614
G1 X154.699 Y139.244 E6.18156
G1 X154.214 Y140.055 E6.22871
G1 X153.598 Y140.76 E6.27541
G1 X152.876 Y141.336 E6.32149
G1 X152.049 Y141.781 E6.36835
G1 X151.169 Y142.067 E6.41451
G1 X151.133 Y142.071 E6.41632
G1 X150.293 Y142.185 E6.45861
G1 X150.253 Y142.191 E6.46063
G0 F6000 X150.267 Y142.592
;TYPE:WALL-OUTER
G1 F1200 X149.261 Y142.548 E6.51087
G1 X148.28 Y142.324 E6.56107
G1 X147.361 Y141.932 E6.61091
G1 X146.523 Y141.379 E6.661
G1 X145.798 Y140.686 E6.71104
G1 X145.203 Y139.867 E6.76155
G1 X144.771 Y138.97 E6.81122
G1 X144.502 Y137.995 E6.86168
G1 X144.414 Y137 E6.91151
G1 X144.502 Y136.005 E6.96135
G1 X144.771 Y135.03 E7.01181
G1 X145.203 Y134.133 E7.06148
G1 X145.798 Y133.314 E7.11198
G1 X146.523 Y132.621 E7.16202
G1 X147.361 Y132.068 E7.21211
G1 X148.28 Y131.676 E7.26195
G1 X149.261 Y131.452 E7.31216
G1 X150.267 Y131.408 E7.36239
G1 X151.257 Y131.542 E7.41224
G1 X152.21 Y131.851 E7.46222
G1 X153.097 Y132.329 E7.51249
G1 X153.874 Y132.949 E7.56208
G1 X154.54 Y133.711 E7.61257
G1 X155.06 Y134.579 E7.66305
G1 X155.408 Y135.504 E7.71236
G1 X155.588 Y136.5 E7.76285
G1 X155.588 Y137.5 E7.81274
G1 X155.408 Y138.495 E7.86319
G1 X155.06 Y139.421 E7.91254
G1 X154.54 Y140.289 E7.96302
G1 X153.874 Y141.051 E8.01351
G1 X153.097 Y141.671 E8.06311
G1 X152.21 Y142.149 E8.11338
G1 X151.257 Y142.458 E8.16336
G1 X150.267 Y142.592 E8.2132
G0 F6000 X150.248 Y142.153
G0 X150.225 Y141.398
;TYPE:SKIN
G1 F1200 X149.415 Y141.364 E8.25365
G1 X148.652 Y141.189 E8.2927
G1 X147.927 Y140.88 E8.33202
G1 X147.265 Y140.442 E8.37162
G1 X146.702 Y139.903 E8.41051
G1 X146.227 Y139.249 E8.45083
G1 X145.893 Y138.557 E8.48917
G1 X145.674 Y137.768 E8.53002
G1 X145.607 Y137 E8.56848
G1 X145.674 Y136.232 E8.60694
G1 X145.893 Y135.443 E8.64779
G1 X146.227 Y134.751 E8.68613
G1 X146.702 Y134.097 E8.72646
G1 X147.265 Y133.558 E8.76534
G1 X147.927 Y133.12 E8.80494
G1 X148.652 Y132.811 E8.84426
G1 X149.415 Y132.636 E8.88332
G1 X150.225 Y132.602 E8.92376
G1 X150.988 Y132.705 E8.96217
G1 X151.738 Y132.949 E9.00152
G1 X152.439 Y133.325 E9.04121
G1 X153.048 Y133.812 E9.08011
G1 X153.576 Y134.415 E9.1201
G1 X153.983 Y135.097 E9.15972
G1 X154.254 Y135.816 E9.19806
G1 X154.398 Y136.611 E9.23836
G1 X154.398 Y137.389 E9.27718
G1 X154.254 Y138.184 E9.31749
G1 X153.983 Y138.903 E9.35582
G1 X153.576 Y139.585 E9.39544
G1 X153.048 Y140.188 E9.43543
G1 X152.439 Y140.675 E9.47433
G1 X151.738 Y141.051 E9.51402
G1 X150.988 Y141.295 E9.55337
G1 X150.225 Y141.398 E9.59178
G0 F6000 X150.43 Y141.32
G1 F1200 X150.646 Y141.293 E9.60264
G1 X151.447 Y141.095 E9.64381
G1 X151.649 Y141.02 E9.65456
G1 X152.383 Y140.634 E9.69593
G1 X152.562 Y140.512 E9.70674
G1 X153.189 Y139.959 E9.74845
G1 X153.332 Y139.796 E9.75926
G1 X153.81 Y139.103 E9.80127
G1 X153.907 Y138.911 E9.812
G1 X154.196 Y138.149 E9.85266
G1 X154.25 Y137.939 E9.86347
G1 X154.351 Y137.107 E9.90529
G1 X154.351 Y136.893 E9.91596
G1 X154.25 Y136.061 E9.95778
G1 X154.196 Y135.851 E9.96859
G1 X153.907 Y135.089 E10.00925
G1 X153.81 Y134.897 E10.01999
G1 X153.332 Y134.204 E10.06199
G1 X153.189 Y134.041 E10.0728
G1 X152.562 Y133.488 E10.11451
G1 X152.383 Y133.366 E10.12532
G1 X151.649 Y132.98 E10.1667
G1 X151.447 Y132.905 E10.17745
G1 X150.646 Y132.707 E10.21861
G1 X150.43 Y132.68 E10.22947
G1 X149.595 Y132.68 E10.27113
G1 X149.38 Y132.707 E10.28194
G1 X148.577 Y132.905 E10.3232
G1 X148.375 Y132.98 E10.33395
G1 X147.641 Y133.366 E10.37533
G1 X147.462 Y133.488 E10.38613
G1 X146.835 Y134.041 E10.42784
G1 X146.692 Y134.204 E10.43866
G1 X146.214 Y134.897 E10.48066
G1 X146.117 Y135.089 E10.49139
G1 X145.828 Y135.851 E10.53205
G1 X145.774 Y136.061 E10.54287
G1 X145.673 Y136.893 E10.58468
G1 X145.673 Y137.107 E10.59536
G1 X145.774 Y137.939 E10.63717
G1 X145.828 Y138.149 E10.64799
G1 X146.117 Y138.911 E10.68865
G1 X146.214 Y139.103 E10.69938
G1 X146.692 Y139.796 E10.74138
G1 X146.835 Y139.959 E10.7522
G1 X147.462 Y140.512 E10.79391
G1 X147.641 Y140.634 E10.80472
G1 X148.375 Y141.02 E10.84609
G1 X148.577 Y141.095 E10.85684
G1 X149.38 Y141.293 E10.8981
G1 X149.595 Y141.32 E10.90891
G1 X150.43 Y141.32 E10.95057
G0 F6000 X150.395 Y140.739
G1 F2700 E5.95057
;MESH:SPACER-1.0.stl
G0 F6000 X150.606 Y141.077
G0 X150.287 Y139.266
G0 X151.286 Y148.121
G0 X152.246 Y146.555
G0 X153.29 Y149.237
G0 X153.376 Y150.05
G0 X153.265 Y150.862
G0 X152.966 Y151.617
G0 X152.49 Y152.286
G0 X150.381 Y153.93
;TYPE:WALL-INNER
G1 F2700 E10.95057
G1 F1200 X150.549 Y153.909 E10.95902
G1 X151.308 Y153.722 E10.99802
G1 X151.465 Y153.663 E11.00639
G1 X152.158 Y153.299 E11.04544
G1 X152.298 Y153.204 E11.05388
G1 X152.888 Y152.683 E11.09315
G1 X153 Y152.556 E11.1016
G1 X153.45 Y151.904 E11.14112
G1 X153.526 Y151.753 E11.14955
G1 X153.8 Y151.031 E11.18808
G1 X153.842 Y150.867 E11.19653
G1 X153.937 Y150.084 E11.23588
G1 X153.937 Y149.916 E11.24426
G1 X153.842 Y149.133 E11.28361
G1 X153.8 Y148.969 E11.29206
G1 X153.526 Y148.247 E11.33058
G1 X153.45 Y148.096 E11.33902
G1 X153 Y147.444 E11.37854
G1 X152.888 Y147.317 E11.38699
G1 X152.298 Y146.796 E11.42626
G1 X152.158 Y146.701 E11.4347
G1 X151.465 Y146.337 E11.47375
G1 X151.308 Y146.278 E11.48212
G1 X150.549 Y146.091 E11.52112
G1 X150.381 Y146.07 E11.52956
G1 X149.594 Y146.07 E11.56883
G1 X149.425 Y146.091 E11.57732
G1 X148.668 Y146.278 E11.61623
G1 X148.511 Y146.337 E11.62459
G1 X147.818 Y146.701 E11.66365
G1 X147.678 Y146.796 E11.67209
G1 X147.088 Y147.317 E11.71136
G1 X146.976 Y147.444 E11.71981
G1 X146.526 Y148.096 E11.75933
G1 X146.45 Y148.247 E11.76776
G1 X146.176 Y148.969 E11.80629
G1 X146.134 Y149.133 E11.81474
G1 X146.039 Y149.916 E11.85409
G1 X146.039 Y150.084 E11.86247
G1 X146.134 Y150.867 E11.90182
G1 X146.176 Y151.031 E11.91027
G1 X146.45 Y151.753 E11.94879
G1 X146.526 Y151.904 E11.95723
G1 X146.976 Y152.556 E11.99675
G1 X147.088 Y152.683 E12.0052
G1 X147.678 Y153.204 E12.04447
G1 X147.818 Y153.299 E12.05291
G1 X148.511 Y153.663 E12.09196
G1 X148.668 Y153.722 E12.10033
G1 X149.425 Y153.909 E12.13923
G1 X149.594 Y153.93 E12.14773
G1 X150.381 Y153.93 E12.18699
G0 F6000 X150.356 Y153.53
G1 F1200 X150.476 Y153.515 E12.19302
G1 X151.189 Y153.339 E12.22966
G1 X151.301 Y153.297 E12.23563
G1 X151.952 Y152.955 E12.27232
G1 X152.052 Y152.887 E12.27835
G1 X152.604 Y152.4 E12.31508
G1 X152.684 Y152.309 E12.32112
G1 X153.105 Y151.7 E12.35806
G1 X153.159 Y151.592 E12.36408
G1 X153.418 Y150.91 E12.40048
G1 X153.448 Y150.793 E12.4065
G1 X153.537 Y150.06 E12.44334
G1 X153.537 Y149.94 E12.44933
G1 X153.448 Y149.207 E12.48617
G1 X153.418 Y149.09 E12.49219
G1 X153.159 Y148.408 E12.52859
G1 X153.105 Y148.3 E12.53461
G1 X152.684 Y147.691 E12.57155
G1 X152.604 Y147.6 E12.5776
G1 X152.052 Y147.113 E12.61432
G1 X151.952 Y147.045 E12.62035
G1 X151.301 Y146.703 E12.65704
G1 X151.189 Y146.661 E12.66301
G1 X150.476 Y146.485 E12.69965
G1 X150.356 Y146.47 E12.70568
G1 X149.619 Y146.47 E12.74245
G1 X149.498 Y146.485 E12.74853
G1 X148.787 Y146.661 E12.78508
G1 X148.675 Y146.703 E12.79104
G1 X148.024 Y147.045 E12.82773
G1 X147.924 Y147.113 E12.83376
G1 X147.372 Y147.6 E12.87049
G1 X147.292 Y147.691 E12.87653
G1 X146.871 Y148.3 E12.91347
G1 X146.817 Y148.408 E12.9195
G1 X146.558 Y149.09 E12.95589
G1 X146.528 Y149.207 E12.96192
G1 X146.439 Y149.94 E12.99876
G1 X146.439 Y150.06 E13.00474
G1 X146.528 Y150.793 E13.04158
G1 X146.558 Y150.91 E13.04761
G1 X146.817 Y151.592 E13.084
G1 X146.871 Y151.7 E13.09003
G1 X147.292 Y152.309 E13.12696
G1 X147.372 Y152.4 E13.13301
G1 X147.924 Y152.887 E13.16973
G1 X148.024 Y152.955 E13.17577
G1 X148.675 Y153.297 E13.21245
G1 X148.787 Y153.339 E13.21842
G1 X149.498 Y153.515 E13.25496
G1 X149.619 Y153.53 E13.26105
G1 X150.356 Y153.53 E13.29782
G0 F6000 X150.331 Y153.13
;TYPE:WALL-OUTER
G1 F1200 X150.403 Y153.121 E13.30144
G1 X151.071 Y152.956 E13.33576
G1 X151.138 Y152.931 E13.33933
G1 X151.746 Y152.612 E13.37359
G1 X151.806 Y152.571 E13.37721
G1 X152.321 Y152.116 E13.4115
G1 X152.369 Y152.062 E13.4151
G1 X152.76 Y151.495 E13.44946
G1 X152.793 Y151.43 E13.4531
G1 X153.036 Y150.789 E13.4873
G1 X153.054 Y150.719 E13.49091
G1 X153.137 Y150.036 E13.52523
G1 X153.137 Y149.964 E13.52882
G1 X153.054 Y149.281 E13.56315
G1 X153.036 Y149.211 E13.56676
G1 X152.793 Y148.57 E13.60096
